%
(big_prale)
(T5  D=1.2 CR=0 - ZMIN=-8 - flat end mill)
G90 G94
G17
G21
G28 G91 Z0
G90

(Circular2)
M9
T5 M6
S4775 M3
G54
M8
G0 X59.12 Y-18.4
Z10
Z0
G1 Z-1.88 F500
G19 G3 Y-18.28 Z-2 J0.12
G1 Y-18.22
G17 G3 X59 Y-18.1 I-0.12
Y-21.9 J-1.9 F1000
Y-18.1 J1.9
X58.88 Y-18.22 J-0.12
G1 Y-18.28
G19 G2 Y-18.4 Z-1.88 K0.12
G0 Z5
X59.12
Z-1
G1 Z-2.88 F500
G3 Y-18.28 Z-3 J0.12
G1 Y-18.22
G17 G3 X59 Y-18.1 I-0.12
Y-21.9 J-1.9 F1000
Y-18.1 J1.9
X58.88 Y-18.22 J-0.12
G1 Y-18.28
G19 G2 Y-18.4 Z-2.88 K0.12
G0 Z5
X59.12
Z-2
G1 Z-3.88 F500
G3 Y-18.28 Z-4 J0.12
G1 Y-18.22
G17 G3 X59 Y-18.1 I-0.12
Y-21.9 J-1.9 F1000
Y-18.1 J1.9
X58.88 Y-18.22 J-0.12
G1 Y-18.28
G19 G2 Y-18.4 Z-3.88 K0.12
G0 Z5
X59.12
Z-3
G1 Z-4.88 F500
G3 Y-18.28 Z-5 J0.12
G1 Y-18.22
G17 G3 X59 Y-18.1 I-0.12
Y-21.9 J-1.9 F1000
Y-18.1 J1.9
X58.88 Y-18.22 J-0.12
G1 Y-18.28
G19 G2 Y-18.4 Z-4.88 K0.12
G0 Z5
X59.12
Z-4
G1 Z-5.88 F500
G3 Y-18.28 Z-6 J0.12
G1 Y-18.22
G17 G3 X59 Y-18.1 I-0.12
Y-21.9 J-1.9 F1000
Y-18.1 J1.9
X58.88 Y-18.22 J-0.12
G1 Y-18.28
G19 G2 Y-18.4 Z-5.88 K0.12
G0 Z5
X59.12
Z-5
G1 Z-6.88 F500
G3 Y-18.28 Z-7 J0.12
G1 Y-18.22
G17 G3 X59 Y-18.1 I-0.12
Y-21.9 J-1.9 F1000
Y-18.1 J1.9
X58.88 Y-18.22 J-0.12
G1 Y-18.28
G19 G2 Y-18.4 Z-6.88 K0.12
G0 Z5
X59.12
Z-5.5
G1 Z-7.38 F500
G3 Y-18.28 Z-7.5 J0.12
G1 Y-18.22
G17 G3 X59 Y-18.1 I-0.12
Y-21.9 J-1.9 F1000
Y-18.1 J1.9
X58.88 Y-18.22 J-0.12
G1 Y-18.28
G19 G2 Y-18.4 Z-7.38 K0.12
G0 Z5
X59.12
Z-6
G1 Z-7.88 F500
G3 Y-18.28 Z-8 J0.12
G1 Y-18.22
G17 G3 X59 Y-18.1 I-0.12
Y-21.9 J-1.9 F1000
Y-18.1 J1.9
X58.88 Y-18.22 J-0.12
G1 Y-18.28
G19 G2 Y-18.4 Z-7.88 K0.12
G0 Z5
X59.12 Y-28.4
Z0
G1 Z-1.88 F500
G3 Y-28.28 Z-2 J0.12
G1 Y-28.22
G17 G3 X59 Y-28.1 I-0.12
Y-31.9 J-1.9 F1000
Y-28.1 J1.9
X58.88 Y-28.22 J-0.12
G1 Y-28.28
G19 G2 Y-28.4 Z-1.88 K0.12
G0 Z5
X59.12
Z-1
G1 Z-2.88 F500
G3 Y-28.28 Z-3 J0.12
G1 Y-28.22
G17 G3 X59 Y-28.1 I-0.12
Y-31.9 J-1.9 F1000
Y-28.1 J1.9
X58.88 Y-28.22 J-0.12
G1 Y-28.28
G19 G2 Y-28.4 Z-2.88 K0.12
G0 Z5
X59.12
Z-2
G1 Z-3.88 F500
G3 Y-28.28 Z-4 J0.12
G1 Y-28.22
G17 G3 X59 Y-28.1 I-0.12
Y-31.9 J-1.9 F1000
Y-28.1 J1.9
X58.88 Y-28.22 J-0.12
G1 Y-28.28
G19 G2 Y-28.4 Z-3.88 K0.12
G0 Z5
X59.12
Z-3
G1 Z-4.88 F500
G3 Y-28.28 Z-5 J0.12
G1 Y-28.22
G17 G3 X59 Y-28.1 I-0.12
Y-31.9 J-1.9 F1000
Y-28.1 J1.9
X58.88 Y-28.22 J-0.12
G1 Y-28.28
G19 G2 Y-28.4 Z-4.88 K0.12
G0 Z5
X59.12
Z-4
G1 Z-5.88 F500
G3 Y-28.28 Z-6 J0.12
G1 Y-28.22
G17 G3 X59 Y-28.1 I-0.12
Y-31.9 J-1.9 F1000
Y-28.1 J1.9
X58.88 Y-28.22 J-0.12
G1 Y-28.28
G19 G2 Y-28.4 Z-5.88 K0.12
G0 Z5
X59.12
Z-5
G1 Z-6.88 F500
G3 Y-28.28 Z-7 J0.12
G1 Y-28.22
G17 G3 X59 Y-28.1 I-0.12
Y-31.9 J-1.9 F1000
Y-28.1 J1.9
X58.88 Y-28.22 J-0.12
G1 Y-28.28
G19 G2 Y-28.4 Z-6.88 K0.12
G0 Z5
X59.12
Z-5.5
G1 Z-7.38 F500
G3 Y-28.28 Z-7.5 J0.12
G1 Y-28.22
G17 G3 X59 Y-28.1 I-0.12
Y-31.9 J-1.9 F1000
Y-28.1 J1.9
X58.88 Y-28.22 J-0.12
G1 Y-28.28
G19 G2 Y-28.4 Z-7.38 K0.12
G0 Z5
X59.12
Z-6
G1 Z-7.88 F500
G3 Y-28.28 Z-8 J0.12
G1 Y-28.22
G17 G3 X59 Y-28.1 I-0.12
Y-31.9 J-1.9 F1000
Y-28.1 J1.9
X58.88 Y-28.22 J-0.12
G1 Y-28.28
G19 G2 Y-28.4 Z-7.88 K0.12
G0 Z5
X30.32
Z0
G1 Z-1.88 F500
G3 Y-28.28 Z-2 J0.12
G1 Y-28.22
G17 G3 X30.2 Y-28.1 I-0.12
Y-31.9 J-1.9 F1000
Y-28.1 J1.9
X30.08 Y-28.22 J-0.12
G1 Y-28.28
G19 G2 Y-28.4 Z-1.88 K0.12
G0 Z5
X30.32
Z-1
G1 Z-2.88 F500
G3 Y-28.28 Z-3 J0.12
G1 Y-28.22
G17 G3 X30.2 Y-28.1 I-0.12
Y-31.9 J-1.9 F1000
Y-28.1 J1.9
X30.08 Y-28.22 J-0.12
G1 Y-28.28
G19 G2 Y-28.4 Z-2.88 K0.12
G0 Z5
X30.32
Z-2
G1 Z-3.88 F500
G3 Y-28.28 Z-4 J0.12
G1 Y-28.22
G17 G3 X30.2 Y-28.1 I-0.12
Y-31.9 J-1.9 F1000
Y-28.1 J1.9
X30.08 Y-28.22 J-0.12
G1 Y-28.28
G19 G2 Y-28.4 Z-3.88 K0.12
G0 Z5
X30.32
Z-3
G1 Z-4.88 F500
G3 Y-28.28 Z-5 J0.12
G1 Y-28.22
G17 G3 X30.2 Y-28.1 I-0.12
Y-31.9 J-1.9 F1000
Y-28.1 J1.9
X30.08 Y-28.22 J-0.12
G1 Y-28.28
G19 G2 Y-28.4 Z-4.88 K0.12
G0 Z5
X30.32
Z-4
G1 Z-5.88 F500
G3 Y-28.28 Z-6 J0.12
G1 Y-28.22
G17 G3 X30.2 Y-28.1 I-0.12
Y-31.9 J-1.9 F1000
Y-28.1 J1.9
X30.08 Y-28.22 J-0.12
G1 Y-28.28
G19 G2 Y-28.4 Z-5.88 K0.12
G0 Z5
X30.32
Z-5
G1 Z-6.88 F500
G3 Y-28.28 Z-7 J0.12
G1 Y-28.22
G17 G3 X30.2 Y-28.1 I-0.12
Y-31.9 J-1.9 F1000
Y-28.1 J1.9
X30.08 Y-28.22 J-0.12
G1 Y-28.28
G19 G2 Y-28.4 Z-6.88 K0.12
G0 Z5
X30.32
Z-5.5
G1 Z-7.38 F500
G3 Y-28.28 Z-7.5 J0.12
G1 Y-28.22
G17 G3 X30.2 Y-28.1 I-0.12
Y-31.9 J-1.9 F1000
Y-28.1 J1.9
X30.08 Y-28.22 J-0.12
G1 Y-28.28
G19 G2 Y-28.4 Z-7.38 K0.12
G0 Z5
X30.32
Z-6
G1 Z-7.88 F500
G3 Y-28.28 Z-8 J0.12
G1 Y-28.22
G17 G3 X30.2 Y-28.1 I-0.12
Y-31.9 J-1.9 F1000
Y-28.1 J1.9
X30.08 Y-28.22 J-0.12
G1 Y-28.28
G19 G2 Y-28.4 Z-7.88 K0.12
G0 Z5
X20.12 Y-8.4
Z0
G1 Z-1.88 F500
G3 Y-8.28 Z-2 J0.12
G1 Y-8.22
G17 G3 X20 Y-8.1 I-0.12
Y-11.9 J-1.9 F1000
Y-8.1 J1.9
X19.88 Y-8.22 J-0.12
G1 Y-8.28
G19 G2 Y-8.4 Z-1.88 K0.12
G0 Z5
X20.12
Z-1
G1 Z-2.88 F500
G3 Y-8.28 Z-3 J0.12
G1 Y-8.22
G17 G3 X20 Y-8.1 I-0.12
Y-11.9 J-1.9 F1000
Y-8.1 J1.9
X19.88 Y-8.22 J-0.12
G1 Y-8.28
G19 G2 Y-8.4 Z-2.88 K0.12
G0 Z5
X20.12
Z-2
G1 Z-3.88 F500
G3 Y-8.28 Z-4 J0.12
G1 Y-8.22
G17 G3 X20 Y-8.1 I-0.12
Y-11.9 J-1.9 F1000
Y-8.1 J1.9
X19.88 Y-8.22 J-0.12
G1 Y-8.28
G19 G2 Y-8.4 Z-3.88 K0.12
G0 Z5
X20.12
Z-3
G1 Z-4.88 F500
G3 Y-8.28 Z-5 J0.12
G1 Y-8.22
G17 G3 X20 Y-8.1 I-0.12
Y-11.9 J-1.9 F1000
Y-8.1 J1.9
X19.88 Y-8.22 J-0.12
G1 Y-8.28
G19 G2 Y-8.4 Z-4.88 K0.12
G0 Z5
X20.12
Z-4
G1 Z-5.88 F500
G3 Y-8.28 Z-6 J0.12
G1 Y-8.22
G17 G3 X20 Y-8.1 I-0.12
Y-11.9 J-1.9 F1000
Y-8.1 J1.9
X19.88 Y-8.22 J-0.12
G1 Y-8.28
G19 G2 Y-8.4 Z-5.88 K0.12
G0 Z5
X20.12
Z-5
G1 Z-6.88 F500
G3 Y-8.28 Z-7 J0.12
G1 Y-8.22
G17 G3 X20 Y-8.1 I-0.12
Y-11.9 J-1.9 F1000
Y-8.1 J1.9
X19.88 Y-8.22 J-0.12
G1 Y-8.28
G19 G2 Y-8.4 Z-6.88 K0.12
G0 Z5
X20.12
Z-5.5
G1 Z-7.38 F500
G3 Y-8.28 Z-7.5 J0.12
G1 Y-8.22
G17 G3 X20 Y-8.1 I-0.12
Y-11.9 J-1.9 F1000
Y-8.1 J1.9
X19.88 Y-8.22 J-0.12
G1 Y-8.28
G19 G2 Y-8.4 Z-7.38 K0.12
G0 Z5
X20.12
Z-6
G1 Z-7.88 F500
G3 Y-8.28 Z-8 J0.12
G1 Y-8.22
G17 G3 X20 Y-8.1 I-0.12
Y-11.9 J-1.9 F1000
Y-8.1 J1.9
X19.88 Y-8.22 J-0.12
G1 Y-8.28
G19 G2 Y-8.4 Z-7.88 K0.12
G0 Z5
X10.12
Z0
G1 Z-1.88 F500
G3 Y-8.28 Z-2 J0.12
G1 Y-8.22
G17 G3 X10 Y-8.1 I-0.12
Y-11.9 J-1.9 F1000
Y-8.1 J1.9
X9.88 Y-8.22 J-0.12
G1 Y-8.28
G19 G2 Y-8.4 Z-1.88 K0.12
G0 Z5
X10.12
Z-1
G1 Z-2.88 F500
G3 Y-8.28 Z-3 J0.12
G1 Y-8.22
G17 G3 X10 Y-8.1 I-0.12
Y-11.9 J-1.9 F1000
Y-8.1 J1.9
X9.88 Y-8.22 J-0.12
G1 Y-8.28
G19 G2 Y-8.4 Z-2.88 K0.12
G0 Z5
X10.12
Z-2
G1 Z-3.88 F500
G3 Y-8.28 Z-4 J0.12
G1 Y-8.22
G17 G3 X10 Y-8.1 I-0.12
Y-11.9 J-1.9 F1000
Y-8.1 J1.9
X9.88 Y-8.22 J-0.12
G1 Y-8.28
G19 G2 Y-8.4 Z-3.88 K0.12
G0 Z5
X10.12
Z-3
G1 Z-4.88 F500
G3 Y-8.28 Z-5 J0.12
G1 Y-8.22
G17 G3 X10 Y-8.1 I-0.12
Y-11.9 J-1.9 F1000
Y-8.1 J1.9
X9.88 Y-8.22 J-0.12
G1 Y-8.28
G19 G2 Y-8.4 Z-4.88 K0.12
G0 Z5
X10.12
Z-4
G1 Z-5.88 F500
G3 Y-8.28 Z-6 J0.12
G1 Y-8.22
G17 G3 X10 Y-8.1 I-0.12
Y-11.9 J-1.9 F1000
Y-8.1 J1.9
X9.88 Y-8.22 J-0.12
G1 Y-8.28
G19 G2 Y-8.4 Z-5.88 K0.12
G0 Z5
X10.12
Z-5
G1 Z-6.88 F500
G3 Y-8.28 Z-7 J0.12
G1 Y-8.22
G17 G3 X10 Y-8.1 I-0.12
Y-11.9 J-1.9 F1000
Y-8.1 J1.9
X9.88 Y-8.22 J-0.12
G1 Y-8.28
G19 G2 Y-8.4 Z-6.88 K0.12
G0 Z5
X10.12
Z-5.5
G1 Z-7.38 F500
G3 Y-8.28 Z-7.5 J0.12
G1 Y-8.22
G17 G3 X10 Y-8.1 I-0.12
Y-11.9 J-1.9 F1000
Y-8.1 J1.9
X9.88 Y-8.22 J-0.12
G1 Y-8.28
G19 G2 Y-8.4 Z-7.38 K0.12
G0 Z5
X10.12
Z-6
G1 Z-7.88 F500
G3 Y-8.28 Z-8 J0.12
G1 Y-8.22
G17 G3 X10 Y-8.1 I-0.12
Y-11.9 J-1.9 F1000
Y-8.1 J1.9
X9.88 Y-8.22 J-0.12
G1 Y-8.28
G19 G2 Y-8.4 Z-7.88 K0.12
G0 Z5
X10.12 Y-18.4
Z0
G1 Z-1.88 F500
G3 Y-18.28 Z-2 J0.12
G1 Y-18.22
G17 G3 X10 Y-18.1 I-0.12
Y-21.9 J-1.9 F1000
Y-18.1 J1.9
X9.88 Y-18.22 J-0.12
G1 Y-18.28
G19 G2 Y-18.4 Z-1.88 K0.12
G0 Z5
X10.12
Z-1
G1 Z-2.88 F500
G3 Y-18.28 Z-3 J0.12
G1 Y-18.22
G17 G3 X10 Y-18.1 I-0.12
Y-21.9 J-1.9 F1000
Y-18.1 J1.9
X9.88 Y-18.22 J-0.12
G1 Y-18.28
G19 G2 Y-18.4 Z-2.88 K0.12
G0 Z5
X10.12
Z-2
G1 Z-3.88 F500
G3 Y-18.28 Z-4 J0.12
G1 Y-18.22
G17 G3 X10 Y-18.1 I-0.12
Y-21.9 J-1.9 F1000
Y-18.1 J1.9
X9.88 Y-18.22 J-0.12
G1 Y-18.28
G19 G2 Y-18.4 Z-3.88 K0.12
G0 Z5
X10.12
Z-3
G1 Z-4.88 F500
G3 Y-18.28 Z-5 J0.12
G1 Y-18.22
G17 G3 X10 Y-18.1 I-0.12
Y-21.9 J-1.9 F1000
Y-18.1 J1.9
X9.88 Y-18.22 J-0.12
G1 Y-18.28
G19 G2 Y-18.4 Z-4.88 K0.12
G0 Z5
X10.12
Z-4
G1 Z-5.88 F500
G3 Y-18.28 Z-6 J0.12
G1 Y-18.22
G17 G3 X10 Y-18.1 I-0.12
Y-21.9 J-1.9 F1000
Y-18.1 J1.9
X9.88 Y-18.22 J-0.12
G1 Y-18.28
G19 G2 Y-18.4 Z-5.88 K0.12
G0 Z5
X10.12
Z-5
G1 Z-6.88 F500
G3 Y-18.28 Z-7 J0.12
G1 Y-18.22
G17 G3 X10 Y-18.1 I-0.12
Y-21.9 J-1.9 F1000
Y-18.1 J1.9
X9.88 Y-18.22 J-0.12
G1 Y-18.28
G19 G2 Y-18.4 Z-6.88 K0.12
G0 Z5
X10.12
Z-5.5
G1 Z-7.38 F500
G3 Y-18.28 Z-7.5 J0.12
G1 Y-18.22
G17 G3 X10 Y-18.1 I-0.12
Y-21.9 J-1.9 F1000
Y-18.1 J1.9
X9.88 Y-18.22 J-0.12
G1 Y-18.28
G19 G2 Y-18.4 Z-7.38 K0.12
G0 Z5
X10.12
Z-6
G1 Z-7.88 F500
G3 Y-18.28 Z-8 J0.12
G1 Y-18.22
G17 G3 X10 Y-18.1 I-0.12
Y-21.9 J-1.9 F1000
Y-18.1 J1.9
X9.88 Y-18.22 J-0.12
G1 Y-18.28
G19 G2 Y-18.4 Z-7.88 K0.12
G0 Z5
X-9.88
Z0
G1 Z-1.88 F500
G3 Y-18.28 Z-2 J0.12
G1 Y-18.22
G17 G3 X-10 Y-18.1 I-0.12
Y-21.9 J-1.9 F1000
Y-18.1 J1.9
X-10.12 Y-18.22 J-0.12
G1 Y-18.28
G19 G2 Y-18.4 Z-1.88 K0.12
G0 Z5
X-9.88
Z-1
G1 Z-2.88 F500
G3 Y-18.28 Z-3 J0.12
G1 Y-18.22
G17 G3 X-10 Y-18.1 I-0.12
Y-21.9 J-1.9 F1000
Y-18.1 J1.9
X-10.12 Y-18.22 J-0.12
G1 Y-18.28
G19 G2 Y-18.4 Z-2.88 K0.12
G0 Z5
X-9.88
Z-2
G1 Z-3.88 F500
G3 Y-18.28 Z-4 J0.12
G1 Y-18.22
G17 G3 X-10 Y-18.1 I-0.12
Y-21.9 J-1.9 F1000
Y-18.1 J1.9
X-10.12 Y-18.22 J-0.12
G1 Y-18.28
G19 G2 Y-18.4 Z-3.88 K0.12
G0 Z5
X-9.88
Z-3
G1 Z-4.88 F500
G3 Y-18.28 Z-5 J0.12
G1 Y-18.22
G17 G3 X-10 Y-18.1 I-0.12
Y-21.9 J-1.9 F1000
Y-18.1 J1.9
X-10.12 Y-18.22 J-0.12
G1 Y-18.28
G19 G2 Y-18.4 Z-4.88 K0.12
G0 Z5
X-9.88
Z-4
G1 Z-5.88 F500
G3 Y-18.28 Z-6 J0.12
G1 Y-18.22
G17 G3 X-10 Y-18.1 I-0.12
Y-21.9 J-1.9 F1000
Y-18.1 J1.9
X-10.12 Y-18.22 J-0.12
G1 Y-18.28
G19 G2 Y-18.4 Z-5.88 K0.12
G0 Z5
X-9.88
Z-5
G1 Z-6.88 F500
G3 Y-18.28 Z-7 J0.12
G1 Y-18.22
G17 G3 X-10 Y-18.1 I-0.12
Y-21.9 J-1.9 F1000
Y-18.1 J1.9
X-10.12 Y-18.22 J-0.12
G1 Y-18.28
G19 G2 Y-18.4 Z-6.88 K0.12
G0 Z5
X-9.88
Z-5.5
G1 Z-7.38 F500
G3 Y-18.28 Z-7.5 J0.12
G1 Y-18.22
G17 G3 X-10 Y-18.1 I-0.12
Y-21.9 J-1.9 F1000
Y-18.1 J1.9
X-10.12 Y-18.22 J-0.12
G1 Y-18.28
G19 G2 Y-18.4 Z-7.38 K0.12
G0 Z5
X-9.88
Z-6
G1 Z-7.88 F500
G3 Y-18.28 Z-8 J0.12
G1 Y-18.22
G17 G3 X-10 Y-18.1 I-0.12
Y-21.9 J-1.9 F1000
Y-18.1 J1.9
X-10.12 Y-18.22 J-0.12
G1 Y-18.28
G19 G2 Y-18.4 Z-7.88 K0.12
G0 Z5
X-9.88 Y-8.4
Z0
G1 Z-1.88 F500
G3 Y-8.28 Z-2 J0.12
G1 Y-8.22
G17 G3 X-10 Y-8.1 I-0.12
Y-11.9 J-1.9 F1000
Y-8.1 J1.9
X-10.12 Y-8.22 J-0.12
G1 Y-8.28
G19 G2 Y-8.4 Z-1.88 K0.12
G0 Z5
X-9.88
Z-1
G1 Z-2.88 F500
G3 Y-8.28 Z-3 J0.12
G1 Y-8.22
G17 G3 X-10 Y-8.1 I-0.12
Y-11.9 J-1.9 F1000
Y-8.1 J1.9
X-10.12 Y-8.22 J-0.12
G1 Y-8.28
G19 G2 Y-8.4 Z-2.88 K0.12
G0 Z5
X-9.88
Z-2
G1 Z-3.88 F500
G3 Y-8.28 Z-4 J0.12
G1 Y-8.22
G17 G3 X-10 Y-8.1 I-0.12
Y-11.9 J-1.9 F1000
Y-8.1 J1.9
X-10.12 Y-8.22 J-0.12
G1 Y-8.28
G19 G2 Y-8.4 Z-3.88 K0.12
G0 Z5
X-9.88
Z-3
G1 Z-4.88 F500
G3 Y-8.28 Z-5 J0.12
G1 Y-8.22
G17 G3 X-10 Y-8.1 I-0.12
Y-11.9 J-1.9 F1000
Y-8.1 J1.9
X-10.12 Y-8.22 J-0.12
G1 Y-8.28
G19 G2 Y-8.4 Z-4.88 K0.12
G0 Z5
X-9.88
Z-4
G1 Z-5.88 F500
G3 Y-8.28 Z-6 J0.12
G1 Y-8.22
G17 G3 X-10 Y-8.1 I-0.12
Y-11.9 J-1.9 F1000
Y-8.1 J1.9
X-10.12 Y-8.22 J-0.12
G1 Y-8.28
G19 G2 Y-8.4 Z-5.88 K0.12
G0 Z5
X-9.88
Z-5
G1 Z-6.88 F500
G3 Y-8.28 Z-7 J0.12
G1 Y-8.22
G17 G3 X-10 Y-8.1 I-0.12
Y-11.9 J-1.9 F1000
Y-8.1 J1.9
X-10.12 Y-8.22 J-0.12
G1 Y-8.28
G19 G2 Y-8.4 Z-6.88 K0.12
G0 Z5
X-9.88
Z-5.5
G1 Z-7.38 F500
G3 Y-8.28 Z-7.5 J0.12
G1 Y-8.22
G17 G3 X-10 Y-8.1 I-0.12
Y-11.9 J-1.9 F1000
Y-8.1 J1.9
X-10.12 Y-8.22 J-0.12
G1 Y-8.28
G19 G2 Y-8.4 Z-7.38 K0.12
G0 Z5
X-9.88
Z-6
G1 Z-7.88 F500
G3 Y-8.28 Z-8 J0.12
G1 Y-8.22
G17 G3 X-10 Y-8.1 I-0.12
Y-11.9 J-1.9 F1000
Y-8.1 J1.9
X-10.12 Y-8.22 J-0.12
G1 Y-8.28
G19 G2 Y-8.4 Z-7.88 K0.12
G0 Z5
X-19.88
Z0
G1 Z-1.88 F500
G3 Y-8.28 Z-2 J0.12
G1 Y-8.22
G17 G3 X-20 Y-8.1 I-0.12
Y-11.9 J-1.9 F1000
Y-8.1 J1.9
X-20.12 Y-8.22 J-0.12
G1 Y-8.28
G19 G2 Y-8.4 Z-1.88 K0.12
G0 Z5
X-19.88
Z-1
G1 Z-2.88 F500
G3 Y-8.28 Z-3 J0.12
G1 Y-8.22
G17 G3 X-20 Y-8.1 I-0.12
Y-11.9 J-1.9 F1000
Y-8.1 J1.9
X-20.12 Y-8.22 J-0.12
G1 Y-8.28
G19 G2 Y-8.4 Z-2.88 K0.12
G0 Z5
X-19.88
Z-2
G1 Z-3.88 F500
G3 Y-8.28 Z-4 J0.12
G1 Y-8.22
G17 G3 X-20 Y-8.1 I-0.12
Y-11.9 J-1.9 F1000
Y-8.1 J1.9
X-20.12 Y-8.22 J-0.12
G1 Y-8.28
G19 G2 Y-8.4 Z-3.88 K0.12
G0 Z5
X-19.88
Z-3
G1 Z-4.88 F500
G3 Y-8.28 Z-5 J0.12
G1 Y-8.22
G17 G3 X-20 Y-8.1 I-0.12
Y-11.9 J-1.9 F1000
Y-8.1 J1.9
X-20.12 Y-8.22 J-0.12
G1 Y-8.28
G19 G2 Y-8.4 Z-4.88 K0.12
G0 Z5
X-19.88
Z-4
G1 Z-5.88 F500
G3 Y-8.28 Z-6 J0.12
G1 Y-8.22
G17 G3 X-20 Y-8.1 I-0.12
Y-11.9 J-1.9 F1000
Y-8.1 J1.9
X-20.12 Y-8.22 J-0.12
G1 Y-8.28
G19 G2 Y-8.4 Z-5.88 K0.12
G0 Z5
X-19.88
Z-5
G1 Z-6.88 F500
G3 Y-8.28 Z-7 J0.12
G1 Y-8.22
G17 G3 X-20 Y-8.1 I-0.12
Y-11.9 J-1.9 F1000
Y-8.1 J1.9
X-20.12 Y-8.22 J-0.12
G1 Y-8.28
G19 G2 Y-8.4 Z-6.88 K0.12
G0 Z5
X-19.88
Z-5.5
G1 Z-7.38 F500
G3 Y-8.28 Z-7.5 J0.12
G1 Y-8.22
G17 G3 X-20 Y-8.1 I-0.12
Y-11.9 J-1.9 F1000
Y-8.1 J1.9
X-20.12 Y-8.22 J-0.12
G1 Y-8.28
G19 G2 Y-8.4 Z-7.38 K0.12
G0 Z5
X-19.88
Z-6
G1 Z-7.88 F500
G3 Y-8.28 Z-8 J0.12
G1 Y-8.22
G17 G3 X-20 Y-8.1 I-0.12
Y-11.9 J-1.9 F1000
Y-8.1 J1.9
X-20.12 Y-8.22 J-0.12
G1 Y-8.28
G19 G2 Y-8.4 Z-7.88 K0.12
G0 Z5
X-19.88 Y11.6
Z0
G1 Z-1.88 F500
G3 Y11.72 Z-2 J0.12
G1 Y11.78
G17 G3 X-20 Y11.9 I-0.12
Y8.1 J-1.9 F1000
Y11.9 J1.9
X-20.12 Y11.78 J-0.12
G1 Y11.72
G19 G2 Y11.6 Z-1.88 K0.12
G0 Z5
X-19.88
Z-1
G1 Z-2.88 F500
G3 Y11.72 Z-3 J0.12
G1 Y11.78
G17 G3 X-20 Y11.9 I-0.12
Y8.1 J-1.9 F1000
Y11.9 J1.9
X-20.12 Y11.78 J-0.12
G1 Y11.72
G19 G2 Y11.6 Z-2.88 K0.12
G0 Z5
X-19.88
Z-2
G1 Z-3.88 F500
G3 Y11.72 Z-4 J0.12
G1 Y11.78
G17 G3 X-20 Y11.9 I-0.12
Y8.1 J-1.9 F1000
Y11.9 J1.9
X-20.12 Y11.78 J-0.12
G1 Y11.72
G19 G2 Y11.6 Z-3.88 K0.12
G0 Z5
X-19.88
Z-3
G1 Z-4.88 F500
G3 Y11.72 Z-5 J0.12
G1 Y11.78
G17 G3 X-20 Y11.9 I-0.12
Y8.1 J-1.9 F1000
Y11.9 J1.9
X-20.12 Y11.78 J-0.12
G1 Y11.72
G19 G2 Y11.6 Z-4.88 K0.12
G0 Z5
X-19.88
Z-4
G1 Z-5.88 F500
G3 Y11.72 Z-6 J0.12
G1 Y11.78
G17 G3 X-20 Y11.9 I-0.12
Y8.1 J-1.9 F1000
Y11.9 J1.9
X-20.12 Y11.78 J-0.12
G1 Y11.72
G19 G2 Y11.6 Z-5.88 K0.12
G0 Z5
X-19.88
Z-5
G1 Z-6.88 F500
G3 Y11.72 Z-7 J0.12
G1 Y11.78
G17 G3 X-20 Y11.9 I-0.12
Y8.1 J-1.9 F1000
Y11.9 J1.9
X-20.12 Y11.78 J-0.12
G1 Y11.72
G19 G2 Y11.6 Z-6.88 K0.12
G0 Z5
X-19.88
Z-5.5
G1 Z-7.38 F500
G3 Y11.72 Z-7.5 J0.12
G1 Y11.78
G17 G3 X-20 Y11.9 I-0.12
Y8.1 J-1.9 F1000
Y11.9 J1.9
X-20.12 Y11.78 J-0.12
G1 Y11.72
G19 G2 Y11.6 Z-7.38 K0.12
G0 Z5
X-19.88
Z-6
G1 Z-7.88 F500
G3 Y11.72 Z-8 J0.12
G1 Y11.78
G17 G3 X-20 Y11.9 I-0.12
Y8.1 J-1.9 F1000
Y11.9 J1.9
X-20.12 Y11.78 J-0.12
G1 Y11.72
G19 G2 Y11.6 Z-7.88 K0.12
G0 Z5
X-9.88
Z0
G1 Z-1.88 F500
G3 Y11.72 Z-2 J0.12
G1 Y11.78
G17 G3 X-10 Y11.9 I-0.12
Y8.1 J-1.9 F1000
Y11.9 J1.9
X-10.12 Y11.78 J-0.12
G1 Y11.72
G19 G2 Y11.6 Z-1.88 K0.12
G0 Z5
X-9.88
Z-1
G1 Z-2.88 F500
G3 Y11.72 Z-3 J0.12
G1 Y11.78
G17 G3 X-10 Y11.9 I-0.12
Y8.1 J-1.9 F1000
Y11.9 J1.9
X-10.12 Y11.78 J-0.12
G1 Y11.72
G19 G2 Y11.6 Z-2.88 K0.12
G0 Z5
X-9.88
Z-2
G1 Z-3.88 F500
G3 Y11.72 Z-4 J0.12
G1 Y11.78
G17 G3 X-10 Y11.9 I-0.12
Y8.1 J-1.9 F1000
Y11.9 J1.9
X-10.12 Y11.78 J-0.12
G1 Y11.72
G19 G2 Y11.6 Z-3.88 K0.12
G0 Z5
X-9.88
Z-3
G1 Z-4.88 F500
G3 Y11.72 Z-5 J0.12
G1 Y11.78
G17 G3 X-10 Y11.9 I-0.12
Y8.1 J-1.9 F1000
Y11.9 J1.9
X-10.12 Y11.78 J-0.12
G1 Y11.72
G19 G2 Y11.6 Z-4.88 K0.12
G0 Z5
X-9.88
Z-4
G1 Z-5.88 F500
G3 Y11.72 Z-6 J0.12
G1 Y11.78
G17 G3 X-10 Y11.9 I-0.12
Y8.1 J-1.9 F1000
Y11.9 J1.9
X-10.12 Y11.78 J-0.12
G1 Y11.72
G19 G2 Y11.6 Z-5.88 K0.12
G0 Z5
X-9.88
Z-5
G1 Z-6.88 F500
G3 Y11.72 Z-7 J0.12
G1 Y11.78
G17 G3 X-10 Y11.9 I-0.12
Y8.1 J-1.9 F1000
Y11.9 J1.9
X-10.12 Y11.78 J-0.12
G1 Y11.72
G19 G2 Y11.6 Z-6.88 K0.12
G0 Z5
X-9.88
Z-5.5
G1 Z-7.38 F500
G3 Y11.72 Z-7.5 J0.12
G1 Y11.78
G17 G3 X-10 Y11.9 I-0.12
Y8.1 J-1.9 F1000
Y11.9 J1.9
X-10.12 Y11.78 J-0.12
G1 Y11.72
G19 G2 Y11.6 Z-7.38 K0.12
G0 Z5
X-9.88
Z-6
G1 Z-7.88 F500
G3 Y11.72 Z-8 J0.12
G1 Y11.78
G17 G3 X-10 Y11.9 I-0.12
Y8.1 J-1.9 F1000
Y11.9 J1.9
X-10.12 Y11.78 J-0.12
G1 Y11.72
G19 G2 Y11.6 Z-7.88 K0.12
G0 Z5
X-9.88 Y21.6
Z0
G1 Z-1.88 F500
G3 Y21.72 Z-2 J0.12
G1 Y21.78
G17 G3 X-10 Y21.9 I-0.12
Y18.1 J-1.9 F1000
Y21.9 J1.9
X-10.12 Y21.78 J-0.12
G1 Y21.72
G19 G2 Y21.6 Z-1.88 K0.12
G0 Z5
X-9.88
Z-1
G1 Z-2.88 F500
G3 Y21.72 Z-3 J0.12
G1 Y21.78
G17 G3 X-10 Y21.9 I-0.12
Y18.1 J-1.9 F1000
Y21.9 J1.9
X-10.12 Y21.78 J-0.12
G1 Y21.72
G19 G2 Y21.6 Z-2.88 K0.12
G0 Z5
X-9.88
Z-2
G1 Z-3.88 F500
G3 Y21.72 Z-4 J0.12
G1 Y21.78
G17 G3 X-10 Y21.9 I-0.12
Y18.1 J-1.9 F1000
Y21.9 J1.9
X-10.12 Y21.78 J-0.12
G1 Y21.72
G19 G2 Y21.6 Z-3.88 K0.12
G0 Z5
X-9.88
Z-3
G1 Z-4.88 F500
G3 Y21.72 Z-5 J0.12
G1 Y21.78
G17 G3 X-10 Y21.9 I-0.12
Y18.1 J-1.9 F1000
Y21.9 J1.9
X-10.12 Y21.78 J-0.12
G1 Y21.72
G19 G2 Y21.6 Z-4.88 K0.12
G0 Z5
X-9.88
Z-4
G1 Z-5.88 F500
G3 Y21.72 Z-6 J0.12
G1 Y21.78
G17 G3 X-10 Y21.9 I-0.12
Y18.1 J-1.9 F1000
Y21.9 J1.9
X-10.12 Y21.78 J-0.12
G1 Y21.72
G19 G2 Y21.6 Z-5.88 K0.12
G0 Z5
X-9.88
Z-5
G1 Z-6.88 F500
G3 Y21.72 Z-7 J0.12
G1 Y21.78
G17 G3 X-10 Y21.9 I-0.12
Y18.1 J-1.9 F1000
Y21.9 J1.9
X-10.12 Y21.78 J-0.12
G1 Y21.72
G19 G2 Y21.6 Z-6.88 K0.12
G0 Z5
X-9.88
Z-5.5
G1 Z-7.38 F500
G3 Y21.72 Z-7.5 J0.12
G1 Y21.78
G17 G3 X-10 Y21.9 I-0.12
Y18.1 J-1.9 F1000
Y21.9 J1.9
X-10.12 Y21.78 J-0.12
G1 Y21.72
G19 G2 Y21.6 Z-7.38 K0.12
G0 Z5
X-9.88
Z-6
G1 Z-7.88 F500
G3 Y21.72 Z-8 J0.12
G1 Y21.78
G17 G3 X-10 Y21.9 I-0.12
Y18.1 J-1.9 F1000
Y21.9 J1.9
X-10.12 Y21.78 J-0.12
G1 Y21.72
G19 G2 Y21.6 Z-7.88 K0.12
G0 Z5
X10.12
Z0
G1 Z-1.88 F500
G3 Y21.72 Z-2 J0.12
G1 Y21.78
G17 G3 X10 Y21.9 I-0.12
Y18.1 J-1.9 F1000
Y21.9 J1.9
X9.88 Y21.78 J-0.12
G1 Y21.72
G19 G2 Y21.6 Z-1.88 K0.12
G0 Z5
X10.12
Z-1
G1 Z-2.88 F500
G3 Y21.72 Z-3 J0.12
G1 Y21.78
G17 G3 X10 Y21.9 I-0.12
Y18.1 J-1.9 F1000
Y21.9 J1.9
X9.88 Y21.78 J-0.12
G1 Y21.72
G19 G2 Y21.6 Z-2.88 K0.12
G0 Z5
X10.12
Z-2
G1 Z-3.88 F500
G3 Y21.72 Z-4 J0.12
G1 Y21.78
G17 G3 X10 Y21.9 I-0.12
Y18.1 J-1.9 F1000
Y21.9 J1.9
X9.88 Y21.78 J-0.12
G1 Y21.72
G19 G2 Y21.6 Z-3.88 K0.12
G0 Z5
X10.12
Z-3
G1 Z-4.88 F500
G3 Y21.72 Z-5 J0.12
G1 Y21.78
G17 G3 X10 Y21.9 I-0.12
Y18.1 J-1.9 F1000
Y21.9 J1.9
X9.88 Y21.78 J-0.12
G1 Y21.72
G19 G2 Y21.6 Z-4.88 K0.12
G0 Z5
X10.12
Z-4
G1 Z-5.88 F500
G3 Y21.72 Z-6 J0.12
G1 Y21.78
G17 G3 X10 Y21.9 I-0.12
Y18.1 J-1.9 F1000
Y21.9 J1.9
X9.88 Y21.78 J-0.12
G1 Y21.72
G19 G2 Y21.6 Z-5.88 K0.12
G0 Z5
X10.12
Z-5
G1 Z-6.88 F500
G3 Y21.72 Z-7 J0.12
G1 Y21.78
G17 G3 X10 Y21.9 I-0.12
Y18.1 J-1.9 F1000
Y21.9 J1.9
X9.88 Y21.78 J-0.12
G1 Y21.72
G19 G2 Y21.6 Z-6.88 K0.12
G0 Z5
X10.12
Z-5.5
G1 Z-7.38 F500
G3 Y21.72 Z-7.5 J0.12
G1 Y21.78
G17 G3 X10 Y21.9 I-0.12
Y18.1 J-1.9 F1000
Y21.9 J1.9
X9.88 Y21.78 J-0.12
G1 Y21.72
G19 G2 Y21.6 Z-7.38 K0.12
G0 Z5
X10.12
Z-6
G1 Z-7.88 F500
G3 Y21.72 Z-8 J0.12
G1 Y21.78
G17 G3 X10 Y21.9 I-0.12
Y18.1 J-1.9 F1000
Y21.9 J1.9
X9.88 Y21.78 J-0.12
G1 Y21.72
G19 G2 Y21.6 Z-7.88 K0.12
G0 Z5
X10.12 Y11.6
Z0
G1 Z-1.88 F500
G3 Y11.72 Z-2 J0.12
G1 Y11.78
G17 G3 X10 Y11.9 I-0.12
Y8.1 J-1.9 F1000
Y11.9 J1.9
X9.88 Y11.78 J-0.12
G1 Y11.72
G19 G2 Y11.6 Z-1.88 K0.12
G0 Z5
X10.12
Z-1
G1 Z-2.88 F500
G3 Y11.72 Z-3 J0.12
G1 Y11.78
G17 G3 X10 Y11.9 I-0.12
Y8.1 J-1.9 F1000
Y11.9 J1.9
X9.88 Y11.78 J-0.12
G1 Y11.72
G19 G2 Y11.6 Z-2.88 K0.12
G0 Z5
X10.12
Z-2
G1 Z-3.88 F500
G3 Y11.72 Z-4 J0.12
G1 Y11.78
G17 G3 X10 Y11.9 I-0.12
Y8.1 J-1.9 F1000
Y11.9 J1.9
X9.88 Y11.78 J-0.12
G1 Y11.72
G19 G2 Y11.6 Z-3.88 K0.12
G0 Z5
X10.12
Z-3
G1 Z-4.88 F500
G3 Y11.72 Z-5 J0.12
G1 Y11.78
G17 G3 X10 Y11.9 I-0.12
Y8.1 J-1.9 F1000
Y11.9 J1.9
X9.88 Y11.78 J-0.12
G1 Y11.72
G19 G2 Y11.6 Z-4.88 K0.12
G0 Z5
X10.12
Z-4
G1 Z-5.88 F500
G3 Y11.72 Z-6 J0.12
G1 Y11.78
G17 G3 X10 Y11.9 I-0.12
Y8.1 J-1.9 F1000
Y11.9 J1.9
X9.88 Y11.78 J-0.12
G1 Y11.72
G19 G2 Y11.6 Z-5.88 K0.12
G0 Z5
X10.12
Z-5
G1 Z-6.88 F500
G3 Y11.72 Z-7 J0.12
G1 Y11.78
G17 G3 X10 Y11.9 I-0.12
Y8.1 J-1.9 F1000
Y11.9 J1.9
X9.88 Y11.78 J-0.12
G1 Y11.72
G19 G2 Y11.6 Z-6.88 K0.12
G0 Z5
X10.12
Z-5.5
G1 Z-7.38 F500
G3 Y11.72 Z-7.5 J0.12
G1 Y11.78
G17 G3 X10 Y11.9 I-0.12
Y8.1 J-1.9 F1000
Y11.9 J1.9
X9.88 Y11.78 J-0.12
G1 Y11.72
G19 G2 Y11.6 Z-7.38 K0.12
G0 Z5
X10.12
Z-6
G1 Z-7.88 F500
G3 Y11.72 Z-8 J0.12
G1 Y11.78
G17 G3 X10 Y11.9 I-0.12
Y8.1 J-1.9 F1000
Y11.9 J1.9
X9.88 Y11.78 J-0.12
G1 Y11.72
G19 G2 Y11.6 Z-7.88 K0.12
G0 Z5
X20.12
Z0
G1 Z-1.88 F500
G3 Y11.72 Z-2 J0.12
G1 Y11.78
G17 G3 X20 Y11.9 I-0.12
Y8.1 J-1.9 F1000
Y11.9 J1.9
X19.88 Y11.78 J-0.12
G1 Y11.72
G19 G2 Y11.6 Z-1.88 K0.12
G0 Z5
X20.12
Z-1
G1 Z-2.88 F500
G3 Y11.72 Z-3 J0.12
G1 Y11.78
G17 G3 X20 Y11.9 I-0.12
Y8.1 J-1.9 F1000
Y11.9 J1.9
X19.88 Y11.78 J-0.12
G1 Y11.72
G19 G2 Y11.6 Z-2.88 K0.12
G0 Z5
X20.12
Z-2
G1 Z-3.88 F500
G3 Y11.72 Z-4 J0.12
G1 Y11.78
G17 G3 X20 Y11.9 I-0.12
Y8.1 J-1.9 F1000
Y11.9 J1.9
X19.88 Y11.78 J-0.12
G1 Y11.72
G19 G2 Y11.6 Z-3.88 K0.12
G0 Z5
X20.12
Z-3
G1 Z-4.88 F500
G3 Y11.72 Z-5 J0.12
G1 Y11.78
G17 G3 X20 Y11.9 I-0.12
Y8.1 J-1.9 F1000
Y11.9 J1.9
X19.88 Y11.78 J-0.12
G1 Y11.72
G19 G2 Y11.6 Z-4.88 K0.12
G0 Z5
X20.12
Z-4
G1 Z-5.88 F500
G3 Y11.72 Z-6 J0.12
G1 Y11.78
G17 G3 X20 Y11.9 I-0.12
Y8.1 J-1.9 F1000
Y11.9 J1.9
X19.88 Y11.78 J-0.12
G1 Y11.72
G19 G2 Y11.6 Z-5.88 K0.12
G0 Z5
X20.12
Z-5
G1 Z-6.88 F500
G3 Y11.72 Z-7 J0.12
G1 Y11.78
G17 G3 X20 Y11.9 I-0.12
Y8.1 J-1.9 F1000
Y11.9 J1.9
X19.88 Y11.78 J-0.12
G1 Y11.72
G19 G2 Y11.6 Z-6.88 K0.12
G0 Z5
X20.12
Z-5.5
G1 Z-7.38 F500
G3 Y11.72 Z-7.5 J0.12
G1 Y11.78
G17 G3 X20 Y11.9 I-0.12
Y8.1 J-1.9 F1000
Y11.9 J1.9
X19.88 Y11.78 J-0.12
G1 Y11.72
G19 G2 Y11.6 Z-7.38 K0.12
G0 Z5
X20.12
Z-6
G1 Z-7.88 F500
G3 Y11.72 Z-8 J0.12
G1 Y11.78
G17 G3 X20 Y11.9 I-0.12
Y8.1 J-1.9 F1000
Y11.9 J1.9
X19.88 Y11.78 J-0.12
G1 Y11.72
G19 G2 Y11.6 Z-7.88 K0.12
G0 Z5
X30.32 Y31.6
Z0
G1 Z-1.88 F500
G3 Y31.72 Z-2 J0.12
G1 Y31.78
G17 G3 X30.2 Y31.9 I-0.12
Y28.1 J-1.9 F1000
Y31.9 J1.9
X30.08 Y31.78 J-0.12
G1 Y31.72
G19 G2 Y31.6 Z-1.88 K0.12
G0 Z5
X30.32
Z-1
G1 Z-2.88 F500
G3 Y31.72 Z-3 J0.12
G1 Y31.78
G17 G3 X30.2 Y31.9 I-0.12
Y28.1 J-1.9 F1000
Y31.9 J1.9
X30.08 Y31.78 J-0.12
G1 Y31.72
G19 G2 Y31.6 Z-2.88 K0.12
G0 Z5
X30.32
Z-2
G1 Z-3.88 F500
G3 Y31.72 Z-4 J0.12
G1 Y31.78
G17 G3 X30.2 Y31.9 I-0.12
Y28.1 J-1.9 F1000
Y31.9 J1.9
X30.08 Y31.78 J-0.12
G1 Y31.72
G19 G2 Y31.6 Z-3.88 K0.12
G0 Z5
X30.32
Z-3
G1 Z-4.88 F500
G3 Y31.72 Z-5 J0.12
G1 Y31.78
G17 G3 X30.2 Y31.9 I-0.12
Y28.1 J-1.9 F1000
Y31.9 J1.9
X30.08 Y31.78 J-0.12
G1 Y31.72
G19 G2 Y31.6 Z-4.88 K0.12
G0 Z5
X30.32
Z-4
G1 Z-5.88 F500
G3 Y31.72 Z-6 J0.12
G1 Y31.78
G17 G3 X30.2 Y31.9 I-0.12
Y28.1 J-1.9 F1000
Y31.9 J1.9
X30.08 Y31.78 J-0.12
G1 Y31.72
G19 G2 Y31.6 Z-5.88 K0.12
G0 Z5
X30.32
Z-5
G1 Z-6.88 F500
G3 Y31.72 Z-7 J0.12
G1 Y31.78
G17 G3 X30.2 Y31.9 I-0.12
Y28.1 J-1.9 F1000
Y31.9 J1.9
X30.08 Y31.78 J-0.12
G1 Y31.72
G19 G2 Y31.6 Z-6.88 K0.12
G0 Z5
X30.32
Z-5.5
G1 Z-7.38 F500
G3 Y31.72 Z-7.5 J0.12
G1 Y31.78
G17 G3 X30.2 Y31.9 I-0.12
Y28.1 J-1.9 F1000
Y31.9 J1.9
X30.08 Y31.78 J-0.12
G1 Y31.72
G19 G2 Y31.6 Z-7.38 K0.12
G0 Z5
X30.32
Z-6
G1 Z-7.88 F500
G3 Y31.72 Z-8 J0.12
G1 Y31.78
G17 G3 X30.2 Y31.9 I-0.12
Y28.1 J-1.9 F1000
Y31.9 J1.9
X30.08 Y31.78 J-0.12
G1 Y31.72
G19 G2 Y31.6 Z-7.88 K0.12
G0 Z5
X59.12
Z0
G1 Z-1.88 F500
G3 Y31.72 Z-2 J0.12
G1 Y31.78
G17 G3 X59 Y31.9 I-0.12
Y28.1 J-1.9 F1000
Y31.9 J1.9
X58.88 Y31.78 J-0.12
G1 Y31.72
G19 G2 Y31.6 Z-1.88 K0.12
G0 Z5
X59.12
Z-1
G1 Z-2.88 F500
G3 Y31.72 Z-3 J0.12
G1 Y31.78
G17 G3 X59 Y31.9 I-0.12
Y28.1 J-1.9 F1000
Y31.9 J1.9
X58.88 Y31.78 J-0.12
G1 Y31.72
G19 G2 Y31.6 Z-2.88 K0.12
G0 Z5
X59.12
Z-2
G1 Z-3.88 F500
G3 Y31.72 Z-4 J0.12
G1 Y31.78
G17 G3 X59 Y31.9 I-0.12
Y28.1 J-1.9 F1000
Y31.9 J1.9
X58.88 Y31.78 J-0.12
G1 Y31.72
G19 G2 Y31.6 Z-3.88 K0.12
G0 Z5
X59.12
Z-3
G1 Z-4.88 F500
G3 Y31.72 Z-5 J0.12
G1 Y31.78
G17 G3 X59 Y31.9 I-0.12
Y28.1 J-1.9 F1000
Y31.9 J1.9
X58.88 Y31.78 J-0.12
G1 Y31.72
G19 G2 Y31.6 Z-4.88 K0.12
G0 Z5
X59.12
Z-4
G1 Z-5.88 F500
G3 Y31.72 Z-6 J0.12
G1 Y31.78
G17 G3 X59 Y31.9 I-0.12
Y28.1 J-1.9 F1000
Y31.9 J1.9
X58.88 Y31.78 J-0.12
G1 Y31.72
G19 G2 Y31.6 Z-5.88 K0.12
G0 Z5
X59.12
Z-5
G1 Z-6.88 F500
G3 Y31.72 Z-7 J0.12
G1 Y31.78
G17 G3 X59 Y31.9 I-0.12
Y28.1 J-1.9 F1000
Y31.9 J1.9
X58.88 Y31.78 J-0.12
G1 Y31.72
G19 G2 Y31.6 Z-6.88 K0.12
G0 Z5
X59.12
Z-5.5
G1 Z-7.38 F500
G3 Y31.72 Z-7.5 J0.12
G1 Y31.78
G17 G3 X59 Y31.9 I-0.12
Y28.1 J-1.9 F1000
Y31.9 J1.9
X58.88 Y31.78 J-0.12
G1 Y31.72
G19 G2 Y31.6 Z-7.38 K0.12
G0 Z5
X59.12
Z-6
G1 Z-7.88 F500
G3 Y31.72 Z-8 J0.12
G1 Y31.78
G17 G3 X59 Y31.9 I-0.12
Y28.1 J-1.9 F1000
Y31.9 J1.9
X58.88 Y31.78 J-0.12
G1 Y31.72
G19 G2 Y31.6 Z-7.88 K0.12
G0 Z5
X59.12 Y21.6
Z0
G1 Z-1.88 F500
G3 Y21.72 Z-2 J0.12
G1 Y21.78
G17 G3 X59 Y21.9 I-0.12
Y18.1 J-1.9 F1000
Y21.9 J1.9
X58.88 Y21.78 J-0.12
G1 Y21.72
G19 G2 Y21.6 Z-1.88 K0.12
G0 Z5
X59.12
Z-1
G1 Z-2.88 F500
G3 Y21.72 Z-3 J0.12
G1 Y21.78
G17 G3 X59 Y21.9 I-0.12
Y18.1 J-1.9 F1000
Y21.9 J1.9
X58.88 Y21.78 J-0.12
G1 Y21.72
G19 G2 Y21.6 Z-2.88 K0.12
G0 Z5
X59.12
Z-2
G1 Z-3.88 F500
G3 Y21.72 Z-4 J0.12
G1 Y21.78
G17 G3 X59 Y21.9 I-0.12
Y18.1 J-1.9 F1000
Y21.9 J1.9
X58.88 Y21.78 J-0.12
G1 Y21.72
G19 G2 Y21.6 Z-3.88 K0.12
G0 Z5
X59.12
Z-3
G1 Z-4.88 F500
G3 Y21.72 Z-5 J0.12
G1 Y21.78
G17 G3 X59 Y21.9 I-0.12
Y18.1 J-1.9 F1000
Y21.9 J1.9
X58.88 Y21.78 J-0.12
G1 Y21.72
G19 G2 Y21.6 Z-4.88 K0.12
G0 Z5
X59.12
Z-4
G1 Z-5.88 F500
G3 Y21.72 Z-6 J0.12
G1 Y21.78
G17 G3 X59 Y21.9 I-0.12
Y18.1 J-1.9 F1000
Y21.9 J1.9
X58.88 Y21.78 J-0.12
G1 Y21.72
G19 G2 Y21.6 Z-5.88 K0.12
G0 Z5
X59.12
Z-5
G1 Z-6.88 F500
G3 Y21.72 Z-7 J0.12
G1 Y21.78
G17 G3 X59 Y21.9 I-0.12
Y18.1 J-1.9 F1000
Y21.9 J1.9
X58.88 Y21.78 J-0.12
G1 Y21.72
G19 G2 Y21.6 Z-6.88 K0.12
G0 Z5
X59.12
Z-5.5
G1 Z-7.38 F500
G3 Y21.72 Z-7.5 J0.12
G1 Y21.78
G17 G3 X59 Y21.9 I-0.12
Y18.1 J-1.9 F1000
Y21.9 J1.9
X58.88 Y21.78 J-0.12
G1 Y21.72
G19 G2 Y21.6 Z-7.38 K0.12
G0 Z5
X59.12
Z-6
G1 Z-7.88 F500
G3 Y21.72 Z-8 J0.12
G1 Y21.78
G17 G3 X59 Y21.9 I-0.12
Y18.1 J-1.9 F1000
Y21.9 J1.9
X58.88 Y21.78 J-0.12
G1 Y21.72
G19 G2 Y21.6 Z-7.88 K0.12
G0 Z5
X-30.08 Y31.6
Z0
G1 Z-1.88 F500
G3 Y31.72 Z-2 J0.12
G1 Y31.78
G17 G3 X-30.2 Y31.9 I-0.12
Y28.1 J-1.9 F1000
Y31.9 J1.9
X-30.32 Y31.78 J-0.12
G1 Y31.72
G19 G2 Y31.6 Z-1.88 K0.12
G0 Z5
X-30.08
Z-1
G1 Z-2.88 F500
G3 Y31.72 Z-3 J0.12
G1 Y31.78
G17 G3 X-30.2 Y31.9 I-0.12
Y28.1 J-1.9 F1000
Y31.9 J1.9
X-30.32 Y31.78 J-0.12
G1 Y31.72
G19 G2 Y31.6 Z-2.88 K0.12
G0 Z5
X-30.08
Z-2
G1 Z-3.88 F500
G3 Y31.72 Z-4 J0.12
G1 Y31.78
G17 G3 X-30.2 Y31.9 I-0.12
Y28.1 J-1.9 F1000
Y31.9 J1.9
X-30.32 Y31.78 J-0.12
G1 Y31.72
G19 G2 Y31.6 Z-3.88 K0.12
G0 Z5
X-30.08
Z-3
G1 Z-4.88 F500
G3 Y31.72 Z-5 J0.12
G1 Y31.78
G17 G3 X-30.2 Y31.9 I-0.12
Y28.1 J-1.9 F1000
Y31.9 J1.9
X-30.32 Y31.78 J-0.12
G1 Y31.72
G19 G2 Y31.6 Z-4.88 K0.12
G0 Z5
X-30.08
Z-4
G1 Z-5.88 F500
G3 Y31.72 Z-6 J0.12
G1 Y31.78
G17 G3 X-30.2 Y31.9 I-0.12
Y28.1 J-1.9 F1000
Y31.9 J1.9
X-30.32 Y31.78 J-0.12
G1 Y31.72
G19 G2 Y31.6 Z-5.88 K0.12
G0 Z5
X-30.08
Z-5
G1 Z-6.88 F500
G3 Y31.72 Z-7 J0.12
G1 Y31.78
G17 G3 X-30.2 Y31.9 I-0.12
Y28.1 J-1.9 F1000
Y31.9 J1.9
X-30.32 Y31.78 J-0.12
G1 Y31.72
G19 G2 Y31.6 Z-6.88 K0.12
G0 Z5
X-30.08
Z-5.5
G1 Z-7.38 F500
G3 Y31.72 Z-7.5 J0.12
G1 Y31.78
G17 G3 X-30.2 Y31.9 I-0.12
Y28.1 J-1.9 F1000
Y31.9 J1.9
X-30.32 Y31.78 J-0.12
G1 Y31.72
G19 G2 Y31.6 Z-7.38 K0.12
G0 Z5
X-30.08
Z-6
G1 Z-7.88 F500
G3 Y31.72 Z-8 J0.12
G1 Y31.78
G17 G3 X-30.2 Y31.9 I-0.12
Y28.1 J-1.9 F1000
Y31.9 J1.9
X-30.32 Y31.78 J-0.12
G1 Y31.72
G19 G2 Y31.6 Z-7.88 K0.12
G0 Z5
X-58.88
Z0
G1 Z-1.88 F500
G3 Y31.72 Z-2 J0.12
G1 Y31.78
G17 G3 X-59 Y31.9 I-0.12
Y28.1 J-1.9 F1000
Y31.9 J1.9
X-59.12 Y31.78 J-0.12
G1 Y31.72
G19 G2 Y31.6 Z-1.88 K0.12
G0 Z5
X-58.88
Z-1
G1 Z-2.88 F500
G3 Y31.72 Z-3 J0.12
G1 Y31.78
G17 G3 X-59 Y31.9 I-0.12
Y28.1 J-1.9 F1000
Y31.9 J1.9
X-59.12 Y31.78 J-0.12
G1 Y31.72
G19 G2 Y31.6 Z-2.88 K0.12
G0 Z5
X-58.88
Z-2
G1 Z-3.88 F500
G3 Y31.72 Z-4 J0.12
G1 Y31.78
G17 G3 X-59 Y31.9 I-0.12
Y28.1 J-1.9 F1000
Y31.9 J1.9
X-59.12 Y31.78 J-0.12
G1 Y31.72
G19 G2 Y31.6 Z-3.88 K0.12
G0 Z5
X-58.88
Z-3
G1 Z-4.88 F500
G3 Y31.72 Z-5 J0.12
G1 Y31.78
G17 G3 X-59 Y31.9 I-0.12
Y28.1 J-1.9 F1000
Y31.9 J1.9
X-59.12 Y31.78 J-0.12
G1 Y31.72
G19 G2 Y31.6 Z-4.88 K0.12
G0 Z5
X-58.88
Z-4
G1 Z-5.88 F500
G3 Y31.72 Z-6 J0.12
G1 Y31.78
G17 G3 X-59 Y31.9 I-0.12
Y28.1 J-1.9 F1000
Y31.9 J1.9
X-59.12 Y31.78 J-0.12
G1 Y31.72
G19 G2 Y31.6 Z-5.88 K0.12
G0 Z5
X-58.88
Z-5
G1 Z-6.88 F500
G3 Y31.72 Z-7 J0.12
G1 Y31.78
G17 G3 X-59 Y31.9 I-0.12
Y28.1 J-1.9 F1000
Y31.9 J1.9
X-59.12 Y31.78 J-0.12
G1 Y31.72
G19 G2 Y31.6 Z-6.88 K0.12
G0 Z5
X-58.88
Z-5.5
G1 Z-7.38 F500
G3 Y31.72 Z-7.5 J0.12
G1 Y31.78
G17 G3 X-59 Y31.9 I-0.12
Y28.1 J-1.9 F1000
Y31.9 J1.9
X-59.12 Y31.78 J-0.12
G1 Y31.72
G19 G2 Y31.6 Z-7.38 K0.12
G0 Z5
X-58.88
Z-6
G1 Z-7.88 F500
G3 Y31.72 Z-8 J0.12
G1 Y31.78
G17 G3 X-59 Y31.9 I-0.12
Y28.1 J-1.9 F1000
Y31.9 J1.9
X-59.12 Y31.78 J-0.12
G1 Y31.72
G19 G2 Y31.6 Z-7.88 K0.12
G0 Z5
X-58.88 Y21.6
Z0
G1 Z-1.88 F500
G3 Y21.72 Z-2 J0.12
G1 Y21.78
G17 G3 X-59 Y21.9 I-0.12
Y18.1 J-1.9 F1000
Y21.9 J1.9
X-59.12 Y21.78 J-0.12
G1 Y21.72
G19 G2 Y21.6 Z-1.88 K0.12
G0 Z5
X-58.88
Z-1
G1 Z-2.88 F500
G3 Y21.72 Z-3 J0.12
G1 Y21.78
G17 G3 X-59 Y21.9 I-0.12
Y18.1 J-1.9 F1000
Y21.9 J1.9
X-59.12 Y21.78 J-0.12
G1 Y21.72
G19 G2 Y21.6 Z-2.88 K0.12
G0 Z5
X-58.88
Z-2
G1 Z-3.88 F500
G3 Y21.72 Z-4 J0.12
G1 Y21.78
G17 G3 X-59 Y21.9 I-0.12
Y18.1 J-1.9 F1000
Y21.9 J1.9
X-59.12 Y21.78 J-0.12
G1 Y21.72
G19 G2 Y21.6 Z-3.88 K0.12
G0 Z5
X-58.88
Z-3
G1 Z-4.88 F500
G3 Y21.72 Z-5 J0.12
G1 Y21.78
G17 G3 X-59 Y21.9 I-0.12
Y18.1 J-1.9 F1000
Y21.9 J1.9
X-59.12 Y21.78 J-0.12
G1 Y21.72
G19 G2 Y21.6 Z-4.88 K0.12
G0 Z5
X-58.88
Z-4
G1 Z-5.88 F500
G3 Y21.72 Z-6 J0.12
G1 Y21.78
G17 G3 X-59 Y21.9 I-0.12
Y18.1 J-1.9 F1000
Y21.9 J1.9
X-59.12 Y21.78 J-0.12
G1 Y21.72
G19 G2 Y21.6 Z-5.88 K0.12
G0 Z5
X-58.88
Z-5
G1 Z-6.88 F500
G3 Y21.72 Z-7 J0.12
G1 Y21.78
G17 G3 X-59 Y21.9 I-0.12
Y18.1 J-1.9 F1000
Y21.9 J1.9
X-59.12 Y21.78 J-0.12
G1 Y21.72
G19 G2 Y21.6 Z-6.88 K0.12
G0 Z5
X-58.88
Z-5.5
G1 Z-7.38 F500
G3 Y21.72 Z-7.5 J0.12
G1 Y21.78
G17 G3 X-59 Y21.9 I-0.12
Y18.1 J-1.9 F1000
Y21.9 J1.9
X-59.12 Y21.78 J-0.12
G1 Y21.72
G19 G2 Y21.6 Z-7.38 K0.12
G0 Z5
X-58.88
Z-6
G1 Z-7.88 F500
G3 Y21.72 Z-8 J0.12
G1 Y21.78
G17 G3 X-59 Y21.9 I-0.12
Y18.1 J-1.9 F1000
Y21.9 J1.9
X-59.12 Y21.78 J-0.12
G1 Y21.72
G19 G2 Y21.6 Z-7.88 K0.12
G0 Z5
X-58.88 Y-18.4
Z0
G1 Z-1.88 F500
G3 Y-18.28 Z-2 J0.12
G1 Y-18.22
G17 G3 X-59 Y-18.1 I-0.12
Y-21.9 J-1.9 F1000
Y-18.1 J1.9
X-59.12 Y-18.22 J-0.12
G1 Y-18.28
G19 G2 Y-18.4 Z-1.88 K0.12
G0 Z5
X-58.88
Z-1
G1 Z-2.88 F500
G3 Y-18.28 Z-3 J0.12
G1 Y-18.22
G17 G3 X-59 Y-18.1 I-0.12
Y-21.9 J-1.9 F1000
Y-18.1 J1.9
X-59.12 Y-18.22 J-0.12
G1 Y-18.28
G19 G2 Y-18.4 Z-2.88 K0.12
G0 Z5
X-58.88
Z-2
G1 Z-3.88 F500
G3 Y-18.28 Z-4 J0.12
G1 Y-18.22
G17 G3 X-59 Y-18.1 I-0.12
Y-21.9 J-1.9 F1000
Y-18.1 J1.9
X-59.12 Y-18.22 J-0.12
G1 Y-18.28
G19 G2 Y-18.4 Z-3.88 K0.12
G0 Z5
X-58.88
Z-3
G1 Z-4.88 F500
G3 Y-18.28 Z-5 J0.12
G1 Y-18.22
G17 G3 X-59 Y-18.1 I-0.12
Y-21.9 J-1.9 F1000
Y-18.1 J1.9
X-59.12 Y-18.22 J-0.12
G1 Y-18.28
G19 G2 Y-18.4 Z-4.88 K0.12
G0 Z5
X-58.88
Z-4
G1 Z-5.88 F500
G3 Y-18.28 Z-6 J0.12
G1 Y-18.22
G17 G3 X-59 Y-18.1 I-0.12
Y-21.9 J-1.9 F1000
Y-18.1 J1.9
X-59.12 Y-18.22 J-0.12
G1 Y-18.28
G19 G2 Y-18.4 Z-5.88 K0.12
G0 Z5
X-58.88
Z-5
G1 Z-6.88 F500
G3 Y-18.28 Z-7 J0.12
G1 Y-18.22
G17 G3 X-59 Y-18.1 I-0.12
Y-21.9 J-1.9 F1000
Y-18.1 J1.9
X-59.12 Y-18.22 J-0.12
G1 Y-18.28
G19 G2 Y-18.4 Z-6.88 K0.12
G0 Z5
X-58.88
Z-5.5
G1 Z-7.38 F500
G3 Y-18.28 Z-7.5 J0.12
G1 Y-18.22
G17 G3 X-59 Y-18.1 I-0.12
Y-21.9 J-1.9 F1000
Y-18.1 J1.9
X-59.12 Y-18.22 J-0.12
G1 Y-18.28
G19 G2 Y-18.4 Z-7.38 K0.12
G0 Z5
X-58.88
Z-6
G1 Z-7.88 F500
G3 Y-18.28 Z-8 J0.12
G1 Y-18.22
G17 G3 X-59 Y-18.1 I-0.12
Y-21.9 J-1.9 F1000
Y-18.1 J1.9
X-59.12 Y-18.22 J-0.12
G1 Y-18.28
G19 G2 Y-18.4 Z-7.88 K0.12
G0 Z5
X-58.88 Y-28.4
Z0
G1 Z-1.88 F500
G3 Y-28.28 Z-2 J0.12
G1 Y-28.22
G17 G3 X-59 Y-28.1 I-0.12
Y-31.9 J-1.9 F1000
Y-28.1 J1.9
X-59.12 Y-28.22 J-0.12
G1 Y-28.28
G19 G2 Y-28.4 Z-1.88 K0.12
G0 Z5
X-58.88
Z-1
G1 Z-2.88 F500
G3 Y-28.28 Z-3 J0.12
G1 Y-28.22
G17 G3 X-59 Y-28.1 I-0.12
Y-31.9 J-1.9 F1000
Y-28.1 J1.9
X-59.12 Y-28.22 J-0.12
G1 Y-28.28
G19 G2 Y-28.4 Z-2.88 K0.12
G0 Z5
X-58.88
Z-2
G1 Z-3.88 F500
G3 Y-28.28 Z-4 J0.12
G1 Y-28.22
G17 G3 X-59 Y-28.1 I-0.12
Y-31.9 J-1.9 F1000
Y-28.1 J1.9
X-59.12 Y-28.22 J-0.12
G1 Y-28.28
G19 G2 Y-28.4 Z-3.88 K0.12
G0 Z5
X-58.88
Z-3
G1 Z-4.88 F500
G3 Y-28.28 Z-5 J0.12
G1 Y-28.22
G17 G3 X-59 Y-28.1 I-0.12
Y-31.9 J-1.9 F1000
Y-28.1 J1.9
X-59.12 Y-28.22 J-0.12
G1 Y-28.28
G19 G2 Y-28.4 Z-4.88 K0.12
G0 Z5
X-58.88
Z-4
G1 Z-5.88 F500
G3 Y-28.28 Z-6 J0.12
G1 Y-28.22
G17 G3 X-59 Y-28.1 I-0.12
Y-31.9 J-1.9 F1000
Y-28.1 J1.9
X-59.12 Y-28.22 J-0.12
G1 Y-28.28
G19 G2 Y-28.4 Z-5.88 K0.12
G0 Z5
X-58.88
Z-5
G1 Z-6.88 F500
G3 Y-28.28 Z-7 J0.12
G1 Y-28.22
G17 G3 X-59 Y-28.1 I-0.12
Y-31.9 J-1.9 F1000
Y-28.1 J1.9
X-59.12 Y-28.22 J-0.12
G1 Y-28.28
G19 G2 Y-28.4 Z-6.88 K0.12
G0 Z5
X-58.88
Z-5.5
G1 Z-7.38 F500
G3 Y-28.28 Z-7.5 J0.12
G1 Y-28.22
G17 G3 X-59 Y-28.1 I-0.12
Y-31.9 J-1.9 F1000
Y-28.1 J1.9
X-59.12 Y-28.22 J-0.12
G1 Y-28.28
G19 G2 Y-28.4 Z-7.38 K0.12
G0 Z5
X-58.88
Z-6
G1 Z-7.88 F500
G3 Y-28.28 Z-8 J0.12
G1 Y-28.22
G17 G3 X-59 Y-28.1 I-0.12
Y-31.9 J-1.9 F1000
Y-28.1 J1.9
X-59.12 Y-28.22 J-0.12
G1 Y-28.28
G19 G2 Y-28.4 Z-7.88 K0.12
G0 Z5
X-30.08
Z0
G1 Z-1.88 F500
G3 Y-28.28 Z-2 J0.12
G1 Y-28.22
G17 G3 X-30.2 Y-28.1 I-0.12
Y-31.9 J-1.9 F1000
Y-28.1 J1.9
X-30.32 Y-28.22 J-0.12
G1 Y-28.28
G19 G2 Y-28.4 Z-1.88 K0.12
G0 Z5
X-30.08
Z-1
G1 Z-2.88 F500
G3 Y-28.28 Z-3 J0.12
G1 Y-28.22
G17 G3 X-30.2 Y-28.1 I-0.12
Y-31.9 J-1.9 F1000
Y-28.1 J1.9
X-30.32 Y-28.22 J-0.12
G1 Y-28.28
G19 G2 Y-28.4 Z-2.88 K0.12
G0 Z5
X-30.08
Z-2
G1 Z-3.88 F500
G3 Y-28.28 Z-4 J0.12
G1 Y-28.22
G17 G3 X-30.2 Y-28.1 I-0.12
Y-31.9 J-1.9 F1000
Y-28.1 J1.9
X-30.32 Y-28.22 J-0.12
G1 Y-28.28
G19 G2 Y-28.4 Z-3.88 K0.12
G0 Z5
X-30.08
Z-3
G1 Z-4.88 F500
G3 Y-28.28 Z-5 J0.12
G1 Y-28.22
G17 G3 X-30.2 Y-28.1 I-0.12
Y-31.9 J-1.9 F1000
Y-28.1 J1.9
X-30.32 Y-28.22 J-0.12
G1 Y-28.28
G19 G2 Y-28.4 Z-4.88 K0.12
G0 Z5
X-30.08
Z-4
G1 Z-5.88 F500
G3 Y-28.28 Z-6 J0.12
G1 Y-28.22
G17 G3 X-30.2 Y-28.1 I-0.12
Y-31.9 J-1.9 F1000
Y-28.1 J1.9
X-30.32 Y-28.22 J-0.12
G1 Y-28.28
G19 G2 Y-28.4 Z-5.88 K0.12
G0 Z5
X-30.08
Z-5
G1 Z-6.88 F500
G3 Y-28.28 Z-7 J0.12
G1 Y-28.22
G17 G3 X-30.2 Y-28.1 I-0.12
Y-31.9 J-1.9 F1000
Y-28.1 J1.9
X-30.32 Y-28.22 J-0.12
G1 Y-28.28
G19 G2 Y-28.4 Z-6.88 K0.12
G0 Z5
X-30.08
Z-5.5
G1 Z-7.38 F500
G3 Y-28.28 Z-7.5 J0.12
G1 Y-28.22
G17 G3 X-30.2 Y-28.1 I-0.12
Y-31.9 J-1.9 F1000
Y-28.1 J1.9
X-30.32 Y-28.22 J-0.12
G1 Y-28.28
G19 G2 Y-28.4 Z-7.38 K0.12
G0 Z5
X-30.08
Z-6
G1 Z-7.88 F500
G3 Y-28.28 Z-8 J0.12
G1 Y-28.22
G17 G3 X-30.2 Y-28.1 I-0.12
Y-31.9 J-1.9 F1000
Y-28.1 J1.9
X-30.32 Y-28.22 J-0.12
G1 Y-28.28
G19 G2 Y-28.4 Z-7.88 K0.12
G0 Z10
G17

(2D Contour2)
M8
G0 X-62.449 Y42.96
Z10
Z5
G1 Z2 F500
Z-0.88
G19 G2 Y42.84 Z-1 J-0.12
G1 Y42.72
G17 G3 X-62.329 Y42.6 I0.12
G1 X64 F1000
G2 X64.6 Y42 J-0.6
G1 Y-42
G2 X64 Y-42.6 I-0.6
G1 X-64
G2 X-64.6 Y-42 J0.6
G1 Y42
G2 X-64 Y42.6 I0.6
G1 X-62.329
G3 X-62.209 Y42.72 J0.12
G1 Y42.84
G19 G3 Y42.96 Z-0.88 K0.12
G0 Z5
X-62.449
G1 Z1 F500
Z-1.88
G2 Y42.84 Z-2 J-0.12
G1 Y42.72
G17 G3 X-62.329 Y42.6 I0.12
G1 X64 F1000
G2 X64.6 Y42 J-0.6
G1 Y-42
G2 X64 Y-42.6 I-0.6
G1 X-64
G2 X-64.6 Y-42 J0.6
G1 Y42
G2 X-64 Y42.6 I0.6
G1 X-62.329
G3 X-62.209 Y42.72 J0.12
G1 Y42.84
G19 G3 Y42.96 Z-1.88 K0.12
G0 Z5
X-62.449
G1 Z0 F500
Z-2.88
G2 Y42.84 Z-3 J-0.12
G1 Y42.72
G17 G3 X-62.329 Y42.6 I0.12
G1 X64 F1000
G2 X64.6 Y42 J-0.6
G1 Y-42
G2 X64 Y-42.6 I-0.6
G1 X-64
G2 X-64.6 Y-42 J0.6
G1 Y42
G2 X-64 Y42.6 I0.6
G1 X-62.329
G3 X-62.209 Y42.72 J0.12
G1 Y42.84
G19 G3 Y42.96 Z-2.88 K0.12
G0 Z5
X-62.449
G1 Z-1 F500
Z-3.88
G2 Y42.84 Z-4 J-0.12
G1 Y42.72
G17 G3 X-62.329 Y42.6 I0.12
G1 X64 F1000
G2 X64.6 Y42 J-0.6
G1 Y-42
G2 X64 Y-42.6 I-0.6
G1 X-64
G2 X-64.6 Y-42 J0.6
G1 Y42
G2 X-64 Y42.6 I0.6
G1 X-62.329
G3 X-62.209 Y42.72 J0.12
G1 Y42.84
G19 G3 Y42.96 Z-3.88 K0.12
G0 Z5
X-62.449
G1 Z-2 F500
Z-4.88
G2 Y42.84 Z-5 J-0.12
G1 Y42.72
G17 G3 X-62.329 Y42.6 I0.12
G1 X64 F1000
G2 X64.6 Y42 J-0.6
G1 Y-42
G2 X64 Y-42.6 I-0.6
G1 X-64
G2 X-64.6 Y-42 J0.6
G1 Y42
G2 X-64 Y42.6 I0.6
G1 X-62.329
G3 X-62.209 Y42.72 J0.12
G1 Y42.84
G19 G3 Y42.96 Z-4.88 K0.12
G0 Z5
X-62.449
G1 Z-3 F500
Z-5.88
G2 Y42.84 Z-6 J-0.12
G1 Y42.72
G17 G3 X-62.329 Y42.6 I0.12
G1 X64 F1000
G2 X64.6 Y42 J-0.6
G1 Y-42
G2 X64 Y-42.6 I-0.6
G1 X-64
G2 X-64.6 Y-42 J0.6
G1 Y42
G2 X-64 Y42.6 I0.6
G1 X-62.329
G3 X-62.209 Y42.72 J0.12
G1 Y42.84
G19 G3 Y42.96 Z-5.88 K0.12
G0 Z5
X-62.449
G1 Z-4 F500
Z-6.88
G2 Y42.84 Z-7 J-0.12
G1 Y42.72
G17 G3 X-62.329 Y42.6 I0.12
G1 X64 F1000
G2 X64.6 Y42 J-0.6
G1 Y-42
G2 X64 Y-42.6 I-0.6
G1 X-64
G2 X-64.6 Y-42 J0.6
G1 Y42
G2 X-64 Y42.6 I0.6
G1 X-62.329
G3 X-62.209 Y42.72 J0.12
G1 Y42.84
G19 G3 Y42.96 Z-6.88 K0.12
G0 Z5
X-62.449
G1 Z-5 F500
Z-7.88
G2 Y42.84 Z-8 J-0.12
G1 Y42.72
G17 G3 X-62.329 Y42.6 I0.12
G1 X64 F1000
G2 X64.6 Y42 J-0.6
G1 Y-42
G2 X64 Y-42.6 I-0.6
G1 X-64
G2 X-64.6 Y-42 J0.6
G1 Y42
G2 X-64 Y42.6 I0.6
G1 X-62.329
G3 X-62.209 Y42.72 J0.12
G1 Y42.84
G19 G3 Y42.96 Z-7.88 K0.12
G0 Z10
G17
M9
G28 G91 Z0
G28 X0 Y0
M30
%
