%
(big plate)
(T5  D=1.2 CR=0 - ZMIN=-9 - flat end mill)
G90 G94
G17
G21
G28 G91 Z0
G90

(2D Contour6)
M9
T5 M6
S4775 M3
G54
M8
G0 X11.54 Y-10.12
Z10
Z5
G1 Z2 F500
Z-0.88
G18 G2 X11.66 Z-1 I0.12
G1 X11.78
G17 G3 X11.9 Y-10 J0.12
X8.1 I-1.9 F1000
X11.9 I1.9
X11.78 Y-9.88 I-0.12
G1 X11.66
G18 G3 X11.54 Z-0.88 K0.12
G1 Y-10.12
Z-1.88 F500
G2 X11.66 Z-2 I0.12
G1 X11.78
G17 G3 X11.9 Y-10 J0.12
X8.1 I-1.9 F1000
X11.9 I1.9
X11.78 Y-9.88 I-0.12
G1 X11.66
G18 G3 X11.54 Z-1.88 K0.12
G1 Y-10.12
Z-2.88 F500
G2 X11.66 Z-3 I0.12
G1 X11.78
G17 G3 X11.9 Y-10 J0.12
X8.1 I-1.9 F1000
X11.9 I1.9
X11.78 Y-9.88 I-0.12
G1 X11.66
G18 G3 X11.54 Z-2.88 K0.12
G1 Y-10.12
Z-3.88 F500
G2 X11.66 Z-4 I0.12
G1 X11.78
G17 G3 X11.9 Y-10 J0.12
X8.1 I-1.9 F1000
X11.9 I1.9
X11.78 Y-9.88 I-0.12
G1 X11.66
G18 G3 X11.54 Z-3.88 K0.12
G1 Y-10.12
Z-4.88 F500
G2 X11.66 Z-5 I0.12
G1 X11.78
G17 G3 X11.9 Y-10 J0.12
X8.1 I-1.9 F1000
X11.9 I1.9
X11.78 Y-9.88 I-0.12
G1 X11.66
G18 G3 X11.54 Z-4.88 K0.12
G1 Y-10.12
Z-5.88 F500
G2 X11.66 Z-6 I0.12
G1 X11.78
G17 G3 X11.9 Y-10 J0.12
X8.1 I-1.9 F1000
X11.9 I1.9
X11.78 Y-9.88 I-0.12
G1 X11.66
G18 G3 X11.54 Z-5.88 K0.12
G1 Y-10.12
Z-6.88 F500
G2 X11.66 Z-7 I0.12
G1 X11.78
G17 G3 X11.9 Y-10 J0.12
X8.1 I-1.9 F1000
X11.9 I1.9
X11.78 Y-9.88 I-0.12
G1 X11.66
G18 G3 X11.54 Z-6.88 K0.12
G1 Y-10.12
Z-7.88 F500
G2 X11.66 Z-8 I0.12
G1 X11.78
G17 G3 X11.9 Y-10 J0.12
X8.1 I-1.9 F1000
X11.9 I1.9
X11.78 Y-9.88 I-0.12
G1 X11.66
G18 G3 X11.54 Z-7.88 K0.12
G1 Y-10.12
Z-8.88 F500
G2 X11.66 Z-9 I0.12
G1 X11.78
G17 G3 X11.9 Y-10 J0.12
X8.1 I-1.9 F1000
X11.9 I1.9
X11.78 Y-9.88 I-0.12
G1 X11.66
G18 G3 X11.54 Z-8.88 K0.12
G0 Z5
X21.54 Y-10.12
G1 Z2 F500
Z-0.88
G2 X21.66 Z-1 I0.12
G1 X21.78
G17 G3 X21.9 Y-10 J0.12
X18.1 I-1.9 F1000
X21.9 I1.9
X21.78 Y-9.88 I-0.12
G1 X21.66
G18 G3 X21.54 Z-0.88 K0.12
G1 Y-10.12
Z-1.88 F500
G2 X21.66 Z-2 I0.12
G1 X21.78
G17 G3 X21.9 Y-10 J0.12
X18.1 I-1.9 F1000
X21.9 I1.9
X21.78 Y-9.88 I-0.12
G1 X21.66
G18 G3 X21.54 Z-1.88 K0.12
G1 Y-10.12
Z-2.88 F500
G2 X21.66 Z-3 I0.12
G1 X21.78
G17 G3 X21.9 Y-10 J0.12
X18.1 I-1.9 F1000
X21.9 I1.9
X21.78 Y-9.88 I-0.12
G1 X21.66
G18 G3 X21.54 Z-2.88 K0.12
G1 Y-10.12
Z-3.88 F500
G2 X21.66 Z-4 I0.12
G1 X21.78
G17 G3 X21.9 Y-10 J0.12
X18.1 I-1.9 F1000
X21.9 I1.9
X21.78 Y-9.88 I-0.12
G1 X21.66
G18 G3 X21.54 Z-3.88 K0.12
G1 Y-10.12
Z-4.88 F500
G2 X21.66 Z-5 I0.12
G1 X21.78
G17 G3 X21.9 Y-10 J0.12
X18.1 I-1.9 F1000
X21.9 I1.9
X21.78 Y-9.88 I-0.12
G1 X21.66
G18 G3 X21.54 Z-4.88 K0.12
G1 Y-10.12
Z-5.88 F500
G2 X21.66 Z-6 I0.12
G1 X21.78
G17 G3 X21.9 Y-10 J0.12
X18.1 I-1.9 F1000
X21.9 I1.9
X21.78 Y-9.88 I-0.12
G1 X21.66
G18 G3 X21.54 Z-5.88 K0.12
G1 Y-10.12
Z-6.88 F500
G2 X21.66 Z-7 I0.12
G1 X21.78
G17 G3 X21.9 Y-10 J0.12
X18.1 I-1.9 F1000
X21.9 I1.9
X21.78 Y-9.88 I-0.12
G1 X21.66
G18 G3 X21.54 Z-6.88 K0.12
G1 Y-10.12
Z-7.88 F500
G2 X21.66 Z-8 I0.12
G1 X21.78
G17 G3 X21.9 Y-10 J0.12
X18.1 I-1.9 F1000
X21.9 I1.9
X21.78 Y-9.88 I-0.12
G1 X21.66
G18 G3 X21.54 Z-7.88 K0.12
G1 Y-10.12
Z-8.88 F500
G2 X21.66 Z-9 I0.12
G1 X21.78
G17 G3 X21.9 Y-10 J0.12
X18.1 I-1.9 F1000
X21.9 I1.9
X21.78 Y-9.88 I-0.12
G1 X21.66
G18 G3 X21.54 Z-8.88 K0.12
G0 Z5
X11.54 Y-20.12
G1 Z2 F500
Z-0.88
G2 X11.66 Z-1 I0.12
G1 X11.78
G17 G3 X11.9 Y-20 J0.12
X8.1 I-1.9 F1000
X11.9 I1.9
X11.78 Y-19.88 I-0.12
G1 X11.66
G18 G3 X11.54 Z-0.88 K0.12
G1 Y-20.12
Z-1.88 F500
G2 X11.66 Z-2 I0.12
G1 X11.78
G17 G3 X11.9 Y-20 J0.12
X8.1 I-1.9 F1000
X11.9 I1.9
X11.78 Y-19.88 I-0.12
G1 X11.66
G18 G3 X11.54 Z-1.88 K0.12
G1 Y-20.12
Z-2.88 F500
G2 X11.66 Z-3 I0.12
G1 X11.78
G17 G3 X11.9 Y-20 J0.12
X8.1 I-1.9 F1000
X11.9 I1.9
X11.78 Y-19.88 I-0.12
G1 X11.66
G18 G3 X11.54 Z-2.88 K0.12
G1 Y-20.12
Z-3.88 F500
G2 X11.66 Z-4 I0.12
G1 X11.78
G17 G3 X11.9 Y-20 J0.12
X8.1 I-1.9 F1000
X11.9 I1.9
X11.78 Y-19.88 I-0.12
G1 X11.66
G18 G3 X11.54 Z-3.88 K0.12
G1 Y-20.12
Z-4.88 F500
G2 X11.66 Z-5 I0.12
G1 X11.78
G17 G3 X11.9 Y-20 J0.12
X8.1 I-1.9 F1000
X11.9 I1.9
X11.78 Y-19.88 I-0.12
G1 X11.66
G18 G3 X11.54 Z-4.88 K0.12
G1 Y-20.12
Z-5.88 F500
G2 X11.66 Z-6 I0.12
G1 X11.78
G17 G3 X11.9 Y-20 J0.12
X8.1 I-1.9 F1000
X11.9 I1.9
X11.78 Y-19.88 I-0.12
G1 X11.66
G18 G3 X11.54 Z-5.88 K0.12
G1 Y-20.12
Z-6.88 F500
G2 X11.66 Z-7 I0.12
G1 X11.78
G17 G3 X11.9 Y-20 J0.12
X8.1 I-1.9 F1000
X11.9 I1.9
X11.78 Y-19.88 I-0.12
G1 X11.66
G18 G3 X11.54 Z-6.88 K0.12
G1 Y-20.12
Z-7.88 F500
G2 X11.66 Z-8 I0.12
G1 X11.78
G17 G3 X11.9 Y-20 J0.12
X8.1 I-1.9 F1000
X11.9 I1.9
X11.78 Y-19.88 I-0.12
G1 X11.66
G18 G3 X11.54 Z-7.88 K0.12
G1 Y-20.12
Z-8.88 F500
G2 X11.66 Z-9 I0.12
G1 X11.78
G17 G3 X11.9 Y-20 J0.12
X8.1 I-1.9 F1000
X11.9 I1.9
X11.78 Y-19.88 I-0.12
G1 X11.66
G18 G3 X11.54 Z-8.88 K0.12
G0 Z5
X31.74 Y-30.12
G1 Z2 F500
Z-0.88
G2 X31.86 Z-1 I0.12
G1 X31.98
G17 G3 X32.1 Y-30 J0.12
X28.3 I-1.9 F1000
X32.1 I1.9
X31.98 Y-29.88 I-0.12
G1 X31.86
G18 G3 X31.74 Z-0.88 K0.12
G1 Y-30.12
Z-1.88 F500
G2 X31.86 Z-2 I0.12
G1 X31.98
G17 G3 X32.1 Y-30 J0.12
X28.3 I-1.9 F1000
X32.1 I1.9
X31.98 Y-29.88 I-0.12
G1 X31.86
G18 G3 X31.74 Z-1.88 K0.12
G1 Y-30.12
Z-2.88 F500
G2 X31.86 Z-3 I0.12
G1 X31.98
G17 G3 X32.1 Y-30 J0.12
X28.3 I-1.9 F1000
X32.1 I1.9
X31.98 Y-29.88 I-0.12
G1 X31.86
G18 G3 X31.74 Z-2.88 K0.12
G1 Y-30.12
Z-3.88 F500
G2 X31.86 Z-4 I0.12
G1 X31.98
G17 G3 X32.1 Y-30 J0.12
X28.3 I-1.9 F1000
X32.1 I1.9
X31.98 Y-29.88 I-0.12
G1 X31.86
G18 G3 X31.74 Z-3.88 K0.12
G1 Y-30.12
Z-4.88 F500
G2 X31.86 Z-5 I0.12
G1 X31.98
G17 G3 X32.1 Y-30 J0.12
X28.3 I-1.9 F1000
X32.1 I1.9
X31.98 Y-29.88 I-0.12
G1 X31.86
G18 G3 X31.74 Z-4.88 K0.12
G1 Y-30.12
Z-5.88 F500
G2 X31.86 Z-6 I0.12
G1 X31.98
G17 G3 X32.1 Y-30 J0.12
X28.3 I-1.9 F1000
X32.1 I1.9
X31.98 Y-29.88 I-0.12
G1 X31.86
G18 G3 X31.74 Z-5.88 K0.12
G1 Y-30.12
Z-6.88 F500
G2 X31.86 Z-7 I0.12
G1 X31.98
G17 G3 X32.1 Y-30 J0.12
X28.3 I-1.9 F1000
X32.1 I1.9
X31.98 Y-29.88 I-0.12
G1 X31.86
G18 G3 X31.74 Z-6.88 K0.12
G1 Y-30.12
Z-7.88 F500
G2 X31.86 Z-8 I0.12
G1 X31.98
G17 G3 X32.1 Y-30 J0.12
X28.3 I-1.9 F1000
X32.1 I1.9
X31.98 Y-29.88 I-0.12
G1 X31.86
G18 G3 X31.74 Z-7.88 K0.12
G1 Y-30.12
Z-8.88 F500
G2 X31.86 Z-9 I0.12
G1 X31.98
G17 G3 X32.1 Y-30 J0.12
X28.3 I-1.9 F1000
X32.1 I1.9
X31.98 Y-29.88 I-0.12
G1 X31.86
G18 G3 X31.74 Z-8.88 K0.12
G0 Z5
X51.04 Y-35.12
G1 Z2 F500
Z-0.88
G2 X51.16 Z-1 I0.12
G1 X51.28
G17 G3 X51.4 Y-35 J0.12
X47.6 I-1.9 F1000
X51.4 I1.9
X51.28 Y-34.88 I-0.12
G1 X51.16
G18 G3 X51.04 Z-0.88 K0.12
G1 Y-35.12
Z-1.88 F500
G2 X51.16 Z-2 I0.12
G1 X51.28
G17 G3 X51.4 Y-35 J0.12
X47.6 I-1.9 F1000
X51.4 I1.9
X51.28 Y-34.88 I-0.12
G1 X51.16
G18 G3 X51.04 Z-1.88 K0.12
G1 Y-35.12
Z-2.88 F500
G2 X51.16 Z-3 I0.12
G1 X51.28
G17 G3 X51.4 Y-35 J0.12
X47.6 I-1.9 F1000
X51.4 I1.9
X51.28 Y-34.88 I-0.12
G1 X51.16
G18 G3 X51.04 Z-2.88 K0.12
G1 Y-35.12
Z-3.88 F500
G2 X51.16 Z-4 I0.12
G1 X51.28
G17 G3 X51.4 Y-35 J0.12
X47.6 I-1.9 F1000
X51.4 I1.9
X51.28 Y-34.88 I-0.12
G1 X51.16
G18 G3 X51.04 Z-3.88 K0.12
G1 Y-35.12
Z-4.88 F500
G2 X51.16 Z-5 I0.12
G1 X51.28
G17 G3 X51.4 Y-35 J0.12
X47.6 I-1.9 F1000
X51.4 I1.9
X51.28 Y-34.88 I-0.12
G1 X51.16
G18 G3 X51.04 Z-4.88 K0.12
G1 Y-35.12
Z-5.88 F500
G2 X51.16 Z-6 I0.12
G1 X51.28
G17 G3 X51.4 Y-35 J0.12
X47.6 I-1.9 F1000
X51.4 I1.9
X51.28 Y-34.88 I-0.12
G1 X51.16
G18 G3 X51.04 Z-5.88 K0.12
G1 Y-35.12
Z-6.88 F500
G2 X51.16 Z-7 I0.12
G1 X51.28
G17 G3 X51.4 Y-35 J0.12
X47.6 I-1.9 F1000
X51.4 I1.9
X51.28 Y-34.88 I-0.12
G1 X51.16
G18 G3 X51.04 Z-6.88 K0.12
G1 Y-35.12
Z-7.88 F500
G2 X51.16 Z-8 I0.12
G1 X51.28
G17 G3 X51.4 Y-35 J0.12
X47.6 I-1.9 F1000
X51.4 I1.9
X51.28 Y-34.88 I-0.12
G1 X51.16
G18 G3 X51.04 Z-7.88 K0.12
G1 Y-35.12
Z-8.88 F500
G2 X51.16 Z-9 I0.12
G1 X51.28
G17 G3 X51.4 Y-35 J0.12
X47.6 I-1.9 F1000
X51.4 I1.9
X51.28 Y-34.88 I-0.12
G1 X51.16
G18 G3 X51.04 Z-8.88 K0.12
G0 Z5
Y-15.12
G1 Z2 F500
Z-0.88
G2 X51.16 Z-1 I0.12
G1 X51.28
G17 G3 X51.4 Y-15 J0.12
X47.6 I-1.9 F1000
X51.4 I1.9
X51.28 Y-14.88 I-0.12
G1 X51.16
G18 G3 X51.04 Z-0.88 K0.12
G1 Y-15.12
Z-1.88 F500
G2 X51.16 Z-2 I0.12
G1 X51.28
G17 G3 X51.4 Y-15 J0.12
X47.6 I-1.9 F1000
X51.4 I1.9
X51.28 Y-14.88 I-0.12
G1 X51.16
G18 G3 X51.04 Z-1.88 K0.12
G1 Y-15.12
Z-2.88 F500
G2 X51.16 Z-3 I0.12
G1 X51.28
G17 G3 X51.4 Y-15 J0.12
X47.6 I-1.9 F1000
X51.4 I1.9
X51.28 Y-14.88 I-0.12
G1 X51.16
G18 G3 X51.04 Z-2.88 K0.12
G1 Y-15.12
Z-3.88 F500
G2 X51.16 Z-4 I0.12
G1 X51.28
G17 G3 X51.4 Y-15 J0.12
X47.6 I-1.9 F1000
X51.4 I1.9
X51.28 Y-14.88 I-0.12
G1 X51.16
G18 G3 X51.04 Z-3.88 K0.12
G1 Y-15.12
Z-4.88 F500
G2 X51.16 Z-5 I0.12
G1 X51.28
G17 G3 X51.4 Y-15 J0.12
X47.6 I-1.9 F1000
X51.4 I1.9
X51.28 Y-14.88 I-0.12
G1 X51.16
G18 G3 X51.04 Z-4.88 K0.12
G1 Y-15.12
Z-5.88 F500
G2 X51.16 Z-6 I0.12
G1 X51.28
G17 G3 X51.4 Y-15 J0.12
X47.6 I-1.9 F1000
X51.4 I1.9
X51.28 Y-14.88 I-0.12
G1 X51.16
G18 G3 X51.04 Z-5.88 K0.12
G1 Y-15.12
Z-6.88 F500
G2 X51.16 Z-7 I0.12
G1 X51.28
G17 G3 X51.4 Y-15 J0.12
X47.6 I-1.9 F1000
X51.4 I1.9
X51.28 Y-14.88 I-0.12
G1 X51.16
G18 G3 X51.04 Z-6.88 K0.12
G1 Y-15.12
Z-7.88 F500
G2 X51.16 Z-8 I0.12
G1 X51.28
G17 G3 X51.4 Y-15 J0.12
X47.6 I-1.9 F1000
X51.4 I1.9
X51.28 Y-14.88 I-0.12
G1 X51.16
G18 G3 X51.04 Z-7.88 K0.12
G1 Y-15.12
Z-8.88 F500
G2 X51.16 Z-9 I0.12
G1 X51.28
G17 G3 X51.4 Y-15 J0.12
X47.6 I-1.9 F1000
X51.4 I1.9
X51.28 Y-14.88 I-0.12
G1 X51.16
G18 G3 X51.04 Z-8.88 K0.12
G0 Z5
Y14.88
G1 Z2 F500
Z-0.88
G2 X51.16 Z-1 I0.12
G1 X51.28
G17 G3 X51.4 Y15 J0.12
X47.6 I-1.9 F1000
X51.4 I1.9
X51.28 Y15.12 I-0.12
G1 X51.16
G18 G3 X51.04 Z-0.88 K0.12
G1 Y14.88
Z-1.88 F500
G2 X51.16 Z-2 I0.12
G1 X51.28
G17 G3 X51.4 Y15 J0.12
X47.6 I-1.9 F1000
X51.4 I1.9
X51.28 Y15.12 I-0.12
G1 X51.16
G18 G3 X51.04 Z-1.88 K0.12
G1 Y14.88
Z-2.88 F500
G2 X51.16 Z-3 I0.12
G1 X51.28
G17 G3 X51.4 Y15 J0.12
X47.6 I-1.9 F1000
X51.4 I1.9
X51.28 Y15.12 I-0.12
G1 X51.16
G18 G3 X51.04 Z-2.88 K0.12
G1 Y14.88
Z-3.88 F500
G2 X51.16 Z-4 I0.12
G1 X51.28
G17 G3 X51.4 Y15 J0.12
X47.6 I-1.9 F1000
X51.4 I1.9
X51.28 Y15.12 I-0.12
G1 X51.16
G18 G3 X51.04 Z-3.88 K0.12
G1 Y14.88
Z-4.88 F500
G2 X51.16 Z-5 I0.12
G1 X51.28
G17 G3 X51.4 Y15 J0.12
X47.6 I-1.9 F1000
X51.4 I1.9
X51.28 Y15.12 I-0.12
G1 X51.16
G18 G3 X51.04 Z-4.88 K0.12
G1 Y14.88
Z-5.88 F500
G2 X51.16 Z-6 I0.12
G1 X51.28
G17 G3 X51.4 Y15 J0.12
X47.6 I-1.9 F1000
X51.4 I1.9
X51.28 Y15.12 I-0.12
G1 X51.16
G18 G3 X51.04 Z-5.88 K0.12
G1 Y14.88
Z-6.88 F500
G2 X51.16 Z-7 I0.12
G1 X51.28
G17 G3 X51.4 Y15 J0.12
X47.6 I-1.9 F1000
X51.4 I1.9
X51.28 Y15.12 I-0.12
G1 X51.16
G18 G3 X51.04 Z-6.88 K0.12
G1 Y14.88
Z-7.88 F500
G2 X51.16 Z-8 I0.12
G1 X51.28
G17 G3 X51.4 Y15 J0.12
X47.6 I-1.9 F1000
X51.4 I1.9
X51.28 Y15.12 I-0.12
G1 X51.16
G18 G3 X51.04 Z-7.88 K0.12
G1 Y14.88
Z-8.88 F500
G2 X51.16 Z-9 I0.12
G1 X51.28
G17 G3 X51.4 Y15 J0.12
X47.6 I-1.9 F1000
X51.4 I1.9
X51.28 Y15.12 I-0.12
G1 X51.16
G18 G3 X51.04 Z-8.88 K0.12
G0 Z5
Y34.88
G1 Z2 F500
Z-0.88
G2 X51.16 Z-1 I0.12
G1 X51.28
G17 G3 X51.4 Y35 J0.12
X47.6 I-1.9 F1000
X51.4 I1.9
X51.28 Y35.12 I-0.12
G1 X51.16
G18 G3 X51.04 Z-0.88 K0.12
G1 Y34.88
Z-1.88 F500
G2 X51.16 Z-2 I0.12
G1 X51.28
G17 G3 X51.4 Y35 J0.12
X47.6 I-1.9 F1000
X51.4 I1.9
X51.28 Y35.12 I-0.12
G1 X51.16
G18 G3 X51.04 Z-1.88 K0.12
G1 Y34.88
Z-2.88 F500
G2 X51.16 Z-3 I0.12
G1 X51.28
G17 G3 X51.4 Y35 J0.12
X47.6 I-1.9 F1000
X51.4 I1.9
X51.28 Y35.12 I-0.12
G1 X51.16
G18 G3 X51.04 Z-2.88 K0.12
G1 Y34.88
Z-3.88 F500
G2 X51.16 Z-4 I0.12
G1 X51.28
G17 G3 X51.4 Y35 J0.12
X47.6 I-1.9 F1000
X51.4 I1.9
X51.28 Y35.12 I-0.12
G1 X51.16
G18 G3 X51.04 Z-3.88 K0.12
G1 Y34.88
Z-4.88 F500
G2 X51.16 Z-5 I0.12
G1 X51.28
G17 G3 X51.4 Y35 J0.12
X47.6 I-1.9 F1000
X51.4 I1.9
X51.28 Y35.12 I-0.12
G1 X51.16
G18 G3 X51.04 Z-4.88 K0.12
G1 Y34.88
Z-5.88 F500
G2 X51.16 Z-6 I0.12
G1 X51.28
G17 G3 X51.4 Y35 J0.12
X47.6 I-1.9 F1000
X51.4 I1.9
X51.28 Y35.12 I-0.12
G1 X51.16
G18 G3 X51.04 Z-5.88 K0.12
G1 Y34.88
Z-6.88 F500
G2 X51.16 Z-7 I0.12
G1 X51.28
G17 G3 X51.4 Y35 J0.12
X47.6 I-1.9 F1000
X51.4 I1.9
X51.28 Y35.12 I-0.12
G1 X51.16
G18 G3 X51.04 Z-6.88 K0.12
G1 Y34.88
Z-7.88 F500
G2 X51.16 Z-8 I0.12
G1 X51.28
G17 G3 X51.4 Y35 J0.12
X47.6 I-1.9 F1000
X51.4 I1.9
X51.28 Y35.12 I-0.12
G1 X51.16
G18 G3 X51.04 Z-7.88 K0.12
G1 Y34.88
Z-8.88 F500
G2 X51.16 Z-9 I0.12
G1 X51.28
G17 G3 X51.4 Y35 J0.12
X47.6 I-1.9 F1000
X51.4 I1.9
X51.28 Y35.12 I-0.12
G1 X51.16
G18 G3 X51.04 Z-8.88 K0.12
G0 Z5
X31.74 Y29.88
G1 Z2 F500
Z-0.88
G2 X31.86 Z-1 I0.12
G1 X31.98
G17 G3 X32.1 Y30 J0.12
X28.3 I-1.9 F1000
X32.1 I1.9
X31.98 Y30.12 I-0.12
G1 X31.86
G18 G3 X31.74 Z-0.88 K0.12
G1 Y29.88
Z-1.88 F500
G2 X31.86 Z-2 I0.12
G1 X31.98
G17 G3 X32.1 Y30 J0.12
X28.3 I-1.9 F1000
X32.1 I1.9
X31.98 Y30.12 I-0.12
G1 X31.86
G18 G3 X31.74 Z-1.88 K0.12
G1 Y29.88
Z-2.88 F500
G2 X31.86 Z-3 I0.12
G1 X31.98
G17 G3 X32.1 Y30 J0.12
X28.3 I-1.9 F1000
X32.1 I1.9
X31.98 Y30.12 I-0.12
G1 X31.86
G18 G3 X31.74 Z-2.88 K0.12
G1 Y29.88
Z-3.88 F500
G2 X31.86 Z-4 I0.12
G1 X31.98
G17 G3 X32.1 Y30 J0.12
X28.3 I-1.9 F1000
X32.1 I1.9
X31.98 Y30.12 I-0.12
G1 X31.86
G18 G3 X31.74 Z-3.88 K0.12
G1 Y29.88
Z-4.88 F500
G2 X31.86 Z-5 I0.12
G1 X31.98
G17 G3 X32.1 Y30 J0.12
X28.3 I-1.9 F1000
X32.1 I1.9
X31.98 Y30.12 I-0.12
G1 X31.86
G18 G3 X31.74 Z-4.88 K0.12
G1 Y29.88
Z-5.88 F500
G2 X31.86 Z-6 I0.12
G1 X31.98
G17 G3 X32.1 Y30 J0.12
X28.3 I-1.9 F1000
X32.1 I1.9
X31.98 Y30.12 I-0.12
G1 X31.86
G18 G3 X31.74 Z-5.88 K0.12
G1 Y29.88
Z-6.88 F500
G2 X31.86 Z-7 I0.12
G1 X31.98
G17 G3 X32.1 Y30 J0.12
X28.3 I-1.9 F1000
X32.1 I1.9
X31.98 Y30.12 I-0.12
G1 X31.86
G18 G3 X31.74 Z-6.88 K0.12
G1 Y29.88
Z-7.88 F500
G2 X31.86 Z-8 I0.12
G1 X31.98
G17 G3 X32.1 Y30 J0.12
X28.3 I-1.9 F1000
X32.1 I1.9
X31.98 Y30.12 I-0.12
G1 X31.86
G18 G3 X31.74 Z-7.88 K0.12
G1 Y29.88
Z-8.88 F500
G2 X31.86 Z-9 I0.12
G1 X31.98
G17 G3 X32.1 Y30 J0.12
X28.3 I-1.9 F1000
X32.1 I1.9
X31.98 Y30.12 I-0.12
G1 X31.86
G18 G3 X31.74 Z-8.88 K0.12
G0 Z5
X21.542 Y9.918
G1 Z2 F500
Z-0.88
X21.548 Z-0.917
X21.565 Z-0.951
X21.592 Y9.919 Z-0.977
X21.625 Y9.92 Z-0.994
X21.662 Y9.921 Z-1
X21.782 Y9.924
G17 G3 X21.899 Y10.047 I-0.003 J0.12
X18.101 Y9.953 I-1.899 J-0.047 F1000
X21.899 Y10.047 I1.899 J0.047
X21.777 Y10.164 I-0.12 J-0.003
G1 X21.657 Y10.161
X21.619 Y10.16 Z-0.994
X21.586 Y10.159 Z-0.977
X21.56 Y10.158 Z-0.951
X21.542 Z-0.917
X21.537 Z-0.88
X21.542 Y9.918
Z-1.88 F500
X21.548 Z-1.917
X21.565 Z-1.951
X21.592 Y9.919 Z-1.977
X21.625 Y9.92 Z-1.994
X21.662 Y9.921 Z-2
X21.782 Y9.924
G3 X21.899 Y10.047 I-0.003 J0.12
X18.101 Y9.953 I-1.899 J-0.047 F1000
X21.899 Y10.047 I1.899 J0.047
X21.777 Y10.164 I-0.12 J-0.003
G1 X21.657 Y10.161
X21.619 Y10.16 Z-1.994
X21.586 Y10.159 Z-1.977
X21.56 Y10.158 Z-1.951
X21.542 Z-1.917
X21.537 Z-1.88
X21.542 Y9.918
Z-2.88 F500
X21.548 Z-2.917
X21.565 Z-2.951
X21.592 Y9.919 Z-2.977
X21.625 Y9.92 Z-2.994
X21.662 Y9.921 Z-3
X21.782 Y9.924
G3 X21.899 Y10.047 I-0.003 J0.12
X18.101 Y9.953 I-1.899 J-0.047 F1000
X21.899 Y10.047 I1.899 J0.047
X21.777 Y10.164 I-0.12 J-0.003
G1 X21.657 Y10.161
X21.619 Y10.16 Z-2.994
X21.586 Y10.159 Z-2.977
X21.56 Y10.158 Z-2.951
X21.542 Z-2.917
X21.537 Z-2.88
X21.542 Y9.918
Z-3.88 F500
X21.548 Z-3.917
X21.565 Z-3.951
X21.592 Y9.919 Z-3.977
X21.625 Y9.92 Z-3.994
X21.662 Y9.921 Z-4
X21.782 Y9.924
G3 X21.899 Y10.047 I-0.003 J0.12
X18.101 Y9.953 I-1.899 J-0.047 F1000
X21.899 Y10.047 I1.899 J0.047
X21.777 Y10.164 I-0.12 J-0.003
G1 X21.657 Y10.161
X21.619 Y10.16 Z-3.994
X21.586 Y10.159 Z-3.977
X21.56 Y10.158 Z-3.951
X21.542 Z-3.917
X21.537 Z-3.88
X21.542 Y9.918
Z-4.88 F500
X21.548 Z-4.917
X21.565 Z-4.951
X21.592 Y9.919 Z-4.977
X21.625 Y9.92 Z-4.994
X21.662 Y9.921 Z-5
X21.782 Y9.924
G3 X21.899 Y10.047 I-0.003 J0.12
X18.101 Y9.953 I-1.899 J-0.047 F1000
X21.899 Y10.047 I1.899 J0.047
X21.777 Y10.164 I-0.12 J-0.003
G1 X21.657 Y10.161
X21.619 Y10.16 Z-4.994
X21.586 Y10.159 Z-4.977
X21.56 Y10.158 Z-4.951
X21.542 Z-4.917
X21.537 Z-4.88
X21.542 Y9.918
Z-5.88 F500
X21.548 Z-5.917
X21.565 Z-5.951
X21.592 Y9.919 Z-5.977
X21.625 Y9.92 Z-5.994
X21.662 Y9.921 Z-6
X21.782 Y9.924
G3 X21.899 Y10.047 I-0.003 J0.12
X18.101 Y9.953 I-1.899 J-0.047 F1000
X21.899 Y10.047 I1.899 J0.047
X21.777 Y10.164 I-0.12 J-0.003
G1 X21.657 Y10.161
X21.619 Y10.16 Z-5.994
X21.586 Y10.159 Z-5.977
X21.56 Y10.158 Z-5.951
X21.542 Z-5.917
X21.537 Z-5.88
X21.542 Y9.918
Z-6.88 F500
X21.548 Z-6.917
X21.565 Z-6.951
X21.592 Y9.919 Z-6.977
X21.625 Y9.92 Z-6.994
X21.662 Y9.921 Z-7
X21.782 Y9.924
G3 X21.899 Y10.047 I-0.003 J0.12
X18.101 Y9.953 I-1.899 J-0.047 F1000
X21.899 Y10.047 I1.899 J0.047
X21.777 Y10.164 I-0.12 J-0.003
G1 X21.657 Y10.161
X21.619 Y10.16 Z-6.994
X21.586 Y10.159 Z-6.977
X21.56 Y10.158 Z-6.951
X21.542 Z-6.917
X21.537 Z-6.88
X21.542 Y9.918
Z-7.88 F500
X21.548 Z-7.917
X21.565 Z-7.951
X21.592 Y9.919 Z-7.977
X21.625 Y9.92 Z-7.994
X21.662 Y9.921 Z-8
X21.782 Y9.924
G3 X21.899 Y10.047 I-0.003 J0.12
X18.101 Y9.953 I-1.899 J-0.047 F1000
X21.899 Y10.047 I1.899 J0.047
X21.777 Y10.164 I-0.12 J-0.003
G1 X21.657 Y10.161
X21.619 Y10.16 Z-7.994
X21.586 Y10.159 Z-7.977
X21.56 Y10.158 Z-7.951
X21.542 Z-7.917
X21.537 Z-7.88
X21.542 Y9.918
Z-8.88 F500
X21.548 Z-8.917
X21.565 Z-8.951
X21.592 Y9.919 Z-8.977
X21.625 Y9.92 Z-8.994
X21.662 Y9.921 Z-9
X21.782 Y9.924
G3 X21.899 Y10.047 I-0.003 J0.12
X18.101 Y9.953 I-1.899 J-0.047 F1000
X21.899 Y10.047 I1.899 J0.047
X21.777 Y10.164 I-0.12 J-0.003
G1 X21.657 Y10.161
X21.619 Y10.16 Z-8.994
X21.586 Y10.159 Z-8.977
X21.56 Y10.158 Z-8.951
X21.542 Z-8.917
X21.537 Z-8.88
G0 Z5
X11.542 Y9.918
G1 Z2 F500
Z-0.88
X11.548 Z-0.917
X11.565 Z-0.951
X11.592 Y9.919 Z-0.977
X11.625 Y9.92 Z-0.994
X11.662 Y9.921 Z-1
X11.782 Y9.924
G3 X11.899 Y10.047 I-0.003 J0.12
X8.101 Y9.953 I-1.899 J-0.047 F1000
X11.899 Y10.047 I1.899 J0.047
X11.777 Y10.164 I-0.12 J-0.003
G1 X11.657 Y10.161
X11.619 Y10.16 Z-0.994
X11.586 Y10.159 Z-0.977
X11.56 Y10.158 Z-0.951
X11.542 Z-0.917
X11.537 Z-0.88
X11.542 Y9.918
Z-1.88 F500
X11.548 Z-1.917
X11.565 Z-1.951
X11.592 Y9.919 Z-1.977
X11.625 Y9.92 Z-1.994
X11.662 Y9.921 Z-2
X11.782 Y9.924
G3 X11.899 Y10.047 I-0.003 J0.12
X8.101 Y9.953 I-1.899 J-0.047 F1000
X11.899 Y10.047 I1.899 J0.047
X11.777 Y10.164 I-0.12 J-0.003
G1 X11.657 Y10.161
X11.619 Y10.16 Z-1.994
X11.586 Y10.159 Z-1.977
X11.56 Y10.158 Z-1.951
X11.542 Z-1.917
X11.537 Z-1.88
X11.542 Y9.918
Z-2.88 F500
X11.548 Z-2.917
X11.565 Z-2.951
X11.592 Y9.919 Z-2.977
X11.625 Y9.92 Z-2.994
X11.662 Y9.921 Z-3
X11.782 Y9.924
G3 X11.899 Y10.047 I-0.003 J0.12
X8.101 Y9.953 I-1.899 J-0.047 F1000
X11.899 Y10.047 I1.899 J0.047
X11.777 Y10.164 I-0.12 J-0.003
G1 X11.657 Y10.161
X11.619 Y10.16 Z-2.994
X11.586 Y10.159 Z-2.977
X11.56 Y10.158 Z-2.951
X11.542 Z-2.917
X11.537 Z-2.88
X11.542 Y9.918
Z-3.88 F500
X11.548 Z-3.917
X11.565 Z-3.951
X11.592 Y9.919 Z-3.977
X11.625 Y9.92 Z-3.994
X11.662 Y9.921 Z-4
X11.782 Y9.924
G3 X11.899 Y10.047 I-0.003 J0.12
X8.101 Y9.953 I-1.899 J-0.047 F1000
X11.899 Y10.047 I1.899 J0.047
X11.777 Y10.164 I-0.12 J-0.003
G1 X11.657 Y10.161
X11.619 Y10.16 Z-3.994
X11.586 Y10.159 Z-3.977
X11.56 Y10.158 Z-3.951
X11.542 Z-3.917
X11.537 Z-3.88
X11.542 Y9.918
Z-4.88 F500
X11.548 Z-4.917
X11.565 Z-4.951
X11.592 Y9.919 Z-4.977
X11.625 Y9.92 Z-4.994
X11.662 Y9.921 Z-5
X11.782 Y9.924
G3 X11.899 Y10.047 I-0.003 J0.12
X8.101 Y9.953 I-1.899 J-0.047 F1000
X11.899 Y10.047 I1.899 J0.047
X11.777 Y10.164 I-0.12 J-0.003
G1 X11.657 Y10.161
X11.619 Y10.16 Z-4.994
X11.586 Y10.159 Z-4.977
X11.56 Y10.158 Z-4.951
X11.542 Z-4.917
X11.537 Z-4.88
X11.542 Y9.918
Z-5.88 F500
X11.548 Z-5.917
X11.565 Z-5.951
X11.592 Y9.919 Z-5.977
X11.625 Y9.92 Z-5.994
X11.662 Y9.921 Z-6
X11.782 Y9.924
G3 X11.899 Y10.047 I-0.003 J0.12
X8.101 Y9.953 I-1.899 J-0.047 F1000
X11.899 Y10.047 I1.899 J0.047
X11.777 Y10.164 I-0.12 J-0.003
G1 X11.657 Y10.161
X11.619 Y10.16 Z-5.994
X11.586 Y10.159 Z-5.977
X11.56 Y10.158 Z-5.951
X11.542 Z-5.917
X11.537 Z-5.88
X11.542 Y9.918
Z-6.88 F500
X11.548 Z-6.917
X11.565 Z-6.951
X11.592 Y9.919 Z-6.977
X11.625 Y9.92 Z-6.994
X11.662 Y9.921 Z-7
X11.782 Y9.924
G3 X11.899 Y10.047 I-0.003 J0.12
X8.101 Y9.953 I-1.899 J-0.047 F1000
X11.899 Y10.047 I1.899 J0.047
X11.777 Y10.164 I-0.12 J-0.003
G1 X11.657 Y10.161
X11.619 Y10.16 Z-6.994
X11.586 Y10.159 Z-6.977
X11.56 Y10.158 Z-6.951
X11.542 Z-6.917
X11.537 Z-6.88
X11.542 Y9.918
Z-7.88 F500
X11.548 Z-7.917
X11.565 Z-7.951
X11.592 Y9.919 Z-7.977
X11.625 Y9.92 Z-7.994
X11.662 Y9.921 Z-8
X11.782 Y9.924
G3 X11.899 Y10.047 I-0.003 J0.12
X8.101 Y9.953 I-1.899 J-0.047 F1000
X11.899 Y10.047 I1.899 J0.047
X11.777 Y10.164 I-0.12 J-0.003
G1 X11.657 Y10.161
X11.619 Y10.16 Z-7.994
X11.586 Y10.159 Z-7.977
X11.56 Y10.158 Z-7.951
X11.542 Z-7.917
X11.537 Z-7.88
X11.542 Y9.918
Z-8.88 F500
X11.548 Z-8.917
X11.565 Z-8.951
X11.592 Y9.919 Z-8.977
X11.625 Y9.92 Z-8.994
X11.662 Y9.921 Z-9
X11.782 Y9.924
G3 X11.899 Y10.047 I-0.003 J0.12
X8.101 Y9.953 I-1.899 J-0.047 F1000
X11.899 Y10.047 I1.899 J0.047
X11.777 Y10.164 I-0.12 J-0.003
G1 X11.657 Y10.161
X11.619 Y10.16 Z-8.994
X11.586 Y10.159 Z-8.977
X11.56 Y10.158 Z-8.951
X11.542 Z-8.917
X11.537 Z-8.88
G0 Z5
X11.54 Y19.88
G1 Z2 F500
Z-0.88
G18 G2 X11.66 Z-1 I0.12
G1 X11.78
G17 G3 X11.9 Y20 J0.12
X8.1 I-1.9 F1000
X11.9 I1.9
X11.78 Y20.12 I-0.12
G1 X11.66
G18 G3 X11.54 Z-0.88 K0.12
G1 Y19.88
Z-1.88 F500
G2 X11.66 Z-2 I0.12
G1 X11.78
G17 G3 X11.9 Y20 J0.12
X8.1 I-1.9 F1000
X11.9 I1.9
X11.78 Y20.12 I-0.12
G1 X11.66
G18 G3 X11.54 Z-1.88 K0.12
G1 Y19.88
Z-2.88 F500
G2 X11.66 Z-3 I0.12
G1 X11.78
G17 G3 X11.9 Y20 J0.12
X8.1 I-1.9 F1000
X11.9 I1.9
X11.78 Y20.12 I-0.12
G1 X11.66
G18 G3 X11.54 Z-2.88 K0.12
G1 Y19.88
Z-3.88 F500
G2 X11.66 Z-4 I0.12
G1 X11.78
G17 G3 X11.9 Y20 J0.12
X8.1 I-1.9 F1000
X11.9 I1.9
X11.78 Y20.12 I-0.12
G1 X11.66
G18 G3 X11.54 Z-3.88 K0.12
G1 Y19.88
Z-4.88 F500
G2 X11.66 Z-5 I0.12
G1 X11.78
G17 G3 X11.9 Y20 J0.12
X8.1 I-1.9 F1000
X11.9 I1.9
X11.78 Y20.12 I-0.12
G1 X11.66
G18 G3 X11.54 Z-4.88 K0.12
G1 Y19.88
Z-5.88 F500
G2 X11.66 Z-6 I0.12
G1 X11.78
G17 G3 X11.9 Y20 J0.12
X8.1 I-1.9 F1000
X11.9 I1.9
X11.78 Y20.12 I-0.12
G1 X11.66
G18 G3 X11.54 Z-5.88 K0.12
G1 Y19.88
Z-6.88 F500
G2 X11.66 Z-7 I0.12
G1 X11.78
G17 G3 X11.9 Y20 J0.12
X8.1 I-1.9 F1000
X11.9 I1.9
X11.78 Y20.12 I-0.12
G1 X11.66
G18 G3 X11.54 Z-6.88 K0.12
G1 Y19.88
Z-7.88 F500
G2 X11.66 Z-8 I0.12
G1 X11.78
G17 G3 X11.9 Y20 J0.12
X8.1 I-1.9 F1000
X11.9 I1.9
X11.78 Y20.12 I-0.12
G1 X11.66
G18 G3 X11.54 Z-7.88 K0.12
G1 Y19.88
Z-8.88 F500
G2 X11.66 Z-9 I0.12
G1 X11.78
G17 G3 X11.9 Y20 J0.12
X8.1 I-1.9 F1000
X11.9 I1.9
X11.78 Y20.12 I-0.12
G1 X11.66
G18 G3 X11.54 Z-8.88 K0.12
G0 Z5
X-8.46 Y19.88
G1 Z2 F500
Z-0.88
G2 X-8.34 Z-1 I0.12
G1 X-8.22
G17 G3 X-8.1 Y20 J0.12
X-11.9 I-1.9 F1000
X-8.1 I1.9
X-8.22 Y20.12 I-0.12
G1 X-8.34
G18 G3 X-8.46 Z-0.88 K0.12
G1 Y19.88
Z-1.88 F500
G2 X-8.34 Z-2 I0.12
G1 X-8.22
G17 G3 X-8.1 Y20 J0.12
X-11.9 I-1.9 F1000
X-8.1 I1.9
X-8.22 Y20.12 I-0.12
G1 X-8.34
G18 G3 X-8.46 Z-1.88 K0.12
G1 Y19.88
Z-2.88 F500
G2 X-8.34 Z-3 I0.12
G1 X-8.22
G17 G3 X-8.1 Y20 J0.12
X-11.9 I-1.9 F1000
X-8.1 I1.9
X-8.22 Y20.12 I-0.12
G1 X-8.34
G18 G3 X-8.46 Z-2.88 K0.12
G1 Y19.88
Z-3.88 F500
G2 X-8.34 Z-4 I0.12
G1 X-8.22
G17 G3 X-8.1 Y20 J0.12
X-11.9 I-1.9 F1000
X-8.1 I1.9
X-8.22 Y20.12 I-0.12
G1 X-8.34
G18 G3 X-8.46 Z-3.88 K0.12
G1 Y19.88
Z-4.88 F500
G2 X-8.34 Z-5 I0.12
G1 X-8.22
G17 G3 X-8.1 Y20 J0.12
X-11.9 I-1.9 F1000
X-8.1 I1.9
X-8.22 Y20.12 I-0.12
G1 X-8.34
G18 G3 X-8.46 Z-4.88 K0.12
G1 Y19.88
Z-5.88 F500
G2 X-8.34 Z-6 I0.12
G1 X-8.22
G17 G3 X-8.1 Y20 J0.12
X-11.9 I-1.9 F1000
X-8.1 I1.9
X-8.22 Y20.12 I-0.12
G1 X-8.34
G18 G3 X-8.46 Z-5.88 K0.12
G1 Y19.88
Z-6.88 F500
G2 X-8.34 Z-7 I0.12
G1 X-8.22
G17 G3 X-8.1 Y20 J0.12
X-11.9 I-1.9 F1000
X-8.1 I1.9
X-8.22 Y20.12 I-0.12
G1 X-8.34
G18 G3 X-8.46 Z-6.88 K0.12
G1 Y19.88
Z-7.88 F500
G2 X-8.34 Z-8 I0.12
G1 X-8.22
G17 G3 X-8.1 Y20 J0.12
X-11.9 I-1.9 F1000
X-8.1 I1.9
X-8.22 Y20.12 I-0.12
G1 X-8.34
G18 G3 X-8.46 Z-7.88 K0.12
G1 Y19.88
Z-8.88 F500
G2 X-8.34 Z-9 I0.12
G1 X-8.22
G17 G3 X-8.1 Y20 J0.12
X-11.9 I-1.9 F1000
X-8.1 I1.9
X-8.22 Y20.12 I-0.12
G1 X-8.34
G18 G3 X-8.46 Z-8.88 K0.12
G0 Z5
Y9.88
G1 Z2 F500
Z-0.88
G2 X-8.34 Z-1 I0.12
G1 X-8.22
G17 G3 X-8.1 Y10 J0.12
X-11.9 I-1.9 F1000
X-8.1 I1.9
X-8.22 Y10.12 I-0.12
G1 X-8.34
G18 G3 X-8.46 Z-0.88 K0.12
G1 Y9.88
Z-1.88 F500
G2 X-8.34 Z-2 I0.12
G1 X-8.22
G17 G3 X-8.1 Y10 J0.12
X-11.9 I-1.9 F1000
X-8.1 I1.9
X-8.22 Y10.12 I-0.12
G1 X-8.34
G18 G3 X-8.46 Z-1.88 K0.12
G1 Y9.88
Z-2.88 F500
G2 X-8.34 Z-3 I0.12
G1 X-8.22
G17 G3 X-8.1 Y10 J0.12
X-11.9 I-1.9 F1000
X-8.1 I1.9
X-8.22 Y10.12 I-0.12
G1 X-8.34
G18 G3 X-8.46 Z-2.88 K0.12
G1 Y9.88
Z-3.88 F500
G2 X-8.34 Z-4 I0.12
G1 X-8.22
G17 G3 X-8.1 Y10 J0.12
X-11.9 I-1.9 F1000
X-8.1 I1.9
X-8.22 Y10.12 I-0.12
G1 X-8.34
G18 G3 X-8.46 Z-3.88 K0.12
G1 Y9.88
Z-4.88 F500
G2 X-8.34 Z-5 I0.12
G1 X-8.22
G17 G3 X-8.1 Y10 J0.12
X-11.9 I-1.9 F1000
X-8.1 I1.9
X-8.22 Y10.12 I-0.12
G1 X-8.34
G18 G3 X-8.46 Z-4.88 K0.12
G1 Y9.88
Z-5.88 F500
G2 X-8.34 Z-6 I0.12
G1 X-8.22
G17 G3 X-8.1 Y10 J0.12
X-11.9 I-1.9 F1000
X-8.1 I1.9
X-8.22 Y10.12 I-0.12
G1 X-8.34
G18 G3 X-8.46 Z-5.88 K0.12
G1 Y9.88
Z-6.88 F500
G2 X-8.34 Z-7 I0.12
G1 X-8.22
G17 G3 X-8.1 Y10 J0.12
X-11.9 I-1.9 F1000
X-8.1 I1.9
X-8.22 Y10.12 I-0.12
G1 X-8.34
G18 G3 X-8.46 Z-6.88 K0.12
G1 Y9.88
Z-7.88 F500
G2 X-8.34 Z-8 I0.12
G1 X-8.22
G17 G3 X-8.1 Y10 J0.12
X-11.9 I-1.9 F1000
X-8.1 I1.9
X-8.22 Y10.12 I-0.12
G1 X-8.34
G18 G3 X-8.46 Z-7.88 K0.12
G1 Y9.88
Z-8.88 F500
G2 X-8.34 Z-9 I0.12
G1 X-8.22
G17 G3 X-8.1 Y10 J0.12
X-11.9 I-1.9 F1000
X-8.1 I1.9
X-8.22 Y10.12 I-0.12
G1 X-8.34
G18 G3 X-8.46 Z-8.88 K0.12
G0 Z5
X-18.46 Y9.88
G1 Z2 F500
Z-0.88
G2 X-18.34 Z-1 I0.12
G1 X-18.22
G17 G3 X-18.1 Y10 J0.12
X-21.9 I-1.9 F1000
X-18.1 I1.9
X-18.22 Y10.12 I-0.12
G1 X-18.34
G18 G3 X-18.46 Z-0.88 K0.12
G1 Y9.88
Z-1.88 F500
G2 X-18.34 Z-2 I0.12
G1 X-18.22
G17 G3 X-18.1 Y10 J0.12
X-21.9 I-1.9 F1000
X-18.1 I1.9
X-18.22 Y10.12 I-0.12
G1 X-18.34
G18 G3 X-18.46 Z-1.88 K0.12
G1 Y9.88
Z-2.88 F500
G2 X-18.34 Z-3 I0.12
G1 X-18.22
G17 G3 X-18.1 Y10 J0.12
X-21.9 I-1.9 F1000
X-18.1 I1.9
X-18.22 Y10.12 I-0.12
G1 X-18.34
G18 G3 X-18.46 Z-2.88 K0.12
G1 Y9.88
Z-3.88 F500
G2 X-18.34 Z-4 I0.12
G1 X-18.22
G17 G3 X-18.1 Y10 J0.12
X-21.9 I-1.9 F1000
X-18.1 I1.9
X-18.22 Y10.12 I-0.12
G1 X-18.34
G18 G3 X-18.46 Z-3.88 K0.12
G1 Y9.88
Z-4.88 F500
G2 X-18.34 Z-5 I0.12
G1 X-18.22
G17 G3 X-18.1 Y10 J0.12
X-21.9 I-1.9 F1000
X-18.1 I1.9
X-18.22 Y10.12 I-0.12
G1 X-18.34
G18 G3 X-18.46 Z-4.88 K0.12
G1 Y9.88
Z-5.88 F500
G2 X-18.34 Z-6 I0.12
G1 X-18.22
G17 G3 X-18.1 Y10 J0.12
X-21.9 I-1.9 F1000
X-18.1 I1.9
X-18.22 Y10.12 I-0.12
G1 X-18.34
G18 G3 X-18.46 Z-5.88 K0.12
G1 Y9.88
Z-6.88 F500
G2 X-18.34 Z-7 I0.12
G1 X-18.22
G17 G3 X-18.1 Y10 J0.12
X-21.9 I-1.9 F1000
X-18.1 I1.9
X-18.22 Y10.12 I-0.12
G1 X-18.34
G18 G3 X-18.46 Z-6.88 K0.12
G1 Y9.88
Z-7.88 F500
G2 X-18.34 Z-8 I0.12
G1 X-18.22
G17 G3 X-18.1 Y10 J0.12
X-21.9 I-1.9 F1000
X-18.1 I1.9
X-18.22 Y10.12 I-0.12
G1 X-18.34
G18 G3 X-18.46 Z-7.88 K0.12
G1 Y9.88
Z-8.88 F500
G2 X-18.34 Z-9 I0.12
G1 X-18.22
G17 G3 X-18.1 Y10 J0.12
X-21.9 I-1.9 F1000
X-18.1 I1.9
X-18.22 Y10.12 I-0.12
G1 X-18.34
G18 G3 X-18.46 Z-8.88 K0.12
G0 Z5
Y-10.12
G1 Z2 F500
Z-0.88
G2 X-18.34 Z-1 I0.12
G1 X-18.22
G17 G3 X-18.1 Y-10 J0.12
X-21.9 I-1.9 F1000
X-18.1 I1.9
X-18.22 Y-9.88 I-0.12
G1 X-18.34
G18 G3 X-18.46 Z-0.88 K0.12
G1 Y-10.12
Z-1.88 F500
G2 X-18.34 Z-2 I0.12
G1 X-18.22
G17 G3 X-18.1 Y-10 J0.12
X-21.9 I-1.9 F1000
X-18.1 I1.9
X-18.22 Y-9.88 I-0.12
G1 X-18.34
G18 G3 X-18.46 Z-1.88 K0.12
G1 Y-10.12
Z-2.88 F500
G2 X-18.34 Z-3 I0.12
G1 X-18.22
G17 G3 X-18.1 Y-10 J0.12
X-21.9 I-1.9 F1000
X-18.1 I1.9
X-18.22 Y-9.88 I-0.12
G1 X-18.34
G18 G3 X-18.46 Z-2.88 K0.12
G1 Y-10.12
Z-3.88 F500
G2 X-18.34 Z-4 I0.12
G1 X-18.22
G17 G3 X-18.1 Y-10 J0.12
X-21.9 I-1.9 F1000
X-18.1 I1.9
X-18.22 Y-9.88 I-0.12
G1 X-18.34
G18 G3 X-18.46 Z-3.88 K0.12
G1 Y-10.12
Z-4.88 F500
G2 X-18.34 Z-5 I0.12
G1 X-18.22
G17 G3 X-18.1 Y-10 J0.12
X-21.9 I-1.9 F1000
X-18.1 I1.9
X-18.22 Y-9.88 I-0.12
G1 X-18.34
G18 G3 X-18.46 Z-4.88 K0.12
G1 Y-10.12
Z-5.88 F500
G2 X-18.34 Z-6 I0.12
G1 X-18.22
G17 G3 X-18.1 Y-10 J0.12
X-21.9 I-1.9 F1000
X-18.1 I1.9
X-18.22 Y-9.88 I-0.12
G1 X-18.34
G18 G3 X-18.46 Z-5.88 K0.12
G1 Y-10.12
Z-6.88 F500
G2 X-18.34 Z-7 I0.12
G1 X-18.22
G17 G3 X-18.1 Y-10 J0.12
X-21.9 I-1.9 F1000
X-18.1 I1.9
X-18.22 Y-9.88 I-0.12
G1 X-18.34
G18 G3 X-18.46 Z-6.88 K0.12
G1 Y-10.12
Z-7.88 F500
G2 X-18.34 Z-8 I0.12
G1 X-18.22
G17 G3 X-18.1 Y-10 J0.12
X-21.9 I-1.9 F1000
X-18.1 I1.9
X-18.22 Y-9.88 I-0.12
G1 X-18.34
G18 G3 X-18.46 Z-7.88 K0.12
G1 Y-10.12
Z-8.88 F500
G2 X-18.34 Z-9 I0.12
G1 X-18.22
G17 G3 X-18.1 Y-10 J0.12
X-21.9 I-1.9 F1000
X-18.1 I1.9
X-18.22 Y-9.88 I-0.12
G1 X-18.34
G18 G3 X-18.46 Z-8.88 K0.12
G0 Z5
X-8.46 Y-10.12
G1 Z2 F500
Z-0.88
G2 X-8.34 Z-1 I0.12
G1 X-8.22
G17 G3 X-8.1 Y-10 J0.12
X-11.9 I-1.9 F1000
X-8.1 I1.9
X-8.22 Y-9.88 I-0.12
G1 X-8.34
G18 G3 X-8.46 Z-0.88 K0.12
G1 Y-10.12
Z-1.88 F500
G2 X-8.34 Z-2 I0.12
G1 X-8.22
G17 G3 X-8.1 Y-10 J0.12
X-11.9 I-1.9 F1000
X-8.1 I1.9
X-8.22 Y-9.88 I-0.12
G1 X-8.34
G18 G3 X-8.46 Z-1.88 K0.12
G1 Y-10.12
Z-2.88 F500
G2 X-8.34 Z-3 I0.12
G1 X-8.22
G17 G3 X-8.1 Y-10 J0.12
X-11.9 I-1.9 F1000
X-8.1 I1.9
X-8.22 Y-9.88 I-0.12
G1 X-8.34
G18 G3 X-8.46 Z-2.88 K0.12
G1 Y-10.12
Z-3.88 F500
G2 X-8.34 Z-4 I0.12
G1 X-8.22
G17 G3 X-8.1 Y-10 J0.12
X-11.9 I-1.9 F1000
X-8.1 I1.9
X-8.22 Y-9.88 I-0.12
G1 X-8.34
G18 G3 X-8.46 Z-3.88 K0.12
G1 Y-10.12
Z-4.88 F500
G2 X-8.34 Z-5 I0.12
G1 X-8.22
G17 G3 X-8.1 Y-10 J0.12
X-11.9 I-1.9 F1000
X-8.1 I1.9
X-8.22 Y-9.88 I-0.12
G1 X-8.34
G18 G3 X-8.46 Z-4.88 K0.12
G1 Y-10.12
Z-5.88 F500
G2 X-8.34 Z-6 I0.12
G1 X-8.22
G17 G3 X-8.1 Y-10 J0.12
X-11.9 I-1.9 F1000
X-8.1 I1.9
X-8.22 Y-9.88 I-0.12
G1 X-8.34
G18 G3 X-8.46 Z-5.88 K0.12
G1 Y-10.12
Z-6.88 F500
G2 X-8.34 Z-7 I0.12
G1 X-8.22
G17 G3 X-8.1 Y-10 J0.12
X-11.9 I-1.9 F1000
X-8.1 I1.9
X-8.22 Y-9.88 I-0.12
G1 X-8.34
G18 G3 X-8.46 Z-6.88 K0.12
G1 Y-10.12
Z-7.88 F500
G2 X-8.34 Z-8 I0.12
G1 X-8.22
G17 G3 X-8.1 Y-10 J0.12
X-11.9 I-1.9 F1000
X-8.1 I1.9
X-8.22 Y-9.88 I-0.12
G1 X-8.34
G18 G3 X-8.46 Z-7.88 K0.12
G1 Y-10.12
Z-8.88 F500
G2 X-8.34 Z-9 I0.12
G1 X-8.22
G17 G3 X-8.1 Y-10 J0.12
X-11.9 I-1.9 F1000
X-8.1 I1.9
X-8.22 Y-9.88 I-0.12
G1 X-8.34
G18 G3 X-8.46 Z-8.88 K0.12
G0 Z5
Y-20.12
G1 Z2 F500
Z-0.88
G2 X-8.34 Z-1 I0.12
G1 X-8.22
G17 G3 X-8.1 Y-20 J0.12
X-11.9 I-1.9 F1000
X-8.1 I1.9
X-8.22 Y-19.88 I-0.12
G1 X-8.34
G18 G3 X-8.46 Z-0.88 K0.12
G1 Y-20.12
Z-1.88 F500
G2 X-8.34 Z-2 I0.12
G1 X-8.22
G17 G3 X-8.1 Y-20 J0.12
X-11.9 I-1.9 F1000
X-8.1 I1.9
X-8.22 Y-19.88 I-0.12
G1 X-8.34
G18 G3 X-8.46 Z-1.88 K0.12
G1 Y-20.12
Z-2.88 F500
G2 X-8.34 Z-3 I0.12
G1 X-8.22
G17 G3 X-8.1 Y-20 J0.12
X-11.9 I-1.9 F1000
X-8.1 I1.9
X-8.22 Y-19.88 I-0.12
G1 X-8.34
G18 G3 X-8.46 Z-2.88 K0.12
G1 Y-20.12
Z-3.88 F500
G2 X-8.34 Z-4 I0.12
G1 X-8.22
G17 G3 X-8.1 Y-20 J0.12
X-11.9 I-1.9 F1000
X-8.1 I1.9
X-8.22 Y-19.88 I-0.12
G1 X-8.34
G18 G3 X-8.46 Z-3.88 K0.12
G1 Y-20.12
Z-4.88 F500
G2 X-8.34 Z-5 I0.12
G1 X-8.22
G17 G3 X-8.1 Y-20 J0.12
X-11.9 I-1.9 F1000
X-8.1 I1.9
X-8.22 Y-19.88 I-0.12
G1 X-8.34
G18 G3 X-8.46 Z-4.88 K0.12
G1 Y-20.12
Z-5.88 F500
G2 X-8.34 Z-6 I0.12
G1 X-8.22
G17 G3 X-8.1 Y-20 J0.12
X-11.9 I-1.9 F1000
X-8.1 I1.9
X-8.22 Y-19.88 I-0.12
G1 X-8.34
G18 G3 X-8.46 Z-5.88 K0.12
G1 Y-20.12
Z-6.88 F500
G2 X-8.34 Z-7 I0.12
G1 X-8.22
G17 G3 X-8.1 Y-20 J0.12
X-11.9 I-1.9 F1000
X-8.1 I1.9
X-8.22 Y-19.88 I-0.12
G1 X-8.34
G18 G3 X-8.46 Z-6.88 K0.12
G1 Y-20.12
Z-7.88 F500
G2 X-8.34 Z-8 I0.12
G1 X-8.22
G17 G3 X-8.1 Y-20 J0.12
X-11.9 I-1.9 F1000
X-8.1 I1.9
X-8.22 Y-19.88 I-0.12
G1 X-8.34
G18 G3 X-8.46 Z-7.88 K0.12
G1 Y-20.12
Z-8.88 F500
G2 X-8.34 Z-9 I0.12
G1 X-8.22
G17 G3 X-8.1 Y-20 J0.12
X-11.9 I-1.9 F1000
X-8.1 I1.9
X-8.22 Y-19.88 I-0.12
G1 X-8.34
G18 G3 X-8.46 Z-8.88 K0.12
G0 Z5
X-28.658 Y-30.082
G1 Z2 F500
Z-0.88
X-28.652 Z-0.917
X-28.635 Z-0.951
X-28.608 Y-30.081 Z-0.977
X-28.575 Y-30.08 Z-0.994
X-28.538 Y-30.079 Z-1
X-28.418 Y-30.076
G17 G3 X-28.301 Y-29.953 I-0.003 J0.12
X-32.099 Y-30.047 I-1.899 J-0.047 F1000
X-28.301 Y-29.953 I1.899 J0.047
X-28.423 Y-29.836 I-0.12 J-0.003
G1 X-28.543 Y-29.839
X-28.581 Y-29.84 Z-0.994
X-28.614 Y-29.841 Z-0.977
X-28.64 Y-29.842 Z-0.951
X-28.658 Z-0.917
X-28.663 Z-0.88
X-28.658 Y-30.082
Z-1.88 F500
X-28.652 Z-1.917
X-28.635 Z-1.951
X-28.608 Y-30.081 Z-1.977
X-28.575 Y-30.08 Z-1.994
X-28.538 Y-30.079 Z-2
X-28.418 Y-30.076
G3 X-28.301 Y-29.953 I-0.003 J0.12
X-32.099 Y-30.047 I-1.899 J-0.047 F1000
X-28.301 Y-29.953 I1.899 J0.047
X-28.423 Y-29.836 I-0.12 J-0.003
G1 X-28.543 Y-29.839
X-28.581 Y-29.84 Z-1.994
X-28.614 Y-29.841 Z-1.977
X-28.64 Y-29.842 Z-1.951
X-28.658 Z-1.917
X-28.663 Z-1.88
X-28.658 Y-30.082
Z-2.88 F500
X-28.652 Z-2.917
X-28.635 Z-2.951
X-28.608 Y-30.081 Z-2.977
X-28.575 Y-30.08 Z-2.994
X-28.538 Y-30.079 Z-3
X-28.418 Y-30.076
G3 X-28.301 Y-29.953 I-0.003 J0.12
X-32.099 Y-30.047 I-1.899 J-0.047 F1000
X-28.301 Y-29.953 I1.899 J0.047
X-28.423 Y-29.836 I-0.12 J-0.003
G1 X-28.543 Y-29.839
X-28.581 Y-29.84 Z-2.994
X-28.614 Y-29.841 Z-2.977
X-28.64 Y-29.842 Z-2.951
X-28.658 Z-2.917
X-28.663 Z-2.88
X-28.658 Y-30.082
Z-3.88 F500
X-28.652 Z-3.917
X-28.635 Z-3.951
X-28.608 Y-30.081 Z-3.977
X-28.575 Y-30.08 Z-3.994
X-28.538 Y-30.079 Z-4
X-28.418 Y-30.076
G3 X-28.301 Y-29.953 I-0.003 J0.12
X-32.099 Y-30.047 I-1.899 J-0.047 F1000
X-28.301 Y-29.953 I1.899 J0.047
X-28.423 Y-29.836 I-0.12 J-0.003
G1 X-28.543 Y-29.839
X-28.581 Y-29.84 Z-3.994
X-28.614 Y-29.841 Z-3.977
X-28.64 Y-29.842 Z-3.951
X-28.658 Z-3.917
X-28.663 Z-3.88
X-28.658 Y-30.082
Z-4.88 F500
X-28.652 Z-4.917
X-28.635 Z-4.951
X-28.608 Y-30.081 Z-4.977
X-28.575 Y-30.08 Z-4.994
X-28.538 Y-30.079 Z-5
X-28.418 Y-30.076
G3 X-28.301 Y-29.953 I-0.003 J0.12
X-32.099 Y-30.047 I-1.899 J-0.047 F1000
X-28.301 Y-29.953 I1.899 J0.047
X-28.423 Y-29.836 I-0.12 J-0.003
G1 X-28.543 Y-29.839
X-28.581 Y-29.84 Z-4.994
X-28.614 Y-29.841 Z-4.977
X-28.64 Y-29.842 Z-4.951
X-28.658 Z-4.917
X-28.663 Z-4.88
X-28.658 Y-30.082
Z-5.88 F500
X-28.652 Z-5.917
X-28.635 Z-5.951
X-28.608 Y-30.081 Z-5.977
X-28.575 Y-30.08 Z-5.994
X-28.538 Y-30.079 Z-6
X-28.418 Y-30.076
G3 X-28.301 Y-29.953 I-0.003 J0.12
X-32.099 Y-30.047 I-1.899 J-0.047 F1000
X-28.301 Y-29.953 I1.899 J0.047
X-28.423 Y-29.836 I-0.12 J-0.003
G1 X-28.543 Y-29.839
X-28.581 Y-29.84 Z-5.994
X-28.614 Y-29.841 Z-5.977
X-28.64 Y-29.842 Z-5.951
X-28.658 Z-5.917
X-28.663 Z-5.88
X-28.658 Y-30.082
Z-6.88 F500
X-28.652 Z-6.917
X-28.635 Z-6.951
X-28.608 Y-30.081 Z-6.977
X-28.575 Y-30.08 Z-6.994
X-28.538 Y-30.079 Z-7
X-28.418 Y-30.076
G3 X-28.301 Y-29.953 I-0.003 J0.12
X-32.099 Y-30.047 I-1.899 J-0.047 F1000
X-28.301 Y-29.953 I1.899 J0.047
X-28.423 Y-29.836 I-0.12 J-0.003
G1 X-28.543 Y-29.839
X-28.581 Y-29.84 Z-6.994
X-28.614 Y-29.841 Z-6.977
X-28.64 Y-29.842 Z-6.951
X-28.658 Z-6.917
X-28.663 Z-6.88
X-28.658 Y-30.082
Z-7.88 F500
X-28.652 Z-7.917
X-28.635 Z-7.951
X-28.608 Y-30.081 Z-7.977
X-28.575 Y-30.08 Z-7.994
X-28.538 Y-30.079 Z-8
X-28.418 Y-30.076
G3 X-28.301 Y-29.953 I-0.003 J0.12
X-32.099 Y-30.047 I-1.899 J-0.047 F1000
X-28.301 Y-29.953 I1.899 J0.047
X-28.423 Y-29.836 I-0.12 J-0.003
G1 X-28.543 Y-29.839
X-28.581 Y-29.84 Z-7.994
X-28.614 Y-29.841 Z-7.977
X-28.64 Y-29.842 Z-7.951
X-28.658 Z-7.917
X-28.663 Z-7.88
X-28.658 Y-30.082
Z-8.88 F500
X-28.652 Z-8.917
X-28.635 Z-8.951
X-28.608 Y-30.081 Z-8.977
X-28.575 Y-30.08 Z-8.994
X-28.538 Y-30.079 Z-9
X-28.418 Y-30.076
G3 X-28.301 Y-29.953 I-0.003 J0.12
X-32.099 Y-30.047 I-1.899 J-0.047 F1000
X-28.301 Y-29.953 I1.899 J0.047
X-28.423 Y-29.836 I-0.12 J-0.003
G1 X-28.543 Y-29.839
X-28.581 Y-29.84 Z-8.994
X-28.614 Y-29.841 Z-8.977
X-28.64 Y-29.842 Z-8.951
X-28.658 Z-8.917
X-28.663 Z-8.88
G0 Z5
X-47.96 Y-35.12
G1 Z2 F500
Z-0.88
G18 G2 X-47.84 Z-1 I0.12
G1 X-47.72
G17 G3 X-47.6 Y-35 J0.12
X-51.4 I-1.9 F1000
X-47.6 I1.9
X-47.72 Y-34.88 I-0.12
G1 X-47.84
G18 G3 X-47.96 Z-0.88 K0.12
G1 Y-35.12
Z-1.88 F500
G2 X-47.84 Z-2 I0.12
G1 X-47.72
G17 G3 X-47.6 Y-35 J0.12
X-51.4 I-1.9 F1000
X-47.6 I1.9
X-47.72 Y-34.88 I-0.12
G1 X-47.84
G18 G3 X-47.96 Z-1.88 K0.12
G1 Y-35.12
Z-2.88 F500
G2 X-47.84 Z-3 I0.12
G1 X-47.72
G17 G3 X-47.6 Y-35 J0.12
X-51.4 I-1.9 F1000
X-47.6 I1.9
X-47.72 Y-34.88 I-0.12
G1 X-47.84
G18 G3 X-47.96 Z-2.88 K0.12
G1 Y-35.12
Z-3.88 F500
G2 X-47.84 Z-4 I0.12
G1 X-47.72
G17 G3 X-47.6 Y-35 J0.12
X-51.4 I-1.9 F1000
X-47.6 I1.9
X-47.72 Y-34.88 I-0.12
G1 X-47.84
G18 G3 X-47.96 Z-3.88 K0.12
G1 Y-35.12
Z-4.88 F500
G2 X-47.84 Z-5 I0.12
G1 X-47.72
G17 G3 X-47.6 Y-35 J0.12
X-51.4 I-1.9 F1000
X-47.6 I1.9
X-47.72 Y-34.88 I-0.12
G1 X-47.84
G18 G3 X-47.96 Z-4.88 K0.12
G1 Y-35.12
Z-5.88 F500
G2 X-47.84 Z-6 I0.12
G1 X-47.72
G17 G3 X-47.6 Y-35 J0.12
X-51.4 I-1.9 F1000
X-47.6 I1.9
X-47.72 Y-34.88 I-0.12
G1 X-47.84
G18 G3 X-47.96 Z-5.88 K0.12
G1 Y-35.12
Z-6.88 F500
G2 X-47.84 Z-7 I0.12
G1 X-47.72
G17 G3 X-47.6 Y-35 J0.12
X-51.4 I-1.9 F1000
X-47.6 I1.9
X-47.72 Y-34.88 I-0.12
G1 X-47.84
G18 G3 X-47.96 Z-6.88 K0.12
G1 Y-35.12
Z-7.88 F500
G2 X-47.84 Z-8 I0.12
G1 X-47.72
G17 G3 X-47.6 Y-35 J0.12
X-51.4 I-1.9 F1000
X-47.6 I1.9
X-47.72 Y-34.88 I-0.12
G1 X-47.84
G18 G3 X-47.96 Z-7.88 K0.12
G1 Y-35.12
Z-8.88 F500
G2 X-47.84 Z-9 I0.12
G1 X-47.72
G17 G3 X-47.6 Y-35 J0.12
X-51.4 I-1.9 F1000
X-47.6 I1.9
X-47.72 Y-34.88 I-0.12
G1 X-47.84
G18 G3 X-47.96 Z-8.88 K0.12
G0 Z5
Y-15.12
G1 Z2 F500
Z-0.88
G2 X-47.84 Z-1 I0.12
G1 X-47.72
G17 G3 X-47.6 Y-15 J0.12
X-51.4 I-1.9 F1000
X-47.6 I1.9
X-47.72 Y-14.88 I-0.12
G1 X-47.84
G18 G3 X-47.96 Z-0.88 K0.12
G1 Y-15.12
Z-1.88 F500
G2 X-47.84 Z-2 I0.12
G1 X-47.72
G17 G3 X-47.6 Y-15 J0.12
X-51.4 I-1.9 F1000
X-47.6 I1.9
X-47.72 Y-14.88 I-0.12
G1 X-47.84
G18 G3 X-47.96 Z-1.88 K0.12
G1 Y-15.12
Z-2.88 F500
G2 X-47.84 Z-3 I0.12
G1 X-47.72
G17 G3 X-47.6 Y-15 J0.12
X-51.4 I-1.9 F1000
X-47.6 I1.9
X-47.72 Y-14.88 I-0.12
G1 X-47.84
G18 G3 X-47.96 Z-2.88 K0.12
G1 Y-15.12
Z-3.88 F500
G2 X-47.84 Z-4 I0.12
G1 X-47.72
G17 G3 X-47.6 Y-15 J0.12
X-51.4 I-1.9 F1000
X-47.6 I1.9
X-47.72 Y-14.88 I-0.12
G1 X-47.84
G18 G3 X-47.96 Z-3.88 K0.12
G1 Y-15.12
Z-4.88 F500
G2 X-47.84 Z-5 I0.12
G1 X-47.72
G17 G3 X-47.6 Y-15 J0.12
X-51.4 I-1.9 F1000
X-47.6 I1.9
X-47.72 Y-14.88 I-0.12
G1 X-47.84
G18 G3 X-47.96 Z-4.88 K0.12
G1 Y-15.12
Z-5.88 F500
G2 X-47.84 Z-6 I0.12
G1 X-47.72
G17 G3 X-47.6 Y-15 J0.12
X-51.4 I-1.9 F1000
X-47.6 I1.9
X-47.72 Y-14.88 I-0.12
G1 X-47.84
G18 G3 X-47.96 Z-5.88 K0.12
G1 Y-15.12
Z-6.88 F500
G2 X-47.84 Z-7 I0.12
G1 X-47.72
G17 G3 X-47.6 Y-15 J0.12
X-51.4 I-1.9 F1000
X-47.6 I1.9
X-47.72 Y-14.88 I-0.12
G1 X-47.84
G18 G3 X-47.96 Z-6.88 K0.12
G1 Y-15.12
Z-7.88 F500
G2 X-47.84 Z-8 I0.12
G1 X-47.72
G17 G3 X-47.6 Y-15 J0.12
X-51.4 I-1.9 F1000
X-47.6 I1.9
X-47.72 Y-14.88 I-0.12
G1 X-47.84
G18 G3 X-47.96 Z-7.88 K0.12
G1 Y-15.12
Z-8.88 F500
G2 X-47.84 Z-9 I0.12
G1 X-47.72
G17 G3 X-47.6 Y-15 J0.12
X-51.4 I-1.9 F1000
X-47.6 I1.9
X-47.72 Y-14.88 I-0.12
G1 X-47.84
G18 G3 X-47.96 Z-8.88 K0.12
G0 Z5
X-47.958 Y14.918
G1 Z2 F500
Z-0.88
X-47.952 Z-0.917
X-47.935 Z-0.951
X-47.908 Y14.919 Z-0.977
X-47.875 Y14.92 Z-0.994
X-47.838 Y14.921 Z-1
X-47.718 Y14.924
G17 G3 X-47.601 Y15.047 I-0.003 J0.12
X-51.399 Y14.953 I-1.899 J-0.047 F1000
X-47.601 Y15.047 I1.899 J0.047
X-47.723 Y15.164 I-0.12 J-0.003
G1 X-47.843 Y15.161
X-47.881 Y15.16 Z-0.994
X-47.914 Y15.159 Z-0.977
X-47.94 Y15.158 Z-0.951
X-47.958 Z-0.917
X-47.963 Z-0.88
X-47.958 Y14.918
Z-1.88 F500
X-47.952 Z-1.917
X-47.935 Z-1.951
X-47.908 Y14.919 Z-1.977
X-47.875 Y14.92 Z-1.994
X-47.838 Y14.921 Z-2
X-47.718 Y14.924
G3 X-47.601 Y15.047 I-0.003 J0.12
X-51.399 Y14.953 I-1.899 J-0.047 F1000
X-47.601 Y15.047 I1.899 J0.047
X-47.723 Y15.164 I-0.12 J-0.003
G1 X-47.843 Y15.161
X-47.881 Y15.16 Z-1.994
X-47.914 Y15.159 Z-1.977
X-47.94 Y15.158 Z-1.951
X-47.958 Z-1.917
X-47.963 Z-1.88
X-47.958 Y14.918
Z-2.88 F500
X-47.952 Z-2.917
X-47.935 Z-2.951
X-47.908 Y14.919 Z-2.977
X-47.875 Y14.92 Z-2.994
X-47.838 Y14.921 Z-3
X-47.718 Y14.924
G3 X-47.601 Y15.047 I-0.003 J0.12
X-51.399 Y14.953 I-1.899 J-0.047 F1000
X-47.601 Y15.047 I1.899 J0.047
X-47.723 Y15.164 I-0.12 J-0.003
G1 X-47.843 Y15.161
X-47.881 Y15.16 Z-2.994
X-47.914 Y15.159 Z-2.977
X-47.94 Y15.158 Z-2.951
X-47.958 Z-2.917
X-47.963 Z-2.88
X-47.958 Y14.918
Z-3.88 F500
X-47.952 Z-3.917
X-47.935 Z-3.951
X-47.908 Y14.919 Z-3.977
X-47.875 Y14.92 Z-3.994
X-47.838 Y14.921 Z-4
X-47.718 Y14.924
G3 X-47.601 Y15.047 I-0.003 J0.12
X-51.399 Y14.953 I-1.899 J-0.047 F1000
X-47.601 Y15.047 I1.899 J0.047
X-47.723 Y15.164 I-0.12 J-0.003
G1 X-47.843 Y15.161
X-47.881 Y15.16 Z-3.994
X-47.914 Y15.159 Z-3.977
X-47.94 Y15.158 Z-3.951
X-47.958 Z-3.917
X-47.963 Z-3.88
X-47.958 Y14.918
Z-4.88 F500
X-47.952 Z-4.917
X-47.935 Z-4.951
X-47.908 Y14.919 Z-4.977
X-47.875 Y14.92 Z-4.994
X-47.838 Y14.921 Z-5
X-47.718 Y14.924
G3 X-47.601 Y15.047 I-0.003 J0.12
X-51.399 Y14.953 I-1.899 J-0.047 F1000
X-47.601 Y15.047 I1.899 J0.047
X-47.723 Y15.164 I-0.12 J-0.003
G1 X-47.843 Y15.161
X-47.881 Y15.16 Z-4.994
X-47.914 Y15.159 Z-4.977
X-47.94 Y15.158 Z-4.951
X-47.958 Z-4.917
X-47.963 Z-4.88
X-47.958 Y14.918
Z-5.88 F500
X-47.952 Z-5.917
X-47.935 Z-5.951
X-47.908 Y14.919 Z-5.977
X-47.875 Y14.92 Z-5.994
X-47.838 Y14.921 Z-6
X-47.718 Y14.924
G3 X-47.601 Y15.047 I-0.003 J0.12
X-51.399 Y14.953 I-1.899 J-0.047 F1000
X-47.601 Y15.047 I1.899 J0.047
X-47.723 Y15.164 I-0.12 J-0.003
G1 X-47.843 Y15.161
X-47.881 Y15.16 Z-5.994
X-47.914 Y15.159 Z-5.977
X-47.94 Y15.158 Z-5.951
X-47.958 Z-5.917
X-47.963 Z-5.88
X-47.958 Y14.918
Z-6.88 F500
X-47.952 Z-6.917
X-47.935 Z-6.951
X-47.908 Y14.919 Z-6.977
X-47.875 Y14.92 Z-6.994
X-47.838 Y14.921 Z-7
X-47.718 Y14.924
G3 X-47.601 Y15.047 I-0.003 J0.12
X-51.399 Y14.953 I-1.899 J-0.047 F1000
X-47.601 Y15.047 I1.899 J0.047
X-47.723 Y15.164 I-0.12 J-0.003
G1 X-47.843 Y15.161
X-47.881 Y15.16 Z-6.994
X-47.914 Y15.159 Z-6.977
X-47.94 Y15.158 Z-6.951
X-47.958 Z-6.917
X-47.963 Z-6.88
X-47.958 Y14.918
Z-7.88 F500
X-47.952 Z-7.917
X-47.935 Z-7.951
X-47.908 Y14.919 Z-7.977
X-47.875 Y14.92 Z-7.994
X-47.838 Y14.921 Z-8
X-47.718 Y14.924
G3 X-47.601 Y15.047 I-0.003 J0.12
X-51.399 Y14.953 I-1.899 J-0.047 F1000
X-47.601 Y15.047 I1.899 J0.047
X-47.723 Y15.164 I-0.12 J-0.003
G1 X-47.843 Y15.161
X-47.881 Y15.16 Z-7.994
X-47.914 Y15.159 Z-7.977
X-47.94 Y15.158 Z-7.951
X-47.958 Z-7.917
X-47.963 Z-7.88
X-47.958 Y14.918
Z-8.88 F500
X-47.952 Z-8.917
X-47.935 Z-8.951
X-47.908 Y14.919 Z-8.977
X-47.875 Y14.92 Z-8.994
X-47.838 Y14.921 Z-9
X-47.718 Y14.924
G3 X-47.601 Y15.047 I-0.003 J0.12
X-51.399 Y14.953 I-1.899 J-0.047 F1000
X-47.601 Y15.047 I1.899 J0.047
X-47.723 Y15.164 I-0.12 J-0.003
G1 X-47.843 Y15.161
X-47.881 Y15.16 Z-8.994
X-47.914 Y15.159 Z-8.977
X-47.94 Y15.158 Z-8.951
X-47.958 Z-8.917
X-47.963 Z-8.88
G0 Z5
X-47.96 Y34.88
G1 Z2 F500
Z-0.88
G18 G2 X-47.84 Z-1 I0.12
G1 X-47.72
G17 G3 X-47.6 Y35 J0.12
X-51.4 I-1.9 F1000
X-47.6 I1.9
X-47.72 Y35.12 I-0.12
G1 X-47.84
G18 G3 X-47.96 Z-0.88 K0.12
G1 Y34.88
Z-1.88 F500
G2 X-47.84 Z-2 I0.12
G1 X-47.72
G17 G3 X-47.6 Y35 J0.12
X-51.4 I-1.9 F1000
X-47.6 I1.9
X-47.72 Y35.12 I-0.12
G1 X-47.84
G18 G3 X-47.96 Z-1.88 K0.12
G1 Y34.88
Z-2.88 F500
G2 X-47.84 Z-3 I0.12
G1 X-47.72
G17 G3 X-47.6 Y35 J0.12
X-51.4 I-1.9 F1000
X-47.6 I1.9
X-47.72 Y35.12 I-0.12
G1 X-47.84
G18 G3 X-47.96 Z-2.88 K0.12
G1 Y34.88
Z-3.88 F500
G2 X-47.84 Z-4 I0.12
G1 X-47.72
G17 G3 X-47.6 Y35 J0.12
X-51.4 I-1.9 F1000
X-47.6 I1.9
X-47.72 Y35.12 I-0.12
G1 X-47.84
G18 G3 X-47.96 Z-3.88 K0.12
G1 Y34.88
Z-4.88 F500
G2 X-47.84 Z-5 I0.12
G1 X-47.72
G17 G3 X-47.6 Y35 J0.12
X-51.4 I-1.9 F1000
X-47.6 I1.9
X-47.72 Y35.12 I-0.12
G1 X-47.84
G18 G3 X-47.96 Z-4.88 K0.12
G1 Y34.88
Z-5.88 F500
G2 X-47.84 Z-6 I0.12
G1 X-47.72
G17 G3 X-47.6 Y35 J0.12
X-51.4 I-1.9 F1000
X-47.6 I1.9
X-47.72 Y35.12 I-0.12
G1 X-47.84
G18 G3 X-47.96 Z-5.88 K0.12
G1 Y34.88
Z-6.88 F500
G2 X-47.84 Z-7 I0.12
G1 X-47.72
G17 G3 X-47.6 Y35 J0.12
X-51.4 I-1.9 F1000
X-47.6 I1.9
X-47.72 Y35.12 I-0.12
G1 X-47.84
G18 G3 X-47.96 Z-6.88 K0.12
G1 Y34.88
Z-7.88 F500
G2 X-47.84 Z-8 I0.12
G1 X-47.72
G17 G3 X-47.6 Y35 J0.12
X-51.4 I-1.9 F1000
X-47.6 I1.9
X-47.72 Y35.12 I-0.12
G1 X-47.84
G18 G3 X-47.96 Z-7.88 K0.12
G1 Y34.88
Z-8.88 F500
G2 X-47.84 Z-9 I0.12
G1 X-47.72
G17 G3 X-47.6 Y35 J0.12
X-51.4 I-1.9 F1000
X-47.6 I1.9
X-47.72 Y35.12 I-0.12
G1 X-47.84
G18 G3 X-47.96 Z-8.88 K0.12
G0 Z5
X-28.66 Y29.88
G1 Z2 F500
Z-0.88
G2 X-28.54 Z-1 I0.12
G1 X-28.42
G17 G3 X-28.3 Y30 J0.12
X-32.1 I-1.9 F1000
X-28.3 I1.9
X-28.42 Y30.12 I-0.12
G1 X-28.54
G18 G3 X-28.66 Z-0.88 K0.12
G1 Y29.88
Z-1.88 F500
G2 X-28.54 Z-2 I0.12
G1 X-28.42
G17 G3 X-28.3 Y30 J0.12
X-32.1 I-1.9 F1000
X-28.3 I1.9
X-28.42 Y30.12 I-0.12
G1 X-28.54
G18 G3 X-28.66 Z-1.88 K0.12
G1 Y29.88
Z-2.88 F500
G2 X-28.54 Z-3 I0.12
G1 X-28.42
G17 G3 X-28.3 Y30 J0.12
X-32.1 I-1.9 F1000
X-28.3 I1.9
X-28.42 Y30.12 I-0.12
G1 X-28.54
G18 G3 X-28.66 Z-2.88 K0.12
G1 Y29.88
Z-3.88 F500
G2 X-28.54 Z-4 I0.12
G1 X-28.42
G17 G3 X-28.3 Y30 J0.12
X-32.1 I-1.9 F1000
X-28.3 I1.9
X-28.42 Y30.12 I-0.12
G1 X-28.54
G18 G3 X-28.66 Z-3.88 K0.12
G1 Y29.88
Z-4.88 F500
G2 X-28.54 Z-5 I0.12
G1 X-28.42
G17 G3 X-28.3 Y30 J0.12
X-32.1 I-1.9 F1000
X-28.3 I1.9
X-28.42 Y30.12 I-0.12
G1 X-28.54
G18 G3 X-28.66 Z-4.88 K0.12
G1 Y29.88
Z-5.88 F500
G2 X-28.54 Z-6 I0.12
G1 X-28.42
G17 G3 X-28.3 Y30 J0.12
X-32.1 I-1.9 F1000
X-28.3 I1.9
X-28.42 Y30.12 I-0.12
G1 X-28.54
G18 G3 X-28.66 Z-5.88 K0.12
G1 Y29.88
Z-6.88 F500
G2 X-28.54 Z-7 I0.12
G1 X-28.42
G17 G3 X-28.3 Y30 J0.12
X-32.1 I-1.9 F1000
X-28.3 I1.9
X-28.42 Y30.12 I-0.12
G1 X-28.54
G18 G3 X-28.66 Z-6.88 K0.12
G1 Y29.88
Z-7.88 F500
G2 X-28.54 Z-8 I0.12
G1 X-28.42
G17 G3 X-28.3 Y30 J0.12
X-32.1 I-1.9 F1000
X-28.3 I1.9
X-28.42 Y30.12 I-0.12
G1 X-28.54
G18 G3 X-28.66 Z-7.88 K0.12
G1 Y29.88
Z-8.88 F500
G2 X-28.54 Z-9 I0.12
G1 X-28.42
G17 G3 X-28.3 Y30 J0.12
X-32.1 I-1.9 F1000
X-28.3 I1.9
X-28.42 Y30.12 I-0.12
G1 X-28.54
G18 G3 X-28.66 Z-8.88 K0.12
G0 Z10
G17

(2D Contour7)
M8
G0 X55.46 Y0.12
Z10
Z5
G1 Z2 F500
Z-0.88
G18 G3 X55.34 Z-1 I-0.12
G1 X55.22
G17 G3 X55.1 Y0 J-0.12
G1 Y-43 F1000
G2 X54.5 Y-43.6 I-0.6
G1 X-54.5
G2 X-55.1 Y-43 J0.6
G1 Y43
G2 X-54.5 Y43.6 I0.6
G1 X54.5
G2 X55.1 Y43 J-0.6
G1 Y0
G3 X55.22 Y-0.12 I0.12
G1 X55.34
G18 G2 X55.46 Z-0.88 K0.12
G1 Y0.12
Z-1.88 F500
G3 X55.34 Z-2 I-0.12
G1 X55.22
G17 G3 X55.1 Y0 J-0.12
G1 Y-43 F1000
G2 X54.5 Y-43.6 I-0.6
G1 X-54.5
G2 X-55.1 Y-43 J0.6
G1 Y43
G2 X-54.5 Y43.6 I0.6
G1 X54.5
G2 X55.1 Y43 J-0.6
G1 Y0
G3 X55.22 Y-0.12 I0.12
G1 X55.34
G18 G2 X55.46 Z-1.88 K0.12
G1 Y0.12
Z-2.88 F500
G3 X55.34 Z-3 I-0.12
G1 X55.22
G17 G3 X55.1 Y0 J-0.12
G1 Y-43 F1000
G2 X54.5 Y-43.6 I-0.6
G1 X-54.5
G2 X-55.1 Y-43 J0.6
G1 Y43
G2 X-54.5 Y43.6 I0.6
G1 X54.5
G2 X55.1 Y43 J-0.6
G1 Y0
G3 X55.22 Y-0.12 I0.12
G1 X55.34
G18 G2 X55.46 Z-2.88 K0.12
G1 Y0.12
Z-3.88 F500
G3 X55.34 Z-4 I-0.12
G1 X55.22
G17 G3 X55.1 Y0 J-0.12
G1 Y-43 F1000
G2 X54.5 Y-43.6 I-0.6
G1 X-54.5
G2 X-55.1 Y-43 J0.6
G1 Y43
G2 X-54.5 Y43.6 I0.6
G1 X54.5
G2 X55.1 Y43 J-0.6
G1 Y0
G3 X55.22 Y-0.12 I0.12
G1 X55.34
G18 G2 X55.46 Z-3.88 K0.12
G1 Y0.12
Z-4.88 F500
G3 X55.34 Z-5 I-0.12
G1 X55.22
G17 G3 X55.1 Y0 J-0.12
G1 Y-43 F1000
G2 X54.5 Y-43.6 I-0.6
G1 X-54.5
G2 X-55.1 Y-43 J0.6
G1 Y43
G2 X-54.5 Y43.6 I0.6
G1 X54.5
G2 X55.1 Y43 J-0.6
G1 Y0
G3 X55.22 Y-0.12 I0.12
G1 X55.34
G18 G2 X55.46 Z-4.88 K0.12
G1 Y0.12
Z-5.88 F500
G3 X55.34 Z-6 I-0.12
G1 X55.22
G17 G3 X55.1 Y0 J-0.12
G1 Y-43 F1000
G2 X54.5 Y-43.6 I-0.6
G1 X-54.5
G2 X-55.1 Y-43 J0.6
G1 Y43
G2 X-54.5 Y43.6 I0.6
G1 X54.5
G2 X55.1 Y43 J-0.6
G1 Y0
G3 X55.22 Y-0.12 I0.12
G1 X55.34
G18 G2 X55.46 Z-5.88 K0.12
G1 Y0.12
Z-6.88 F500
G3 X55.34 Z-7 I-0.12
G1 X55.22
G17 G3 X55.1 Y0 J-0.12
G1 Y-43 F1000
G2 X54.5 Y-43.6 I-0.6
G1 X-54.5
G2 X-55.1 Y-43 J0.6
G1 Y43
G2 X-54.5 Y43.6 I0.6
G1 X54.5
G2 X55.1 Y43 J-0.6
G1 Y0
G3 X55.22 Y-0.12 I0.12
G1 X55.34
G18 G2 X55.46 Z-6.88 K0.12
G1 Y0.12
Z-7.88 F500
G3 X55.34 Z-8 I-0.12
G1 X55.22
G17 G3 X55.1 Y0 J-0.12
G1 Y-43 F1000
G2 X54.5 Y-43.6 I-0.6
G1 X-54.5
G2 X-55.1 Y-43 J0.6
G1 Y43
G2 X-54.5 Y43.6 I0.6
G1 X54.5
G2 X55.1 Y43 J-0.6
G1 Y0
G3 X55.22 Y-0.12 I0.12
G1 X55.34
G18 G2 X55.46 Z-7.88 K0.12
G1 Y0.12
Z-8.88 F500
G3 X55.34 Z-9 I-0.12
G1 X55.22
G17 G3 X55.1 Y0 J-0.12
G1 Y-43 F1000
G2 X54.5 Y-43.6 I-0.6
G1 X-54.5
G2 X-55.1 Y-43 J0.6
G1 Y43
G2 X-54.5 Y43.6 I0.6
G1 X54.5
G2 X55.1 Y43 J-0.6
G1 Y0
G3 X55.22 Y-0.12 I0.12
G1 X55.34
G18 G2 X55.46 Z-8.88 K0.12
G0 Z10
G17
M9
G28 G91 Z0
G28 X0 Y0
M30
%
