%
(legs)
(T5  D=1.2 CR=0 - ZMIN=-9 - flat end mill)
G90 G94
G17
G21
G28 G91 Z0
G90

(2D Contour2)
M9
T5 M6
S4775 M3
G54
M8
G0 X11.54 Y-12.62
Z10
Z5
G1 Z2 F500
Z-0.88
G18 G2 X11.66 Z-1 I0.12
G1 X11.78
G17 G3 X11.9 Y-12.5 J0.12
X8.1 I-1.9 F1000
X11.9 I1.9
X11.78 Y-12.38 I-0.12
G1 X11.66
G18 G3 X11.54 Z-0.88 K0.12
G1 Y-12.62
Z-1.88 F500
G2 X11.66 Z-2 I0.12
G1 X11.78
G17 G3 X11.9 Y-12.5 J0.12
X8.1 I-1.9 F1000
X11.9 I1.9
X11.78 Y-12.38 I-0.12
G1 X11.66
G18 G3 X11.54 Z-1.88 K0.12
G1 Y-12.62
Z-2.88 F500
G2 X11.66 Z-3 I0.12
G1 X11.78
G17 G3 X11.9 Y-12.5 J0.12
X8.1 I-1.9 F1000
X11.9 I1.9
X11.78 Y-12.38 I-0.12
G1 X11.66
G18 G3 X11.54 Z-2.88 K0.12
G1 Y-12.62
Z-3.88 F500
G2 X11.66 Z-4 I0.12
G1 X11.78
G17 G3 X11.9 Y-12.5 J0.12
X8.1 I-1.9 F1000
X11.9 I1.9
X11.78 Y-12.38 I-0.12
G1 X11.66
G18 G3 X11.54 Z-3.88 K0.12
G1 Y-12.62
Z-4.88 F500
G2 X11.66 Z-5 I0.12
G1 X11.78
G17 G3 X11.9 Y-12.5 J0.12
X8.1 I-1.9 F1000
X11.9 I1.9
X11.78 Y-12.38 I-0.12
G1 X11.66
G18 G3 X11.54 Z-4.88 K0.12
G1 Y-12.62
Z-5.88 F500
G2 X11.66 Z-6 I0.12
G1 X11.78
G17 G3 X11.9 Y-12.5 J0.12
X8.1 I-1.9 F1000
X11.9 I1.9
X11.78 Y-12.38 I-0.12
G1 X11.66
G18 G3 X11.54 Z-5.88 K0.12
G1 Y-12.62
Z-6.88 F500
G2 X11.66 Z-7 I0.12
G1 X11.78
G17 G3 X11.9 Y-12.5 J0.12
X8.1 I-1.9 F1000
X11.9 I1.9
X11.78 Y-12.38 I-0.12
G1 X11.66
G18 G3 X11.54 Z-6.88 K0.12
G1 Y-12.62
Z-7.88 F500
G2 X11.66 Z-8 I0.12
G1 X11.78
G17 G3 X11.9 Y-12.5 J0.12
X8.1 I-1.9 F1000
X11.9 I1.9
X11.78 Y-12.38 I-0.12
G1 X11.66
G18 G3 X11.54 Z-7.88 K0.12
G1 Y-12.62
Z-8.88 F500
G2 X11.66 Z-9 I0.12
G1 X11.78
G17 G3 X11.9 Y-12.5 J0.12
X8.1 I-1.9 F1000
X11.9 I1.9
X11.78 Y-12.38 I-0.12
G1 X11.66
G18 G3 X11.54 Z-8.88 K0.12
G0 Z5
X31.54 Y-12.62
G1 Z2 F500
Z-0.88
G2 X31.66 Z-1 I0.12
G1 X31.78
G17 G3 X31.9 Y-12.5 J0.12
X28.1 I-1.9 F1000
X31.9 I1.9
X31.78 Y-12.38 I-0.12
G1 X31.66
G18 G3 X31.54 Z-0.88 K0.12
G1 Y-12.62
Z-1.88 F500
G2 X31.66 Z-2 I0.12
G1 X31.78
G17 G3 X31.9 Y-12.5 J0.12
X28.1 I-1.9 F1000
X31.9 I1.9
X31.78 Y-12.38 I-0.12
G1 X31.66
G18 G3 X31.54 Z-1.88 K0.12
G1 Y-12.62
Z-2.88 F500
G2 X31.66 Z-3 I0.12
G1 X31.78
G17 G3 X31.9 Y-12.5 J0.12
X28.1 I-1.9 F1000
X31.9 I1.9
X31.78 Y-12.38 I-0.12
G1 X31.66
G18 G3 X31.54 Z-2.88 K0.12
G1 Y-12.62
Z-3.88 F500
G2 X31.66 Z-4 I0.12
G1 X31.78
G17 G3 X31.9 Y-12.5 J0.12
X28.1 I-1.9 F1000
X31.9 I1.9
X31.78 Y-12.38 I-0.12
G1 X31.66
G18 G3 X31.54 Z-3.88 K0.12
G1 Y-12.62
Z-4.88 F500
G2 X31.66 Z-5 I0.12
G1 X31.78
G17 G3 X31.9 Y-12.5 J0.12
X28.1 I-1.9 F1000
X31.9 I1.9
X31.78 Y-12.38 I-0.12
G1 X31.66
G18 G3 X31.54 Z-4.88 K0.12
G1 Y-12.62
Z-5.88 F500
G2 X31.66 Z-6 I0.12
G1 X31.78
G17 G3 X31.9 Y-12.5 J0.12
X28.1 I-1.9 F1000
X31.9 I1.9
X31.78 Y-12.38 I-0.12
G1 X31.66
G18 G3 X31.54 Z-5.88 K0.12
G1 Y-12.62
Z-6.88 F500
G2 X31.66 Z-7 I0.12
G1 X31.78
G17 G3 X31.9 Y-12.5 J0.12
X28.1 I-1.9 F1000
X31.9 I1.9
X31.78 Y-12.38 I-0.12
G1 X31.66
G18 G3 X31.54 Z-6.88 K0.12
G1 Y-12.62
Z-7.88 F500
G2 X31.66 Z-8 I0.12
G1 X31.78
G17 G3 X31.9 Y-12.5 J0.12
X28.1 I-1.9 F1000
X31.9 I1.9
X31.78 Y-12.38 I-0.12
G1 X31.66
G18 G3 X31.54 Z-7.88 K0.12
G1 Y-12.62
Z-8.88 F500
G2 X31.66 Z-9 I0.12
G1 X31.78
G17 G3 X31.9 Y-12.5 J0.12
X28.1 I-1.9 F1000
X31.9 I1.9
X31.78 Y-12.38 I-0.12
G1 X31.66
G18 G3 X31.54 Z-8.88 K0.12
G0 Z5
X31.542 Y12.418
G1 Z2 F500
Z-0.88
X31.548 Z-0.917
X31.565 Z-0.951
X31.592 Y12.419 Z-0.977
X31.625 Y12.42 Z-0.994
X31.662 Y12.421 Z-1
X31.782 Y12.424
G17 G3 X31.899 Y12.547 I-0.003 J0.12
X28.101 Y12.453 I-1.899 J-0.047 F1000
X31.899 Y12.547 I1.899 J0.047
X31.777 Y12.664 I-0.12 J-0.003
G1 X31.657 Y12.661
X31.619 Y12.66 Z-0.994
X31.586 Y12.659 Z-0.977
X31.56 Y12.658 Z-0.951
X31.542 Z-0.917
X31.537 Z-0.88
X31.542 Y12.418
Z-1.88 F500
X31.548 Z-1.917
X31.565 Z-1.951
X31.592 Y12.419 Z-1.977
X31.625 Y12.42 Z-1.994
X31.662 Y12.421 Z-2
X31.782 Y12.424
G3 X31.899 Y12.547 I-0.003 J0.12
X28.101 Y12.453 I-1.899 J-0.047 F1000
X31.899 Y12.547 I1.899 J0.047
X31.777 Y12.664 I-0.12 J-0.003
G1 X31.657 Y12.661
X31.619 Y12.66 Z-1.994
X31.586 Y12.659 Z-1.977
X31.56 Y12.658 Z-1.951
X31.542 Z-1.917
X31.537 Z-1.88
X31.542 Y12.418
Z-2.88 F500
X31.548 Z-2.917
X31.565 Z-2.951
X31.592 Y12.419 Z-2.977
X31.625 Y12.42 Z-2.994
X31.662 Y12.421 Z-3
X31.782 Y12.424
G3 X31.899 Y12.547 I-0.003 J0.12
X28.101 Y12.453 I-1.899 J-0.047 F1000
X31.899 Y12.547 I1.899 J0.047
X31.777 Y12.664 I-0.12 J-0.003
G1 X31.657 Y12.661
X31.619 Y12.66 Z-2.994
X31.586 Y12.659 Z-2.977
X31.56 Y12.658 Z-2.951
X31.542 Z-2.917
X31.537 Z-2.88
X31.542 Y12.418
Z-3.88 F500
X31.548 Z-3.917
X31.565 Z-3.951
X31.592 Y12.419 Z-3.977
X31.625 Y12.42 Z-3.994
X31.662 Y12.421 Z-4
X31.782 Y12.424
G3 X31.899 Y12.547 I-0.003 J0.12
X28.101 Y12.453 I-1.899 J-0.047 F1000
X31.899 Y12.547 I1.899 J0.047
X31.777 Y12.664 I-0.12 J-0.003
G1 X31.657 Y12.661
X31.619 Y12.66 Z-3.994
X31.586 Y12.659 Z-3.977
X31.56 Y12.658 Z-3.951
X31.542 Z-3.917
X31.537 Z-3.88
X31.542 Y12.418
Z-4.88 F500
X31.548 Z-4.917
X31.565 Z-4.951
X31.592 Y12.419 Z-4.977
X31.625 Y12.42 Z-4.994
X31.662 Y12.421 Z-5
X31.782 Y12.424
G3 X31.899 Y12.547 I-0.003 J0.12
X28.101 Y12.453 I-1.899 J-0.047 F1000
X31.899 Y12.547 I1.899 J0.047
X31.777 Y12.664 I-0.12 J-0.003
G1 X31.657 Y12.661
X31.619 Y12.66 Z-4.994
X31.586 Y12.659 Z-4.977
X31.56 Y12.658 Z-4.951
X31.542 Z-4.917
X31.537 Z-4.88
X31.542 Y12.418
Z-5.88 F500
X31.548 Z-5.917
X31.565 Z-5.951
X31.592 Y12.419 Z-5.977
X31.625 Y12.42 Z-5.994
X31.662 Y12.421 Z-6
X31.782 Y12.424
G3 X31.899 Y12.547 I-0.003 J0.12
X28.101 Y12.453 I-1.899 J-0.047 F1000
X31.899 Y12.547 I1.899 J0.047
X31.777 Y12.664 I-0.12 J-0.003
G1 X31.657 Y12.661
X31.619 Y12.66 Z-5.994
X31.586 Y12.659 Z-5.977
X31.56 Y12.658 Z-5.951
X31.542 Z-5.917
X31.537 Z-5.88
X31.542 Y12.418
Z-6.88 F500
X31.548 Z-6.917
X31.565 Z-6.951
X31.592 Y12.419 Z-6.977
X31.625 Y12.42 Z-6.994
X31.662 Y12.421 Z-7
X31.782 Y12.424
G3 X31.899 Y12.547 I-0.003 J0.12
X28.101 Y12.453 I-1.899 J-0.047 F1000
X31.899 Y12.547 I1.899 J0.047
X31.777 Y12.664 I-0.12 J-0.003
G1 X31.657 Y12.661
X31.619 Y12.66 Z-6.994
X31.586 Y12.659 Z-6.977
X31.56 Y12.658 Z-6.951
X31.542 Z-6.917
X31.537 Z-6.88
X31.542 Y12.418
Z-7.88 F500
X31.548 Z-7.917
X31.565 Z-7.951
X31.592 Y12.419 Z-7.977
X31.625 Y12.42 Z-7.994
X31.662 Y12.421 Z-8
X31.782 Y12.424
G3 X31.899 Y12.547 I-0.003 J0.12
X28.101 Y12.453 I-1.899 J-0.047 F1000
X31.899 Y12.547 I1.899 J0.047
X31.777 Y12.664 I-0.12 J-0.003
G1 X31.657 Y12.661
X31.619 Y12.66 Z-7.994
X31.586 Y12.659 Z-7.977
X31.56 Y12.658 Z-7.951
X31.542 Z-7.917
X31.537 Z-7.88
X31.542 Y12.418
Z-8.88 F500
X31.548 Z-8.917
X31.565 Z-8.951
X31.592 Y12.419 Z-8.977
X31.625 Y12.42 Z-8.994
X31.662 Y12.421 Z-9
X31.782 Y12.424
G3 X31.899 Y12.547 I-0.003 J0.12
X28.101 Y12.453 I-1.899 J-0.047 F1000
X31.899 Y12.547 I1.899 J0.047
X31.777 Y12.664 I-0.12 J-0.003
G1 X31.657 Y12.661
X31.619 Y12.66 Z-8.994
X31.586 Y12.659 Z-8.977
X31.56 Y12.658 Z-8.951
X31.542 Z-8.917
X31.537 Z-8.88
G0 Z5
X11.54 Y12.38
G1 Z2 F500
Z-0.88
G18 G2 X11.66 Z-1 I0.12
G1 X11.78
G17 G3 X11.9 Y12.5 J0.12
X8.1 I-1.9 F1000
X11.9 I1.9
X11.78 Y12.62 I-0.12
G1 X11.66
G18 G3 X11.54 Z-0.88 K0.12
G1 Y12.38
Z-1.88 F500
G2 X11.66 Z-2 I0.12
G1 X11.78
G17 G3 X11.9 Y12.5 J0.12
X8.1 I-1.9 F1000
X11.9 I1.9
X11.78 Y12.62 I-0.12
G1 X11.66
G18 G3 X11.54 Z-1.88 K0.12
G1 Y12.38
Z-2.88 F500
G2 X11.66 Z-3 I0.12
G1 X11.78
G17 G3 X11.9 Y12.5 J0.12
X8.1 I-1.9 F1000
X11.9 I1.9
X11.78 Y12.62 I-0.12
G1 X11.66
G18 G3 X11.54 Z-2.88 K0.12
G1 Y12.38
Z-3.88 F500
G2 X11.66 Z-4 I0.12
G1 X11.78
G17 G3 X11.9 Y12.5 J0.12
X8.1 I-1.9 F1000
X11.9 I1.9
X11.78 Y12.62 I-0.12
G1 X11.66
G18 G3 X11.54 Z-3.88 K0.12
G1 Y12.38
Z-4.88 F500
G2 X11.66 Z-5 I0.12
G1 X11.78
G17 G3 X11.9 Y12.5 J0.12
X8.1 I-1.9 F1000
X11.9 I1.9
X11.78 Y12.62 I-0.12
G1 X11.66
G18 G3 X11.54 Z-4.88 K0.12
G1 Y12.38
Z-5.88 F500
G2 X11.66 Z-6 I0.12
G1 X11.78
G17 G3 X11.9 Y12.5 J0.12
X8.1 I-1.9 F1000
X11.9 I1.9
X11.78 Y12.62 I-0.12
G1 X11.66
G18 G3 X11.54 Z-5.88 K0.12
G1 Y12.38
Z-6.88 F500
G2 X11.66 Z-7 I0.12
G1 X11.78
G17 G3 X11.9 Y12.5 J0.12
X8.1 I-1.9 F1000
X11.9 I1.9
X11.78 Y12.62 I-0.12
G1 X11.66
G18 G3 X11.54 Z-6.88 K0.12
G1 Y12.38
Z-7.88 F500
G2 X11.66 Z-8 I0.12
G1 X11.78
G17 G3 X11.9 Y12.5 J0.12
X8.1 I-1.9 F1000
X11.9 I1.9
X11.78 Y12.62 I-0.12
G1 X11.66
G18 G3 X11.54 Z-7.88 K0.12
G1 Y12.38
Z-8.88 F500
G2 X11.66 Z-9 I0.12
G1 X11.78
G17 G3 X11.9 Y12.5 J0.12
X8.1 I-1.9 F1000
X11.9 I1.9
X11.78 Y12.62 I-0.12
G1 X11.66
G18 G3 X11.54 Z-8.88 K0.12
G0 Z5
X-28.46 Y17.38
G1 Z2 F500
Z-0.88
G2 X-28.34 Z-1 I0.12
G1 X-28.22
G17 G3 X-28.1 Y17.5 J0.12
X-31.9 I-1.9 F1000
X-28.1 I1.9
X-28.22 Y17.62 I-0.12
G1 X-28.34
G18 G3 X-28.46 Z-0.88 K0.12
G1 Y17.38
Z-1.88 F500
G2 X-28.34 Z-2 I0.12
G1 X-28.22
G17 G3 X-28.1 Y17.5 J0.12
X-31.9 I-1.9 F1000
X-28.1 I1.9
X-28.22 Y17.62 I-0.12
G1 X-28.34
G18 G3 X-28.46 Z-1.88 K0.12
G1 Y17.38
Z-2.88 F500
G2 X-28.34 Z-3 I0.12
G1 X-28.22
G17 G3 X-28.1 Y17.5 J0.12
X-31.9 I-1.9 F1000
X-28.1 I1.9
X-28.22 Y17.62 I-0.12
G1 X-28.34
G18 G3 X-28.46 Z-2.88 K0.12
G1 Y17.38
Z-3.88 F500
G2 X-28.34 Z-4 I0.12
G1 X-28.22
G17 G3 X-28.1 Y17.5 J0.12
X-31.9 I-1.9 F1000
X-28.1 I1.9
X-28.22 Y17.62 I-0.12
G1 X-28.34
G18 G3 X-28.46 Z-3.88 K0.12
G1 Y17.38
Z-4.88 F500
G2 X-28.34 Z-5 I0.12
G1 X-28.22
G17 G3 X-28.1 Y17.5 J0.12
X-31.9 I-1.9 F1000
X-28.1 I1.9
X-28.22 Y17.62 I-0.12
G1 X-28.34
G18 G3 X-28.46 Z-4.88 K0.12
G1 Y17.38
Z-5.88 F500
G2 X-28.34 Z-6 I0.12
G1 X-28.22
G17 G3 X-28.1 Y17.5 J0.12
X-31.9 I-1.9 F1000
X-28.1 I1.9
X-28.22 Y17.62 I-0.12
G1 X-28.34
G18 G3 X-28.46 Z-5.88 K0.12
G1 Y17.38
Z-6.88 F500
G2 X-28.34 Z-7 I0.12
G1 X-28.22
G17 G3 X-28.1 Y17.5 J0.12
X-31.9 I-1.9 F1000
X-28.1 I1.9
X-28.22 Y17.62 I-0.12
G1 X-28.34
G18 G3 X-28.46 Z-6.88 K0.12
G1 Y17.38
Z-7.88 F500
G2 X-28.34 Z-8 I0.12
G1 X-28.22
G17 G3 X-28.1 Y17.5 J0.12
X-31.9 I-1.9 F1000
X-28.1 I1.9
X-28.22 Y17.62 I-0.12
G1 X-28.34
G18 G3 X-28.46 Z-7.88 K0.12
G1 Y17.38
Z-8.88 F500
G2 X-28.34 Z-9 I0.12
G1 X-28.22
G17 G3 X-28.1 Y17.5 J0.12
X-31.9 I-1.9 F1000
X-28.1 I1.9
X-28.22 Y17.62 I-0.12
G1 X-28.34
G18 G3 X-28.46 Z-8.88 K0.12
G0 Z5
Y7.38
G1 Z2 F500
Z-0.88
G2 X-28.34 Z-1 I0.12
G1 X-28.22
G17 G3 X-28.1 Y7.5 J0.12
X-31.9 I-1.9 F1000
X-28.1 I1.9
X-28.22 Y7.62 I-0.12
G1 X-28.34
G18 G3 X-28.46 Z-0.88 K0.12
G1 Y7.38
Z-1.88 F500
G2 X-28.34 Z-2 I0.12
G1 X-28.22
G17 G3 X-28.1 Y7.5 J0.12
X-31.9 I-1.9 F1000
X-28.1 I1.9
X-28.22 Y7.62 I-0.12
G1 X-28.34
G18 G3 X-28.46 Z-1.88 K0.12
G1 Y7.38
Z-2.88 F500
G2 X-28.34 Z-3 I0.12
G1 X-28.22
G17 G3 X-28.1 Y7.5 J0.12
X-31.9 I-1.9 F1000
X-28.1 I1.9
X-28.22 Y7.62 I-0.12
G1 X-28.34
G18 G3 X-28.46 Z-2.88 K0.12
G1 Y7.38
Z-3.88 F500
G2 X-28.34 Z-4 I0.12
G1 X-28.22
G17 G3 X-28.1 Y7.5 J0.12
X-31.9 I-1.9 F1000
X-28.1 I1.9
X-28.22 Y7.62 I-0.12
G1 X-28.34
G18 G3 X-28.46 Z-3.88 K0.12
G1 Y7.38
Z-4.88 F500
G2 X-28.34 Z-5 I0.12
G1 X-28.22
G17 G3 X-28.1 Y7.5 J0.12
X-31.9 I-1.9 F1000
X-28.1 I1.9
X-28.22 Y7.62 I-0.12
G1 X-28.34
G18 G3 X-28.46 Z-4.88 K0.12
G1 Y7.38
Z-5.88 F500
G2 X-28.34 Z-6 I0.12
G1 X-28.22
G17 G3 X-28.1 Y7.5 J0.12
X-31.9 I-1.9 F1000
X-28.1 I1.9
X-28.22 Y7.62 I-0.12
G1 X-28.34
G18 G3 X-28.46 Z-5.88 K0.12
G1 Y7.38
Z-6.88 F500
G2 X-28.34 Z-7 I0.12
G1 X-28.22
G17 G3 X-28.1 Y7.5 J0.12
X-31.9 I-1.9 F1000
X-28.1 I1.9
X-28.22 Y7.62 I-0.12
G1 X-28.34
G18 G3 X-28.46 Z-6.88 K0.12
G1 Y7.38
Z-7.88 F500
G2 X-28.34 Z-8 I0.12
G1 X-28.22
G17 G3 X-28.1 Y7.5 J0.12
X-31.9 I-1.9 F1000
X-28.1 I1.9
X-28.22 Y7.62 I-0.12
G1 X-28.34
G18 G3 X-28.46 Z-7.88 K0.12
G1 Y7.38
Z-8.88 F500
G2 X-28.34 Z-9 I0.12
G1 X-28.22
G17 G3 X-28.1 Y7.5 J0.12
X-31.9 I-1.9 F1000
X-28.1 I1.9
X-28.22 Y7.62 I-0.12
G1 X-28.34
G18 G3 X-28.46 Z-8.88 K0.12
G0 Z5
Y-7.62
G1 Z2 F500
Z-0.88
G2 X-28.34 Z-1 I0.12
G1 X-28.22
G17 G3 X-28.1 Y-7.5 J0.12
X-31.9 I-1.9 F1000
X-28.1 I1.9
X-28.22 Y-7.38 I-0.12
G1 X-28.34
G18 G3 X-28.46 Z-0.88 K0.12
G1 Y-7.62
Z-1.88 F500
G2 X-28.34 Z-2 I0.12
G1 X-28.22
G17 G3 X-28.1 Y-7.5 J0.12
X-31.9 I-1.9 F1000
X-28.1 I1.9
X-28.22 Y-7.38 I-0.12
G1 X-28.34
G18 G3 X-28.46 Z-1.88 K0.12
G1 Y-7.62
Z-2.88 F500
G2 X-28.34 Z-3 I0.12
G1 X-28.22
G17 G3 X-28.1 Y-7.5 J0.12
X-31.9 I-1.9 F1000
X-28.1 I1.9
X-28.22 Y-7.38 I-0.12
G1 X-28.34
G18 G3 X-28.46 Z-2.88 K0.12
G1 Y-7.62
Z-3.88 F500
G2 X-28.34 Z-4 I0.12
G1 X-28.22
G17 G3 X-28.1 Y-7.5 J0.12
X-31.9 I-1.9 F1000
X-28.1 I1.9
X-28.22 Y-7.38 I-0.12
G1 X-28.34
G18 G3 X-28.46 Z-3.88 K0.12
G1 Y-7.62
Z-4.88 F500
G2 X-28.34 Z-5 I0.12
G1 X-28.22
G17 G3 X-28.1 Y-7.5 J0.12
X-31.9 I-1.9 F1000
X-28.1 I1.9
X-28.22 Y-7.38 I-0.12
G1 X-28.34
G18 G3 X-28.46 Z-4.88 K0.12
G1 Y-7.62
Z-5.88 F500
G2 X-28.34 Z-6 I0.12
G1 X-28.22
G17 G3 X-28.1 Y-7.5 J0.12
X-31.9 I-1.9 F1000
X-28.1 I1.9
X-28.22 Y-7.38 I-0.12
G1 X-28.34
G18 G3 X-28.46 Z-5.88 K0.12
G1 Y-7.62
Z-6.88 F500
G2 X-28.34 Z-7 I0.12
G1 X-28.22
G17 G3 X-28.1 Y-7.5 J0.12
X-31.9 I-1.9 F1000
X-28.1 I1.9
X-28.22 Y-7.38 I-0.12
G1 X-28.34
G18 G3 X-28.46 Z-6.88 K0.12
G1 Y-7.62
Z-7.88 F500
G2 X-28.34 Z-8 I0.12
G1 X-28.22
G17 G3 X-28.1 Y-7.5 J0.12
X-31.9 I-1.9 F1000
X-28.1 I1.9
X-28.22 Y-7.38 I-0.12
G1 X-28.34
G18 G3 X-28.46 Z-7.88 K0.12
G1 Y-7.62
Z-8.88 F500
G2 X-28.34 Z-9 I0.12
G1 X-28.22
G17 G3 X-28.1 Y-7.5 J0.12
X-31.9 I-1.9 F1000
X-28.1 I1.9
X-28.22 Y-7.38 I-0.12
G1 X-28.34
G18 G3 X-28.46 Z-8.88 K0.12
G0 Z5
Y-17.62
G1 Z2 F500
Z-0.88
G2 X-28.34 Z-1 I0.12
G1 X-28.22
G17 G3 X-28.1 Y-17.5 J0.12
X-31.9 I-1.9 F1000
X-28.1 I1.9
X-28.22 Y-17.38 I-0.12
G1 X-28.34
G18 G3 X-28.46 Z-0.88 K0.12
G1 Y-17.62
Z-1.88 F500
G2 X-28.34 Z-2 I0.12
G1 X-28.22
G17 G3 X-28.1 Y-17.5 J0.12
X-31.9 I-1.9 F1000
X-28.1 I1.9
X-28.22 Y-17.38 I-0.12
G1 X-28.34
G18 G3 X-28.46 Z-1.88 K0.12
G1 Y-17.62
Z-2.88 F500
G2 X-28.34 Z-3 I0.12
G1 X-28.22
G17 G3 X-28.1 Y-17.5 J0.12
X-31.9 I-1.9 F1000
X-28.1 I1.9
X-28.22 Y-17.38 I-0.12
G1 X-28.34
G18 G3 X-28.46 Z-2.88 K0.12
G1 Y-17.62
Z-3.88 F500
G2 X-28.34 Z-4 I0.12
G1 X-28.22
G17 G3 X-28.1 Y-17.5 J0.12
X-31.9 I-1.9 F1000
X-28.1 I1.9
X-28.22 Y-17.38 I-0.12
G1 X-28.34
G18 G3 X-28.46 Z-3.88 K0.12
G1 Y-17.62
Z-4.88 F500
G2 X-28.34 Z-5 I0.12
G1 X-28.22
G17 G3 X-28.1 Y-17.5 J0.12
X-31.9 I-1.9 F1000
X-28.1 I1.9
X-28.22 Y-17.38 I-0.12
G1 X-28.34
G18 G3 X-28.46 Z-4.88 K0.12
G1 Y-17.62
Z-5.88 F500
G2 X-28.34 Z-6 I0.12
G1 X-28.22
G17 G3 X-28.1 Y-17.5 J0.12
X-31.9 I-1.9 F1000
X-28.1 I1.9
X-28.22 Y-17.38 I-0.12
G1 X-28.34
G18 G3 X-28.46 Z-5.88 K0.12
G1 Y-17.62
Z-6.88 F500
G2 X-28.34 Z-7 I0.12
G1 X-28.22
G17 G3 X-28.1 Y-17.5 J0.12
X-31.9 I-1.9 F1000
X-28.1 I1.9
X-28.22 Y-17.38 I-0.12
G1 X-28.34
G18 G3 X-28.46 Z-6.88 K0.12
G1 Y-17.62
Z-7.88 F500
G2 X-28.34 Z-8 I0.12
G1 X-28.22
G17 G3 X-28.1 Y-17.5 J0.12
X-31.9 I-1.9 F1000
X-28.1 I1.9
X-28.22 Y-17.38 I-0.12
G1 X-28.34
G18 G3 X-28.46 Z-7.88 K0.12
G1 Y-17.62
Z-8.88 F500
G2 X-28.34 Z-9 I0.12
G1 X-28.22
G17 G3 X-28.1 Y-17.5 J0.12
X-31.9 I-1.9 F1000
X-28.1 I1.9
X-28.22 Y-17.38 I-0.12
G1 X-28.34
G18 G3 X-28.46 Z-8.88 K0.12
G0 Z10
G17

(2D Contour3)
M8
G0 X40.12 Y1.54
Z10
Z5
G1 Z2 F500
Z-0.88
G19 G3 Y1.66 Z-1 J0.12
G1 Y1.78
G17 G3 X40 Y1.9 I-0.12
G1 X-40 F1000
G2 X-40.6 Y2.5 J0.6
G1 Y22.5
G2 X-40 Y23.1 I0.6
G1 X40
G2 X40.6 Y22.5 J-0.6
G1 Y2.5
G2 X40 Y1.9 I-0.6
G3 X39.88 Y1.78 J-0.12
G1 Y1.66
G19 G2 Y1.54 Z-0.88 K0.12
G1 X40.12
Z-1.88 F500
G3 Y1.66 Z-2 J0.12
G1 Y1.78
G17 G3 X40 Y1.9 I-0.12
G1 X-40 F1000
G2 X-40.6 Y2.5 J0.6
G1 Y22.5
G2 X-40 Y23.1 I0.6
G1 X40
G2 X40.6 Y22.5 J-0.6
G1 Y2.5
G2 X40 Y1.9 I-0.6
G3 X39.88 Y1.78 J-0.12
G1 Y1.66
G19 G2 Y1.54 Z-1.88 K0.12
G1 X40.12
Z-2.88 F500
G3 Y1.66 Z-3 J0.12
G1 Y1.78
G17 G3 X40 Y1.9 I-0.12
G1 X-40 F1000
G2 X-40.6 Y2.5 J0.6
G1 Y22.5
G2 X-40 Y23.1 I0.6
G1 X40
G2 X40.6 Y22.5 J-0.6
G1 Y2.5
G2 X40 Y1.9 I-0.6
G3 X39.88 Y1.78 J-0.12
G1 Y1.66
G19 G2 Y1.54 Z-2.88 K0.12
G1 X40.12
Z-3.88 F500
G3 Y1.66 Z-4 J0.12
G1 Y1.78
G17 G3 X40 Y1.9 I-0.12
G1 X-40 F1000
G2 X-40.6 Y2.5 J0.6
G1 Y22.5
G2 X-40 Y23.1 I0.6
G1 X40
G2 X40.6 Y22.5 J-0.6
G1 Y2.5
G2 X40 Y1.9 I-0.6
G3 X39.88 Y1.78 J-0.12
G1 Y1.66
G19 G2 Y1.54 Z-3.88 K0.12
G1 X40.12
Z-4.88 F500
G3 Y1.66 Z-5 J0.12
G1 Y1.78
G17 G3 X40 Y1.9 I-0.12
G1 X-40 F1000
G2 X-40.6 Y2.5 J0.6
G1 Y22.5
G2 X-40 Y23.1 I0.6
G1 X40
G2 X40.6 Y22.5 J-0.6
G1 Y2.5
G2 X40 Y1.9 I-0.6
G3 X39.88 Y1.78 J-0.12
G1 Y1.66
G19 G2 Y1.54 Z-4.88 K0.12
G1 X40.12
Z-5.88 F500
G3 Y1.66 Z-6 J0.12
G1 Y1.78
G17 G3 X40 Y1.9 I-0.12
G1 X-40 F1000
G2 X-40.6 Y2.5 J0.6
G1 Y22.5
G2 X-40 Y23.1 I0.6
G1 X40
G2 X40.6 Y22.5 J-0.6
G1 Y2.5
G2 X40 Y1.9 I-0.6
G3 X39.88 Y1.78 J-0.12
G1 Y1.66
G19 G2 Y1.54 Z-5.88 K0.12
G1 X40.12
Z-6.88 F500
G3 Y1.66 Z-7 J0.12
G1 Y1.78
G17 G3 X40 Y1.9 I-0.12
G1 X-40 F1000
G2 X-40.6 Y2.5 J0.6
G1 Y22.5
G2 X-40 Y23.1 I0.6
G1 X40
G2 X40.6 Y22.5 J-0.6
G1 Y2.5
G2 X40 Y1.9 I-0.6
G3 X39.88 Y1.78 J-0.12
G1 Y1.66
G19 G2 Y1.54 Z-6.88 K0.12
G1 X40.12
Z-7.88 F500
G3 Y1.66 Z-8 J0.12
G1 Y1.78
G17 G3 X40 Y1.9 I-0.12
G1 X-40 F1000
G2 X-40.6 Y2.5 J0.6
G1 Y22.5
G2 X-40 Y23.1 I0.6
G1 X40
G2 X40.6 Y22.5 J-0.6
G1 Y2.5
G2 X40 Y1.9 I-0.6
G3 X39.88 Y1.78 J-0.12
G1 Y1.66
G19 G2 Y1.54 Z-7.88 K0.12
G1 X40.12
Z-8.88 F500
G3 Y1.66 Z-9 J0.12
G1 Y1.78
G17 G3 X40 Y1.9 I-0.12
G1 X-40 F1000
G2 X-40.6 Y2.5 J0.6
G1 Y22.5
G2 X-40 Y23.1 I0.6
G1 X40
G2 X40.6 Y22.5 J-0.6
G1 Y2.5
G2 X40 Y1.9 I-0.6
G3 X39.88 Y1.78 J-0.12
G1 Y1.66
G19 G2 Y1.54 Z-8.88 K0.12
G1 Z-0.88
X40.955 Y-2.345
X40.949 Z-0.917 F500
X40.932 Y-2.346 Z-0.951
X40.906 Y-2.347 Z-0.977
X40.872 Y-2.348 Z-0.994
X40.835 Y-2.35 Z-1
X40.715 Y-2.354
G17 G3 X40.6 Y-2.478 I0.004 J-0.12
G2 Y-2.5 I-0.6 J-0.022 F1000
G1 Y-22.5
G2 X40 Y-23.1 I-0.6
G1 X-40
G2 X-40.6 Y-22.5 J0.6
G1 Y-2.5
G2 X-40 Y-1.9 I0.6
G1 X40
G2 X40.6 Y-2.478 J-0.6
G3 X40.724 Y-2.594 I0.12 J0.004
G1 X40.844 Y-2.589
X40.881 Y-2.588 Z-0.994
X40.914 Y-2.587 Z-0.977
X40.941 Y-2.586 Z-0.951
X40.958 Y-2.585 Z-0.917
X40.964 Z-0.88
X40.955 Y-2.345
Z-1.88 F500
X40.949 Z-1.917
X40.932 Y-2.346 Z-1.951
X40.906 Y-2.347 Z-1.977
X40.872 Y-2.348 Z-1.994
X40.835 Y-2.35 Z-2
X40.715 Y-2.354
G3 X40.6 Y-2.478 I0.004 J-0.12
G2 Y-2.5 I-0.6 J-0.022 F1000
G1 Y-22.5
G2 X40 Y-23.1 I-0.6
G1 X-40
G2 X-40.6 Y-22.5 J0.6
G1 Y-2.5
G2 X-40 Y-1.9 I0.6
G1 X40
G2 X40.6 Y-2.478 J-0.6
G3 X40.724 Y-2.594 I0.12 J0.004
G1 X40.844 Y-2.589
X40.881 Y-2.588 Z-1.994
X40.914 Y-2.587 Z-1.977
X40.941 Y-2.586 Z-1.951
X40.958 Y-2.585 Z-1.917
X40.964 Z-1.88
X40.955 Y-2.345
Z-2.88 F500
X40.949 Z-2.917
X40.932 Y-2.346 Z-2.951
X40.906 Y-2.347 Z-2.977
X40.872 Y-2.348 Z-2.994
X40.835 Y-2.35 Z-3
X40.715 Y-2.354
G3 X40.6 Y-2.478 I0.004 J-0.12
G2 Y-2.5 I-0.6 J-0.022 F1000
G1 Y-22.5
G2 X40 Y-23.1 I-0.6
G1 X-40
G2 X-40.6 Y-22.5 J0.6
G1 Y-2.5
G2 X-40 Y-1.9 I0.6
G1 X40
G2 X40.6 Y-2.478 J-0.6
G3 X40.724 Y-2.594 I0.12 J0.004
G1 X40.844 Y-2.589
X40.881 Y-2.588 Z-2.994
X40.914 Y-2.587 Z-2.977
X40.941 Y-2.586 Z-2.951
X40.958 Y-2.585 Z-2.917
X40.964 Z-2.88
X40.955 Y-2.345
Z-3.88 F500
X40.949 Z-3.917
X40.932 Y-2.346 Z-3.951
X40.906 Y-2.347 Z-3.977
X40.872 Y-2.348 Z-3.994
X40.835 Y-2.35 Z-4
X40.715 Y-2.354
G3 X40.6 Y-2.478 I0.004 J-0.12
G2 Y-2.5 I-0.6 J-0.022 F1000
G1 Y-22.5
G2 X40 Y-23.1 I-0.6
G1 X-40
G2 X-40.6 Y-22.5 J0.6
G1 Y-2.5
G2 X-40 Y-1.9 I0.6
G1 X40
G2 X40.6 Y-2.478 J-0.6
G3 X40.724 Y-2.594 I0.12 J0.004
G1 X40.844 Y-2.589
X40.881 Y-2.588 Z-3.994
X40.914 Y-2.587 Z-3.977
X40.941 Y-2.586 Z-3.951
X40.958 Y-2.585 Z-3.917
X40.964 Z-3.88
X40.955 Y-2.345
Z-4.88 F500
X40.949 Z-4.917
X40.932 Y-2.346 Z-4.951
X40.906 Y-2.347 Z-4.977
X40.872 Y-2.348 Z-4.994
X40.835 Y-2.35 Z-5
X40.715 Y-2.354
G3 X40.6 Y-2.478 I0.004 J-0.12
G2 Y-2.5 I-0.6 J-0.022 F1000
G1 Y-22.5
G2 X40 Y-23.1 I-0.6
G1 X-40
G2 X-40.6 Y-22.5 J0.6
G1 Y-2.5
G2 X-40 Y-1.9 I0.6
G1 X40
G2 X40.6 Y-2.478 J-0.6
G3 X40.724 Y-2.594 I0.12 J0.004
G1 X40.844 Y-2.589
X40.881 Y-2.588 Z-4.994
X40.914 Y-2.587 Z-4.977
X40.941 Y-2.586 Z-4.951
X40.958 Y-2.585 Z-4.917
X40.964 Z-4.88
X40.955 Y-2.345
Z-5.88 F500
X40.949 Z-5.917
X40.932 Y-2.346 Z-5.951
X40.906 Y-2.347 Z-5.977
X40.872 Y-2.348 Z-5.994
X40.835 Y-2.35 Z-6
X40.715 Y-2.354
G3 X40.6 Y-2.478 I0.004 J-0.12
G2 Y-2.5 I-0.6 J-0.022 F1000
G1 Y-22.5
G2 X40 Y-23.1 I-0.6
G1 X-40
G2 X-40.6 Y-22.5 J0.6
G1 Y-2.5
G2 X-40 Y-1.9 I0.6
G1 X40
G2 X40.6 Y-2.478 J-0.6
G3 X40.724 Y-2.594 I0.12 J0.004
G1 X40.844 Y-2.589
X40.881 Y-2.588 Z-5.994
X40.914 Y-2.587 Z-5.977
X40.941 Y-2.586 Z-5.951
X40.958 Y-2.585 Z-5.917
X40.964 Z-5.88
X40.955 Y-2.345
Z-6.88 F500
X40.949 Z-6.917
X40.932 Y-2.346 Z-6.951
X40.906 Y-2.347 Z-6.977
X40.872 Y-2.348 Z-6.994
X40.835 Y-2.35 Z-7
X40.715 Y-2.354
G3 X40.6 Y-2.478 I0.004 J-0.12
G2 Y-2.5 I-0.6 J-0.022 F1000
G1 Y-22.5
G2 X40 Y-23.1 I-0.6
G1 X-40
G2 X-40.6 Y-22.5 J0.6
G1 Y-2.5
G2 X-40 Y-1.9 I0.6
G1 X40
G2 X40.6 Y-2.478 J-0.6
G3 X40.724 Y-2.594 I0.12 J0.004
G1 X40.844 Y-2.589
X40.881 Y-2.588 Z-6.994
X40.914 Y-2.587 Z-6.977
X40.941 Y-2.586 Z-6.951
X40.958 Y-2.585 Z-6.917
X40.964 Z-6.88
X40.955 Y-2.345
Z-7.88 F500
X40.949 Z-7.917
X40.932 Y-2.346 Z-7.951
X40.906 Y-2.347 Z-7.977
X40.872 Y-2.348 Z-7.994
X40.835 Y-2.35 Z-8
X40.715 Y-2.354
G3 X40.6 Y-2.478 I0.004 J-0.12
G2 Y-2.5 I-0.6 J-0.022 F1000
G1 Y-22.5
G2 X40 Y-23.1 I-0.6
G1 X-40
G2 X-40.6 Y-22.5 J0.6
G1 Y-2.5
G2 X-40 Y-1.9 I0.6
G1 X40
G2 X40.6 Y-2.478 J-0.6
G3 X40.724 Y-2.594 I0.12 J0.004
G1 X40.844 Y-2.589
X40.881 Y-2.588 Z-7.994
X40.914 Y-2.587 Z-7.977
X40.941 Y-2.586 Z-7.951
X40.958 Y-2.585 Z-7.917
X40.964 Z-7.88
X40.955 Y-2.345
Z-8.88 F500
X40.949 Z-8.917
X40.932 Y-2.346 Z-8.951
X40.906 Y-2.347 Z-8.977
X40.872 Y-2.348 Z-8.994
X40.835 Y-2.35 Z-9
X40.715 Y-2.354
G3 X40.6 Y-2.478 I0.004 J-0.12
G2 Y-2.5 I-0.6 J-0.022 F1000
G1 Y-22.5
G2 X40 Y-23.1 I-0.6
G1 X-40
G2 X-40.6 Y-22.5 J0.6
G1 Y-2.5
G2 X-40 Y-1.9 I0.6
G1 X40
G2 X40.6 Y-2.478 J-0.6
G3 X40.724 Y-2.594 I0.12 J0.004
G1 X40.844 Y-2.589
X40.881 Y-2.588 Z-8.994
X40.914 Y-2.587 Z-8.977
X40.941 Y-2.586 Z-8.951
X40.958 Y-2.585 Z-8.917
X40.964 Z-8.88
G0 Z10
M9
G28 G91 Z0
G28 X0 Y0
M30
%
