%
(motor_and_gear_plates)
(T5  D=1.2 CR=0 - ZMIN=-8 - flat end mill)
G90 G94
G17
G21
G28 G91 Z0
G90

(Circular1)
M9
T5 M6
S4775 M3
G54
M8
G0 X5.63 Y34.9
Z10
Z0
G1 Z-1.88 F500
G19 G2 Y34.78 Z-2 J-0.12
G1 Y34.72
G17 G3 X5.75 Y34.6 I0.12
Y36.4 J0.9 F1000
Y34.6 J-0.9
X5.87 Y34.72 J0.12
G1 Y34.78
G19 G3 Y34.9 Z-1.88 K0.12
G0 Z5
X5.63
Z-1
G1 Z-2.88 F500
G2 Y34.78 Z-3 J-0.12
G1 Y34.72
G17 G3 X5.75 Y34.6 I0.12
Y36.4 J0.9 F1000
Y34.6 J-0.9
X5.87 Y34.72 J0.12
G1 Y34.78
G19 G3 Y34.9 Z-2.88 K0.12
G0 Z5
X5.63
Z-2
G1 Z-3.88 F500
G2 Y34.78 Z-4 J-0.12
G1 Y34.72
G17 G3 X5.75 Y34.6 I0.12
Y36.4 J0.9 F1000
Y34.6 J-0.9
X5.87 Y34.72 J0.12
G1 Y34.78
G19 G3 Y34.9 Z-3.88 K0.12
G0 Z5
X5.63
Z-3
G1 Z-4.88 F500
G2 Y34.78 Z-5 J-0.12
G1 Y34.72
G17 G3 X5.75 Y34.6 I0.12
Y36.4 J0.9 F1000
Y34.6 J-0.9
X5.87 Y34.72 J0.12
G1 Y34.78
G19 G3 Y34.9 Z-4.88 K0.12
G0 Z5
X5.63
Z-4
G1 Z-5.88 F500
G2 Y34.78 Z-6 J-0.12
G1 Y34.72
G17 G3 X5.75 Y34.6 I0.12
Y36.4 J0.9 F1000
Y34.6 J-0.9
X5.87 Y34.72 J0.12
G1 Y34.78
G19 G3 Y34.9 Z-5.88 K0.12
G0 Z5
X5.63
Z-5
G1 Z-6.88 F500
G2 Y34.78 Z-7 J-0.12
G1 Y34.72
G17 G3 X5.75 Y34.6 I0.12
Y36.4 J0.9 F1000
Y34.6 J-0.9
X5.87 Y34.72 J0.12
G1 Y34.78
G19 G3 Y34.9 Z-6.88 K0.12
G0 Z5
X5.63
Z-5.5
G1 Z-7.38 F500
G2 Y34.78 Z-7.5 J-0.12
G1 Y34.72
G17 G3 X5.75 Y34.6 I0.12
Y36.4 J0.9 F1000
Y34.6 J-0.9
X5.87 Y34.72 J0.12
G1 Y34.78
G19 G3 Y34.9 Z-7.38 K0.12
G0 Z5
X5.63
Z-6
G1 Z-7.88 F500
G2 Y34.78 Z-8 J-0.12
G1 Y34.72
G17 G3 X5.75 Y34.6 I0.12
Y36.4 J0.9 F1000
Y34.6 J-0.9
X5.87 Y34.72 J0.12
G1 Y34.78
G19 G3 Y34.9 Z-7.88 K0.12
G0 Z5
X21.13 Y9.4
Z0
G1 Z-1.88 F500
G2 Y9.28 Z-2 J-0.12
G1 Y9.22
G17 G3 X21.25 Y9.1 I0.12
Y30.9 J10.9 F1000
Y9.1 J-10.9
X21.37 Y9.22 J0.12
G1 Y9.28
G19 G3 Y9.4 Z-1.88 K0.12
G0 Z5
X21.13
Z-1
G1 Z-2.88 F500
G2 Y9.28 Z-3 J-0.12
G1 Y9.22
G17 G3 X21.25 Y9.1 I0.12
Y30.9 J10.9 F1000
Y9.1 J-10.9
X21.37 Y9.22 J0.12
G1 Y9.28
G19 G3 Y9.4 Z-2.88 K0.12
G0 Z5
X21.13
Z-2
G1 Z-3.88 F500
G2 Y9.28 Z-4 J-0.12
G1 Y9.22
G17 G3 X21.25 Y9.1 I0.12
Y30.9 J10.9 F1000
Y9.1 J-10.9
X21.37 Y9.22 J0.12
G1 Y9.28
G19 G3 Y9.4 Z-3.88 K0.12
G0 Z5
X21.13
Z-3
G1 Z-4.88 F500
G2 Y9.28 Z-5 J-0.12
G1 Y9.22
G17 G3 X21.25 Y9.1 I0.12
Y30.9 J10.9 F1000
Y9.1 J-10.9
X21.37 Y9.22 J0.12
G1 Y9.28
G19 G3 Y9.4 Z-4.88 K0.12
G0 Z5
X21.13
Z-4
G1 Z-5.88 F500
G2 Y9.28 Z-6 J-0.12
G1 Y9.22
G17 G3 X21.25 Y9.1 I0.12
Y30.9 J10.9 F1000
Y9.1 J-10.9
X21.37 Y9.22 J0.12
G1 Y9.28
G19 G3 Y9.4 Z-5.88 K0.12
G0 Z5
X21.13
Z-5
G1 Z-6.88 F500
G2 Y9.28 Z-7 J-0.12
G1 Y9.22
G17 G3 X21.25 Y9.1 I0.12
Y30.9 J10.9 F1000
Y9.1 J-10.9
X21.37 Y9.22 J0.12
G1 Y9.28
G19 G3 Y9.4 Z-6.88 K0.12
G0 Z5
X21.13
Z-5.5
G1 Z-7.38 F500
G2 Y9.28 Z-7.5 J-0.12
G1 Y9.22
G17 G3 X21.25 Y9.1 I0.12
Y30.9 J10.9 F1000
Y9.1 J-10.9
X21.37 Y9.22 J0.12
G1 Y9.28
G19 G3 Y9.4 Z-7.38 K0.12
G0 Z5
X21.13
Z-6
G1 Z-7.88 F500
G2 Y9.28 Z-8 J-0.12
G1 Y9.22
G17 G3 X21.25 Y9.1 I0.12
Y30.9 J10.9 F1000
Y9.1 J-10.9
X21.37 Y9.22 J0.12
G1 Y9.28
G19 G3 Y9.4 Z-7.88 K0.12
G0 Z5
X36.63 Y34.9
Z0
G1 Z-1.88 F500
G2 Y34.78 Z-2 J-0.12
G1 Y34.72
G17 G3 X36.75 Y34.6 I0.12
Y36.4 J0.9 F1000
Y34.6 J-0.9
X36.87 Y34.72 J0.12
G1 Y34.78
G19 G3 Y34.9 Z-1.88 K0.12
G0 Z5
X36.63
Z-1
G1 Z-2.88 F500
G2 Y34.78 Z-3 J-0.12
G1 Y34.72
G17 G3 X36.75 Y34.6 I0.12
Y36.4 J0.9 F1000
Y34.6 J-0.9
X36.87 Y34.72 J0.12
G1 Y34.78
G19 G3 Y34.9 Z-2.88 K0.12
G0 Z5
X36.63
Z-2
G1 Z-3.88 F500
G2 Y34.78 Z-4 J-0.12
G1 Y34.72
G17 G3 X36.75 Y34.6 I0.12
Y36.4 J0.9 F1000
Y34.6 J-0.9
X36.87 Y34.72 J0.12
G1 Y34.78
G19 G3 Y34.9 Z-3.88 K0.12
G0 Z5
X36.63
Z-3
G1 Z-4.88 F500
G2 Y34.78 Z-5 J-0.12
G1 Y34.72
G17 G3 X36.75 Y34.6 I0.12
Y36.4 J0.9 F1000
Y34.6 J-0.9
X36.87 Y34.72 J0.12
G1 Y34.78
G19 G3 Y34.9 Z-4.88 K0.12
G0 Z5
X36.63
Z-4
G1 Z-5.88 F500
G2 Y34.78 Z-6 J-0.12
G1 Y34.72
G17 G3 X36.75 Y34.6 I0.12
Y36.4 J0.9 F1000
Y34.6 J-0.9
X36.87 Y34.72 J0.12
G1 Y34.78
G19 G3 Y34.9 Z-5.88 K0.12
G0 Z5
X36.63
Z-5
G1 Z-6.88 F500
G2 Y34.78 Z-7 J-0.12
G1 Y34.72
G17 G3 X36.75 Y34.6 I0.12
Y36.4 J0.9 F1000
Y34.6 J-0.9
X36.87 Y34.72 J0.12
G1 Y34.78
G19 G3 Y34.9 Z-6.88 K0.12
G0 Z5
X36.63
Z-5.5
G1 Z-7.38 F500
G2 Y34.78 Z-7.5 J-0.12
G1 Y34.72
G17 G3 X36.75 Y34.6 I0.12
Y36.4 J0.9 F1000
Y34.6 J-0.9
X36.87 Y34.72 J0.12
G1 Y34.78
G19 G3 Y34.9 Z-7.38 K0.12
G0 Z5
X36.63
Z-6
G1 Z-7.88 F500
G2 Y34.78 Z-8 J-0.12
G1 Y34.72
G17 G3 X36.75 Y34.6 I0.12
Y36.4 J0.9 F1000
Y34.6 J-0.9
X36.87 Y34.72 J0.12
G1 Y34.78
G19 G3 Y34.9 Z-7.88 K0.12
G0 Z5
X36.63 Y3.9
Z0
G1 Z-1.88 F500
G2 Y3.78 Z-2 J-0.12
G1 Y3.72
G17 G3 X36.75 Y3.6 I0.12
Y5.4 J0.9 F1000
Y3.6 J-0.9
X36.87 Y3.72 J0.12
G1 Y3.78
G19 G3 Y3.9 Z-1.88 K0.12
G0 Z5
X36.63
Z-1
G1 Z-2.88 F500
G2 Y3.78 Z-3 J-0.12
G1 Y3.72
G17 G3 X36.75 Y3.6 I0.12
Y5.4 J0.9 F1000
Y3.6 J-0.9
X36.87 Y3.72 J0.12
G1 Y3.78
G19 G3 Y3.9 Z-2.88 K0.12
G0 Z5
X36.63
Z-2
G1 Z-3.88 F500
G2 Y3.78 Z-4 J-0.12
G1 Y3.72
G17 G3 X36.75 Y3.6 I0.12
Y5.4 J0.9 F1000
Y3.6 J-0.9
X36.87 Y3.72 J0.12
G1 Y3.78
G19 G3 Y3.9 Z-3.88 K0.12
G0 Z5
X36.63
Z-3
G1 Z-4.88 F500
G2 Y3.78 Z-5 J-0.12
G1 Y3.72
G17 G3 X36.75 Y3.6 I0.12
Y5.4 J0.9 F1000
Y3.6 J-0.9
X36.87 Y3.72 J0.12
G1 Y3.78
G19 G3 Y3.9 Z-4.88 K0.12
G0 Z5
X36.63
Z-4
G1 Z-5.88 F500
G2 Y3.78 Z-6 J-0.12
G1 Y3.72
G17 G3 X36.75 Y3.6 I0.12
Y5.4 J0.9 F1000
Y3.6 J-0.9
X36.87 Y3.72 J0.12
G1 Y3.78
G19 G3 Y3.9 Z-5.88 K0.12
G0 Z5
X36.63
Z-5
G1 Z-6.88 F500
G2 Y3.78 Z-7 J-0.12
G1 Y3.72
G17 G3 X36.75 Y3.6 I0.12
Y5.4 J0.9 F1000
Y3.6 J-0.9
X36.87 Y3.72 J0.12
G1 Y3.78
G19 G3 Y3.9 Z-6.88 K0.12
G0 Z5
X36.63
Z-5.5
G1 Z-7.38 F500
G2 Y3.78 Z-7.5 J-0.12
G1 Y3.72
G17 G3 X36.75 Y3.6 I0.12
Y5.4 J0.9 F1000
Y3.6 J-0.9
X36.87 Y3.72 J0.12
G1 Y3.78
G19 G3 Y3.9 Z-7.38 K0.12
G0 Z5
X36.63
Z-6
G1 Z-7.88 F500
G2 Y3.78 Z-8 J-0.12
G1 Y3.72
G17 G3 X36.75 Y3.6 I0.12
Y5.4 J0.9 F1000
Y3.6 J-0.9
X36.87 Y3.72 J0.12
G1 Y3.78
G19 G3 Y3.9 Z-7.88 K0.12
G0 Z5
X5.63
Z0
G1 Z-1.88 F500
G2 Y3.78 Z-2 J-0.12
G1 Y3.72
G17 G3 X5.75 Y3.6 I0.12
Y5.4 J0.9 F1000
Y3.6 J-0.9
X5.87 Y3.72 J0.12
G1 Y3.78
G19 G3 Y3.9 Z-1.88 K0.12
G0 Z5
X5.63
Z-1
G1 Z-2.88 F500
G2 Y3.78 Z-3 J-0.12
G1 Y3.72
G17 G3 X5.75 Y3.6 I0.12
Y5.4 J0.9 F1000
Y3.6 J-0.9
X5.87 Y3.72 J0.12
G1 Y3.78
G19 G3 Y3.9 Z-2.88 K0.12
G0 Z5
X5.63
Z-2
G1 Z-3.88 F500
G2 Y3.78 Z-4 J-0.12
G1 Y3.72
G17 G3 X5.75 Y3.6 I0.12
Y5.4 J0.9 F1000
Y3.6 J-0.9
X5.87 Y3.72 J0.12
G1 Y3.78
G19 G3 Y3.9 Z-3.88 K0.12
G0 Z5
X5.63
Z-3
G1 Z-4.88 F500
G2 Y3.78 Z-5 J-0.12
G1 Y3.72
G17 G3 X5.75 Y3.6 I0.12
Y5.4 J0.9 F1000
Y3.6 J-0.9
X5.87 Y3.72 J0.12
G1 Y3.78
G19 G3 Y3.9 Z-4.88 K0.12
G0 Z5
X5.63
Z-4
G1 Z-5.88 F500
G2 Y3.78 Z-6 J-0.12
G1 Y3.72
G17 G3 X5.75 Y3.6 I0.12
Y5.4 J0.9 F1000
Y3.6 J-0.9
X5.87 Y3.72 J0.12
G1 Y3.78
G19 G3 Y3.9 Z-5.88 K0.12
G0 Z5
X5.63
Z-5
G1 Z-6.88 F500
G2 Y3.78 Z-7 J-0.12
G1 Y3.72
G17 G3 X5.75 Y3.6 I0.12
Y5.4 J0.9 F1000
Y3.6 J-0.9
X5.87 Y3.72 J0.12
G1 Y3.78
G19 G3 Y3.9 Z-6.88 K0.12
G0 Z5
X5.63
Z-5.5
G1 Z-7.38 F500
G2 Y3.78 Z-7.5 J-0.12
G1 Y3.72
G17 G3 X5.75 Y3.6 I0.12
Y5.4 J0.9 F1000
Y3.6 J-0.9
X5.87 Y3.72 J0.12
G1 Y3.78
G19 G3 Y3.9 Z-7.38 K0.12
G0 Z5
X5.63
Z-6
G1 Z-7.88 F500
G2 Y3.78 Z-8 J-0.12
G1 Y3.72
G17 G3 X5.75 Y3.6 I0.12
Y5.4 J0.9 F1000
Y3.6 J-0.9
X5.87 Y3.72 J0.12
G1 Y3.78
G19 G3 Y3.9 Z-7.88 K0.12
G0 Z5
X-22.87 Y6.9
Z0
G1 Z-1.88 F500
G2 Y6.78 Z-2 J-0.12
G1 Y6.72
G17 G3 X-22.75 Y6.6 I0.12
Y10.4 J1.9 F1000
Y6.6 J-1.9
X-22.63 Y6.72 J0.12
G1 Y6.78
G19 G3 Y6.9 Z-1.88 K0.12
G0 Z5
X-22.87
Z-1
G1 Z-2.88 F500
G2 Y6.78 Z-3 J-0.12
G1 Y6.72
G17 G3 X-22.75 Y6.6 I0.12
Y10.4 J1.9 F1000
Y6.6 J-1.9
X-22.63 Y6.72 J0.12
G1 Y6.78
G19 G3 Y6.9 Z-2.88 K0.12
G0 Z5
X-22.87
Z-2
G1 Z-3.88 F500
G2 Y6.78 Z-4 J-0.12
G1 Y6.72
G17 G3 X-22.75 Y6.6 I0.12
Y10.4 J1.9 F1000
Y6.6 J-1.9
X-22.63 Y6.72 J0.12
G1 Y6.78
G19 G3 Y6.9 Z-3.88 K0.12
G0 Z5
X-22.87
Z-3
G1 Z-4.88 F500
G2 Y6.78 Z-5 J-0.12
G1 Y6.72
G17 G3 X-22.75 Y6.6 I0.12
Y10.4 J1.9 F1000
Y6.6 J-1.9
X-22.63 Y6.72 J0.12
G1 Y6.78
G19 G3 Y6.9 Z-4.88 K0.12
G0 Z5
X-22.87
Z-4
G1 Z-5.88 F500
G2 Y6.78 Z-6 J-0.12
G1 Y6.72
G17 G3 X-22.75 Y6.6 I0.12
Y10.4 J1.9 F1000
Y6.6 J-1.9
X-22.63 Y6.72 J0.12
G1 Y6.78
G19 G3 Y6.9 Z-5.88 K0.12
G0 Z5
X-22.87
Z-5
G1 Z-6.88 F500
G2 Y6.78 Z-7 J-0.12
G1 Y6.72
G17 G3 X-22.75 Y6.6 I0.12
Y10.4 J1.9 F1000
Y6.6 J-1.9
X-22.63 Y6.72 J0.12
G1 Y6.78
G19 G3 Y6.9 Z-6.88 K0.12
G0 Z5
X-22.87
Z-5.5
G1 Z-7.38 F500
G2 Y6.78 Z-7.5 J-0.12
G1 Y6.72
G17 G3 X-22.75 Y6.6 I0.12
Y10.4 J1.9 F1000
Y6.6 J-1.9
X-22.63 Y6.72 J0.12
G1 Y6.78
G19 G3 Y6.9 Z-7.38 K0.12
G0 Z5
X-22.87
Z-6
G1 Z-7.88 F500
G2 Y6.78 Z-8 J-0.12
G1 Y6.72
G17 G3 X-22.75 Y6.6 I0.12
Y10.4 J1.9 F1000
Y6.6 J-1.9
X-22.63 Y6.72 J0.12
G1 Y6.78
G19 G3 Y6.9 Z-7.88 K0.12
G0 Z10
G17

(2D Contour1)
M8
G0 X-11.206 Y-9.122
Z10
Z5
G1 Z2 F500
Z-0.88
G18 G2 X-11.086 Z-1 I0.12
G1 X-10.966
G17 G3 X-10.846 Y-9.002 J0.12
X-14.65 I-1.902 F1000
G1 Y-33.998
G3 X-10.846 I1.902
G1 Y-9.002
G3 X-10.966 Y-8.882 I-0.12
G1 X-11.086
G18 G3 X-11.206 Z-0.88 K0.12
G0 Z5
Y-9.122
G1 Z1 F500
Z-1.88
G2 X-11.086 Z-2 I0.12
G1 X-10.966
G17 G3 X-10.846 Y-9.002 J0.12
X-14.65 I-1.902 F1000
G1 Y-33.998
G3 X-10.846 I1.902
G1 Y-9.002
G3 X-10.966 Y-8.882 I-0.12
G1 X-11.086
G18 G3 X-11.206 Z-1.88 K0.12
G0 Z5
Y-9.122
G1 Z0 F500
Z-2.88
G2 X-11.086 Z-3 I0.12
G1 X-10.966
G17 G3 X-10.846 Y-9.002 J0.12
X-14.65 I-1.902 F1000
G1 Y-33.998
G3 X-10.846 I1.902
G1 Y-9.002
G3 X-10.966 Y-8.882 I-0.12
G1 X-11.086
G18 G3 X-11.206 Z-2.88 K0.12
G0 Z5
Y-9.122
G1 Z-1 F500
Z-3.88
G2 X-11.086 Z-4 I0.12
G1 X-10.966
G17 G3 X-10.846 Y-9.002 J0.12
X-14.65 I-1.902 F1000
G1 Y-33.998
G3 X-10.846 I1.902
G1 Y-9.002
G3 X-10.966 Y-8.882 I-0.12
G1 X-11.086
G18 G3 X-11.206 Z-3.88 K0.12
G0 Z5
Y-9.122
G1 Z-2 F500
Z-4.88
G2 X-11.086 Z-5 I0.12
G1 X-10.966
G17 G3 X-10.846 Y-9.002 J0.12
X-14.65 I-1.902 F1000
G1 Y-33.998
G3 X-10.846 I1.902
G1 Y-9.002
G3 X-10.966 Y-8.882 I-0.12
G1 X-11.086
G18 G3 X-11.206 Z-4.88 K0.12
G0 Z5
Y-9.122
G1 Z-3 F500
Z-5.88
G2 X-11.086 Z-6 I0.12
G1 X-10.966
G17 G3 X-10.846 Y-9.002 J0.12
X-14.65 I-1.902 F1000
G1 Y-33.998
G3 X-10.846 I1.902
G1 Y-9.002
G3 X-10.966 Y-8.882 I-0.12
G1 X-11.086
G18 G3 X-11.206 Z-5.88 K0.12
G0 Z5
Y-9.122
G1 Z-4 F500
Z-6.88
G2 X-11.086 Z-7 I0.12
G1 X-10.966
G17 G3 X-10.846 Y-9.002 J0.12
X-14.65 I-1.902 F1000
G1 Y-33.998
G3 X-10.846 I1.902
G1 Y-9.002
G3 X-10.966 Y-8.882 I-0.12
G1 X-11.086
G18 G3 X-11.206 Z-6.88 K0.12
G0 Z5
Y-9.122
G1 Z-5 F500
Z-7.88
G2 X-11.086 Z-8 I0.12
G1 X-10.966
G17 G3 X-10.846 Y-9.002 J0.12
X-14.65 I-1.902 F1000
G1 Y-33.998
G3 X-10.846 I1.902
G1 Y-9.002
G3 X-10.966 Y-8.882 I-0.12
G1 X-11.086
G18 G3 X-11.206 Z-7.88 K0.12
G0 Z5
X-31.21 Y-9.12
G1 Z2 F500
Z-0.88
G2 X-31.09 Z-1 I0.12
G1 X-30.97
G17 G3 X-30.85 Y-9 J0.12
X-34.65 I-1.9 F1000
G1 Y-34
G3 X-32.75 Y-35.9 I1.9
X-30.85 Y-34 J1.9
G1 Y-9
G3 X-30.97 Y-8.88 I-0.12
G1 X-31.09
G18 G3 X-31.21 Z-0.88 K0.12
G0 Z5
Y-9.12
G1 Z1 F500
Z-1.88
G2 X-31.09 Z-2 I0.12
G1 X-30.97
G17 G3 X-30.85 Y-9 J0.12
X-34.65 I-1.9 F1000
G1 Y-34
G3 X-32.75 Y-35.9 I1.9
X-30.85 Y-34 J1.9
G1 Y-9
G3 X-30.97 Y-8.88 I-0.12
G1 X-31.09
G18 G3 X-31.21 Z-1.88 K0.12
G0 Z5
Y-9.12
G1 Z0 F500
Z-2.88
G2 X-31.09 Z-3 I0.12
G1 X-30.97
G17 G3 X-30.85 Y-9 J0.12
X-34.65 I-1.9 F1000
G1 Y-34
G3 X-32.75 Y-35.9 I1.9
X-30.85 Y-34 J1.9
G1 Y-9
G3 X-30.97 Y-8.88 I-0.12
G1 X-31.09
G18 G3 X-31.21 Z-2.88 K0.12
G0 Z5
Y-9.12
G1 Z-1 F500
Z-3.88
G2 X-31.09 Z-4 I0.12
G1 X-30.97
G17 G3 X-30.85 Y-9 J0.12
X-34.65 I-1.9 F1000
G1 Y-34
G3 X-32.75 Y-35.9 I1.9
X-30.85 Y-34 J1.9
G1 Y-9
G3 X-30.97 Y-8.88 I-0.12
G1 X-31.09
G18 G3 X-31.21 Z-3.88 K0.12
G0 Z5
Y-9.12
G1 Z-2 F500
Z-4.88
G2 X-31.09 Z-5 I0.12
G1 X-30.97
G17 G3 X-30.85 Y-9 J0.12
X-34.65 I-1.9 F1000
G1 Y-34
G3 X-32.75 Y-35.9 I1.9
X-30.85 Y-34 J1.9
G1 Y-9
G3 X-30.97 Y-8.88 I-0.12
G1 X-31.09
G18 G3 X-31.21 Z-4.88 K0.12
G0 Z5
Y-9.12
G1 Z-3 F500
Z-5.88
G2 X-31.09 Z-6 I0.12
G1 X-30.97
G17 G3 X-30.85 Y-9 J0.12
X-34.65 I-1.9 F1000
G1 Y-34
G3 X-32.75 Y-35.9 I1.9
X-30.85 Y-34 J1.9
G1 Y-9
G3 X-30.97 Y-8.88 I-0.12
G1 X-31.09
G18 G3 X-31.21 Z-5.88 K0.12
G0 Z5
Y-9.12
G1 Z-4 F500
Z-6.88
G2 X-31.09 Z-7 I0.12
G1 X-30.97
G17 G3 X-30.85 Y-9 J0.12
X-34.65 I-1.9 F1000
G1 Y-34
G3 X-32.75 Y-35.9 I1.9
X-30.85 Y-34 J1.9
G1 Y-9
G3 X-30.97 Y-8.88 I-0.12
G1 X-31.09
G18 G3 X-31.21 Z-6.88 K0.12
G0 Z5
Y-9.12
G1 Z-5 F500
Z-7.88
G2 X-31.09 Z-8 I0.12
G1 X-30.97
G17 G3 X-30.85 Y-9 J0.12
X-34.65 I-1.9 F1000
G1 Y-34
G3 X-32.75 Y-35.9 I1.9
X-30.85 Y-34 J1.9
G1 Y-9
G3 X-30.97 Y-8.88 I-0.12
G1 X-31.09
G18 G3 X-31.21 Z-7.88 K0.12
G0 Z5
X12.79 Y-9.12
G1 Z2 F500
Z-0.88
G2 X12.91 Z-1 I0.12
G1 X13.03
G17 G3 X13.15 Y-9 J0.12
X9.35 I-1.9 F1000
G1 Y-34
G3 X13.15 I1.9
G1 Y-9
G3 X13.03 Y-8.88 I-0.12
G1 X12.91
G18 G3 X12.79 Z-0.88 K0.12
G0 Z5
Y-9.12
G1 Z1 F500
Z-1.88
G2 X12.91 Z-2 I0.12
G1 X13.03
G17 G3 X13.15 Y-9 J0.12
X9.35 I-1.9 F1000
G1 Y-34
G3 X13.15 I1.9
G1 Y-9
G3 X13.03 Y-8.88 I-0.12
G1 X12.91
G18 G3 X12.79 Z-1.88 K0.12
G0 Z5
Y-9.12
G1 Z0 F500
Z-2.88
G2 X12.91 Z-3 I0.12
G1 X13.03
G17 G3 X13.15 Y-9 J0.12
X9.35 I-1.9 F1000
G1 Y-34
G3 X13.15 I1.9
G1 Y-9
G3 X13.03 Y-8.88 I-0.12
G1 X12.91
G18 G3 X12.79 Z-2.88 K0.12
G0 Z5
Y-9.12
G1 Z-1 F500
Z-3.88
G2 X12.91 Z-4 I0.12
G1 X13.03
G17 G3 X13.15 Y-9 J0.12
X9.35 I-1.9 F1000
G1 Y-34
G3 X13.15 I1.9
G1 Y-9
G3 X13.03 Y-8.88 I-0.12
G1 X12.91
G18 G3 X12.79 Z-3.88 K0.12
G0 Z5
Y-9.12
G1 Z-2 F500
Z-4.88
G2 X12.91 Z-5 I0.12
G1 X13.03
G17 G3 X13.15 Y-9 J0.12
X9.35 I-1.9 F1000
G1 Y-34
G3 X13.15 I1.9
G1 Y-9
G3 X13.03 Y-8.88 I-0.12
G1 X12.91
G18 G3 X12.79 Z-4.88 K0.12
G0 Z5
Y-9.12
G1 Z-3 F500
Z-5.88
G2 X12.91 Z-6 I0.12
G1 X13.03
G17 G3 X13.15 Y-9 J0.12
X9.35 I-1.9 F1000
G1 Y-34
G3 X13.15 I1.9
G1 Y-9
G3 X13.03 Y-8.88 I-0.12
G1 X12.91
G18 G3 X12.79 Z-5.88 K0.12
G0 Z5
Y-9.12
G1 Z-4 F500
Z-6.88
G2 X12.91 Z-7 I0.12
G1 X13.03
G17 G3 X13.15 Y-9 J0.12
X9.35 I-1.9 F1000
G1 Y-34
G3 X13.15 I1.9
G1 Y-9
G3 X13.03 Y-8.88 I-0.12
G1 X12.91
G18 G3 X12.79 Z-6.88 K0.12
G0 Z5
Y-9.12
G1 Z-5 F500
Z-7.88
G2 X12.91 Z-8 I0.12
G1 X13.03
G17 G3 X13.15 Y-9 J0.12
X9.35 I-1.9 F1000
G1 Y-34
G3 X13.15 I1.9
G1 Y-9
G3 X13.03 Y-8.88 I-0.12
G1 X12.91
G18 G3 X12.79 Z-7.88 K0.12
G0 Z5
X32.793 Y-8.923
G1 Z2 F500
Z-0.88
X32.799 Z-0.917
X32.816 Y-8.921 Z-0.951
X32.842 Y-8.917 Z-0.977
X32.875 Y-8.913 Z-0.994
X32.912 Y-8.908 Z-1
X33.031 Y-8.893
G17 G3 X33.135 Y-8.759 I-0.015 J0.119
X29.35 Y-9 I-1.885 J-0.241 F1000
G1 Y-34
G3 X33.15 I1.9
G1 Y-9
G3 X33.135 Y-8.759 I-1.9
X33 Y-8.655 I-0.119 J-0.015
G1 X32.881 Y-8.67
X32.845 Y-8.675 Z-0.994
X32.811 Y-8.679 Z-0.977
X32.785 Y-8.682 Z-0.951
X32.768 Y-8.685 Z-0.917
X32.762 Z-0.88
G0 Z5
X32.793 Y-8.923
G1 Z1 F500
Z-1.88
X32.799 Z-1.917
X32.816 Y-8.921 Z-1.951
X32.842 Y-8.917 Z-1.977
X32.875 Y-8.913 Z-1.994
X32.912 Y-8.908 Z-2
X33.031 Y-8.893
G3 X33.135 Y-8.759 I-0.015 J0.119
X29.35 Y-9 I-1.885 J-0.241 F1000
G1 Y-34
G3 X33.15 I1.9
G1 Y-9
G3 X33.135 Y-8.759 I-1.9
X33 Y-8.655 I-0.119 J-0.015
G1 X32.881 Y-8.67
X32.845 Y-8.675 Z-1.994
X32.811 Y-8.679 Z-1.977
X32.785 Y-8.682 Z-1.951
X32.768 Y-8.685 Z-1.917
X32.762 Z-1.88
G0 Z5
X32.793 Y-8.923
G1 Z0 F500
Z-2.88
X32.799 Z-2.917
X32.816 Y-8.921 Z-2.951
X32.842 Y-8.917 Z-2.977
X32.875 Y-8.913 Z-2.994
X32.912 Y-8.908 Z-3
X33.031 Y-8.893
G3 X33.135 Y-8.759 I-0.015 J0.119
X29.35 Y-9 I-1.885 J-0.241 F1000
G1 Y-34
G3 X33.15 I1.9
G1 Y-9
G3 X33.135 Y-8.759 I-1.9
X33 Y-8.655 I-0.119 J-0.015
G1 X32.881 Y-8.67
X32.845 Y-8.675 Z-2.994
X32.811 Y-8.679 Z-2.977
X32.785 Y-8.682 Z-2.951
X32.768 Y-8.685 Z-2.917
X32.762 Z-2.88
G0 Z5
X32.793 Y-8.923
G1 Z-1 F500
Z-3.88
X32.799 Z-3.917
X32.816 Y-8.921 Z-3.951
X32.842 Y-8.917 Z-3.977
X32.875 Y-8.913 Z-3.994
X32.912 Y-8.908 Z-4
X33.031 Y-8.893
G3 X33.135 Y-8.759 I-0.015 J0.119
X29.35 Y-9 I-1.885 J-0.241 F1000
G1 Y-34
G3 X33.15 I1.9
G1 Y-9
G3 X33.135 Y-8.759 I-1.9
X33 Y-8.655 I-0.119 J-0.015
G1 X32.881 Y-8.67
X32.845 Y-8.675 Z-3.994
X32.811 Y-8.679 Z-3.977
X32.785 Y-8.682 Z-3.951
X32.768 Y-8.685 Z-3.917
X32.762 Z-3.88
G0 Z5
X32.793 Y-8.923
G1 Z-2 F500
Z-4.88
X32.799 Z-4.917
X32.816 Y-8.921 Z-4.951
X32.842 Y-8.917 Z-4.977
X32.875 Y-8.913 Z-4.994
X32.912 Y-8.908 Z-5
X33.031 Y-8.893
G3 X33.135 Y-8.759 I-0.015 J0.119
X29.35 Y-9 I-1.885 J-0.241 F1000
G1 Y-34
G3 X33.15 I1.9
G1 Y-9
G3 X33.135 Y-8.759 I-1.9
X33 Y-8.655 I-0.119 J-0.015
G1 X32.881 Y-8.67
X32.845 Y-8.675 Z-4.994
X32.811 Y-8.679 Z-4.977
X32.785 Y-8.682 Z-4.951
X32.768 Y-8.685 Z-4.917
X32.762 Z-4.88
G0 Z5
X32.793 Y-8.923
G1 Z-3 F500
Z-5.88
X32.799 Z-5.917
X32.816 Y-8.921 Z-5.951
X32.842 Y-8.917 Z-5.977
X32.875 Y-8.913 Z-5.994
X32.912 Y-8.908 Z-6
X33.031 Y-8.893
G3 X33.135 Y-8.759 I-0.015 J0.119
X29.35 Y-9 I-1.885 J-0.241 F1000
G1 Y-34
G3 X33.15 I1.9
G1 Y-9
G3 X33.135 Y-8.759 I-1.9
X33 Y-8.655 I-0.119 J-0.015
G1 X32.881 Y-8.67
X32.845 Y-8.675 Z-5.994
X32.811 Y-8.679 Z-5.977
X32.785 Y-8.682 Z-5.951
X32.768 Y-8.685 Z-5.917
X32.762 Z-5.88
G0 Z5
X32.793 Y-8.923
G1 Z-4 F500
Z-6.88
X32.799 Z-6.917
X32.816 Y-8.921 Z-6.951
X32.842 Y-8.917 Z-6.977
X32.875 Y-8.913 Z-6.994
X32.912 Y-8.908 Z-7
X33.031 Y-8.893
G3 X33.135 Y-8.759 I-0.015 J0.119
X29.35 Y-9 I-1.885 J-0.241 F1000
G1 Y-34
G3 X33.15 I1.9
G1 Y-9
G3 X33.135 Y-8.759 I-1.9
X33 Y-8.655 I-0.119 J-0.015
G1 X32.881 Y-8.67
X32.845 Y-8.675 Z-6.994
X32.811 Y-8.679 Z-6.977
X32.785 Y-8.682 Z-6.951
X32.768 Y-8.685 Z-6.917
X32.762 Z-6.88
G0 Z5
X32.793 Y-8.923
G1 Z-5 F500
Z-7.88
X32.799 Z-7.917
X32.816 Y-8.921 Z-7.951
X32.842 Y-8.917 Z-7.977
X32.875 Y-8.913 Z-7.994
X32.912 Y-8.908 Z-8
X33.031 Y-8.893
G3 X33.135 Y-8.759 I-0.015 J0.119
X29.35 Y-9 I-1.885 J-0.241 F1000
G1 Y-34
G3 X33.15 I1.9
G1 Y-9
G3 X33.135 Y-8.759 I-1.9
X33 Y-8.655 I-0.119 J-0.015
G1 X32.881 Y-8.67
X32.845 Y-8.675 Z-7.994
X32.811 Y-8.679 Z-7.977
X32.785 Y-8.682 Z-7.951
X32.768 Y-8.685 Z-7.917
X32.762 Z-7.88
G0 Z10

(2D Contour2)
M8
X0.29 Y-41.62
Z10
Z5
G1 Z2 F500
Z-0.88
G18 G2 X0.41 Z-1 I0.12
G1 X0.53
G17 G3 X0.65 Y-41.5 J0.12
G1 Y-1.749 F1000
X-0.674 Y-0.424
G2 X-0.85 Y0 I0.424 J0.424
G1 Y40
G2 X-0.674 Y40.424 I0.6
G1 X0.826 Y41.924
G2 X1.25 Y42.1 I0.424 J-0.424
G1 X41.25
G2 X41.674 Y41.924 J-0.6
G1 X43.174 Y40.424
G2 X43.35 Y40 I-0.424 J-0.424
G1 Y0
G2 X43.174 Y-0.424 I-0.6
G1 X41.85 Y-1.749
Y-41.5
G2 X41.25 Y-42.1 I-0.6
G1 X1.25
G2 X0.65 Y-41.5 J0.6
G3 X0.53 Y-41.38 I-0.12
G1 X0.41
G18 G3 X0.29 Z-0.88 K0.12
G0 Z5
Y-41.62
G1 Z1 F500
Z-1.88
G2 X0.41 Z-2 I0.12
G1 X0.53
G17 G3 X0.65 Y-41.5 J0.12
G1 Y-1.749 F1000
X-0.674 Y-0.424
G2 X-0.85 Y0 I0.424 J0.424
G1 Y40
G2 X-0.674 Y40.424 I0.6
G1 X0.826 Y41.924
G2 X1.25 Y42.1 I0.424 J-0.424
G1 X41.25
G2 X41.674 Y41.924 J-0.6
G1 X43.174 Y40.424
G2 X43.35 Y40 I-0.424 J-0.424
G1 Y0
G2 X43.174 Y-0.424 I-0.6
G1 X41.85 Y-1.749
Y-41.5
G2 X41.25 Y-42.1 I-0.6
G1 X1.25
G2 X0.65 Y-41.5 J0.6
G3 X0.53 Y-41.38 I-0.12
G1 X0.41
G18 G3 X0.29 Z-1.88 K0.12
G0 Z5
Y-41.62
G1 Z0 F500
Z-2.88
G2 X0.41 Z-3 I0.12
G1 X0.53
G17 G3 X0.65 Y-41.5 J0.12
G1 Y-1.749 F1000
X-0.674 Y-0.424
G2 X-0.85 Y0 I0.424 J0.424
G1 Y40
G2 X-0.674 Y40.424 I0.6
G1 X0.826 Y41.924
G2 X1.25 Y42.1 I0.424 J-0.424
G1 X41.25
G2 X41.674 Y41.924 J-0.6
G1 X43.174 Y40.424
G2 X43.35 Y40 I-0.424 J-0.424
G1 Y0
G2 X43.174 Y-0.424 I-0.6
G1 X41.85 Y-1.749
Y-41.5
G2 X41.25 Y-42.1 I-0.6
G1 X1.25
G2 X0.65 Y-41.5 J0.6
G3 X0.53 Y-41.38 I-0.12
G1 X0.41
G18 G3 X0.29 Z-2.88 K0.12
G0 Z5
Y-41.62
G1 Z-1 F500
Z-3.88
G2 X0.41 Z-4 I0.12
G1 X0.53
G17 G3 X0.65 Y-41.5 J0.12
G1 Y-1.749 F1000
X-0.674 Y-0.424
G2 X-0.85 Y0 I0.424 J0.424
G1 Y40
G2 X-0.674 Y40.424 I0.6
G1 X0.826 Y41.924
G2 X1.25 Y42.1 I0.424 J-0.424
G1 X41.25
G2 X41.674 Y41.924 J-0.6
G1 X43.174 Y40.424
G2 X43.35 Y40 I-0.424 J-0.424
G1 Y0
G2 X43.174 Y-0.424 I-0.6
G1 X41.85 Y-1.749
Y-41.5
G2 X41.25 Y-42.1 I-0.6
G1 X1.25
G2 X0.65 Y-41.5 J0.6
G3 X0.53 Y-41.38 I-0.12
G1 X0.41
G18 G3 X0.29 Z-3.88 K0.12
G0 Z5
Y-41.62
G1 Z-2 F500
Z-4.88
G2 X0.41 Z-5 I0.12
G1 X0.53
G17 G3 X0.65 Y-41.5 J0.12
G1 Y-1.749 F1000
X-0.674 Y-0.424
G2 X-0.85 Y0 I0.424 J0.424
G1 Y40
G2 X-0.674 Y40.424 I0.6
G1 X0.826 Y41.924
G2 X1.25 Y42.1 I0.424 J-0.424
G1 X41.25
G2 X41.674 Y41.924 J-0.6
G1 X43.174 Y40.424
G2 X43.35 Y40 I-0.424 J-0.424
G1 Y0
G2 X43.174 Y-0.424 I-0.6
G1 X41.85 Y-1.749
Y-41.5
G2 X41.25 Y-42.1 I-0.6
G1 X1.25
G2 X0.65 Y-41.5 J0.6
G3 X0.53 Y-41.38 I-0.12
G1 X0.41
G18 G3 X0.29 Z-4.88 K0.12
G0 Z5
Y-41.62
G1 Z-3 F500
Z-5.88
G2 X0.41 Z-6 I0.12
G1 X0.53
G17 G3 X0.65 Y-41.5 J0.12
G1 Y-1.749 F1000
X-0.674 Y-0.424
G2 X-0.85 Y0 I0.424 J0.424
G1 Y40
G2 X-0.674 Y40.424 I0.6
G1 X0.826 Y41.924
G2 X1.25 Y42.1 I0.424 J-0.424
G1 X41.25
G2 X41.674 Y41.924 J-0.6
G1 X43.174 Y40.424
G2 X43.35 Y40 I-0.424 J-0.424
G1 Y0
G2 X43.174 Y-0.424 I-0.6
G1 X41.85 Y-1.749
Y-41.5
G2 X41.25 Y-42.1 I-0.6
G1 X1.25
G2 X0.65 Y-41.5 J0.6
G3 X0.53 Y-41.38 I-0.12
G1 X0.41
G18 G3 X0.29 Z-5.88 K0.12
G0 Z5
Y-41.62
G1 Z-4 F500
Z-6.88
G2 X0.41 Z-7 I0.12
G1 X0.53
G17 G3 X0.65 Y-41.5 J0.12
G1 Y-1.749 F1000
X-0.674 Y-0.424
G2 X-0.85 Y0 I0.424 J0.424
G1 Y40
G2 X-0.674 Y40.424 I0.6
G1 X0.826 Y41.924
G2 X1.25 Y42.1 I0.424 J-0.424
G1 X41.25
G2 X41.674 Y41.924 J-0.6
G1 X43.174 Y40.424
G2 X43.35 Y40 I-0.424 J-0.424
G1 Y0
G2 X43.174 Y-0.424 I-0.6
G1 X41.85 Y-1.749
Y-41.5
G2 X41.25 Y-42.1 I-0.6
G1 X1.25
G2 X0.65 Y-41.5 J0.6
G3 X0.53 Y-41.38 I-0.12
G1 X0.41
G18 G3 X0.29 Z-6.88 K0.12
G0 Z5
Y-41.62
G1 Z-5 F500
Z-7.88
G2 X0.41 Z-8 I0.12
G1 X0.53
G17 G3 X0.65 Y-41.5 J0.12
G1 Y-1.749 F1000
X-0.674 Y-0.424
G2 X-0.85 Y0 I0.424 J0.424
G1 Y40
G2 X-0.674 Y40.424 I0.6
G1 X0.826 Y41.924
G2 X1.25 Y42.1 I0.424 J-0.424
G1 X41.25
G2 X41.674 Y41.924 J-0.6
G1 X43.174 Y40.424
G2 X43.35 Y40 I-0.424 J-0.424
G1 Y0
G2 X43.174 Y-0.424 I-0.6
G1 X41.85 Y-1.749
Y-41.5
G2 X41.25 Y-42.1 I-0.6
G1 X1.25
G2 X0.65 Y-41.5 J0.6
G3 X0.53 Y-41.38 I-0.12
G1 X0.41
G18 G3 X0.29 Z-7.88 K0.12
G0 Z5
X-1.79 Y-2.208
G1 Z2 F500
Z-0.88
G3 X-1.91 Z-1 I-0.12
G1 X-2.03
G17 G3 X-2.15 Y-2.328 J-0.12
G1 Y-41.5 F1000
G2 X-2.75 Y-42.1 I-0.6
G1 X-42.75
G2 X-43.35 Y-41.5 J0.6
G1 Y8.5
G2 X-43.174 Y8.924 I0.6
G1 X-33.174 Y18.924
G2 X-32.75 Y19.1 I0.424 J-0.424
G1 X-12.75
G2 X-12.326 Y18.924 J-0.6
G1 X-2.326 Y8.924
G2 X-2.15 Y8.5 I-0.424 J-0.424
G1 Y0
Y-2.328
G3 X-2.03 Y-2.448 I0.12
G1 X-1.91
G18 G2 X-1.79 Z-0.88 K0.12
G0 Z5
Y-2.208
G1 Z1 F500
Z-1.88
G3 X-1.91 Z-2 I-0.12
G1 X-2.03
G17 G3 X-2.15 Y-2.328 J-0.12
G1 Y-41.5 F1000
G2 X-2.75 Y-42.1 I-0.6
G1 X-42.75
G2 X-43.35 Y-41.5 J0.6
G1 Y8.5
G2 X-43.174 Y8.924 I0.6
G1 X-33.174 Y18.924
G2 X-32.75 Y19.1 I0.424 J-0.424
G1 X-12.75
G2 X-12.326 Y18.924 J-0.6
G1 X-2.326 Y8.924
G2 X-2.15 Y8.5 I-0.424 J-0.424
G1 Y0
Y-2.328
G3 X-2.03 Y-2.448 I0.12
G1 X-1.91
G18 G2 X-1.79 Z-1.88 K0.12
G0 Z5
Y-2.208
G1 Z0 F500
Z-2.88
G3 X-1.91 Z-3 I-0.12
G1 X-2.03
G17 G3 X-2.15 Y-2.328 J-0.12
G1 Y-41.5 F1000
G2 X-2.75 Y-42.1 I-0.6
G1 X-42.75
G2 X-43.35 Y-41.5 J0.6
G1 Y8.5
G2 X-43.174 Y8.924 I0.6
G1 X-33.174 Y18.924
G2 X-32.75 Y19.1 I0.424 J-0.424
G1 X-12.75
G2 X-12.326 Y18.924 J-0.6
G1 X-2.326 Y8.924
G2 X-2.15 Y8.5 I-0.424 J-0.424
G1 Y0
Y-2.328
G3 X-2.03 Y-2.448 I0.12
G1 X-1.91
G18 G2 X-1.79 Z-2.88 K0.12
G0 Z5
Y-2.208
G1 Z-1 F500
Z-3.88
G3 X-1.91 Z-4 I-0.12
G1 X-2.03
G17 G3 X-2.15 Y-2.328 J-0.12
G1 Y-41.5 F1000
G2 X-2.75 Y-42.1 I-0.6
G1 X-42.75
G2 X-43.35 Y-41.5 J0.6
G1 Y8.5
G2 X-43.174 Y8.924 I0.6
G1 X-33.174 Y18.924
G2 X-32.75 Y19.1 I0.424 J-0.424
G1 X-12.75
G2 X-12.326 Y18.924 J-0.6
G1 X-2.326 Y8.924
G2 X-2.15 Y8.5 I-0.424 J-0.424
G1 Y0
Y-2.328
G3 X-2.03 Y-2.448 I0.12
G1 X-1.91
G18 G2 X-1.79 Z-3.88 K0.12
G0 Z5
Y-2.208
G1 Z-2 F500
Z-4.88
G3 X-1.91 Z-5 I-0.12
G1 X-2.03
G17 G3 X-2.15 Y-2.328 J-0.12
G1 Y-41.5 F1000
G2 X-2.75 Y-42.1 I-0.6
G1 X-42.75
G2 X-43.35 Y-41.5 J0.6
G1 Y8.5
G2 X-43.174 Y8.924 I0.6
G1 X-33.174 Y18.924
G2 X-32.75 Y19.1 I0.424 J-0.424
G1 X-12.75
G2 X-12.326 Y18.924 J-0.6
G1 X-2.326 Y8.924
G2 X-2.15 Y8.5 I-0.424 J-0.424
G1 Y0
Y-2.328
G3 X-2.03 Y-2.448 I0.12
G1 X-1.91
G18 G2 X-1.79 Z-4.88 K0.12
G0 Z5
Y-2.208
G1 Z-3 F500
Z-5.88
G3 X-1.91 Z-6 I-0.12
G1 X-2.03
G17 G3 X-2.15 Y-2.328 J-0.12
G1 Y-41.5 F1000
G2 X-2.75 Y-42.1 I-0.6
G1 X-42.75
G2 X-43.35 Y-41.5 J0.6
G1 Y8.5
G2 X-43.174 Y8.924 I0.6
G1 X-33.174 Y18.924
G2 X-32.75 Y19.1 I0.424 J-0.424
G1 X-12.75
G2 X-12.326 Y18.924 J-0.6
G1 X-2.326 Y8.924
G2 X-2.15 Y8.5 I-0.424 J-0.424
G1 Y0
Y-2.328
G3 X-2.03 Y-2.448 I0.12
G1 X-1.91
G18 G2 X-1.79 Z-5.88 K0.12
G0 Z5
Y-2.208
G1 Z-4 F500
Z-6.88
G3 X-1.91 Z-7 I-0.12
G1 X-2.03
G17 G3 X-2.15 Y-2.328 J-0.12
G1 Y-41.5 F1000
G2 X-2.75 Y-42.1 I-0.6
G1 X-42.75
G2 X-43.35 Y-41.5 J0.6
G1 Y8.5
G2 X-43.174 Y8.924 I0.6
G1 X-33.174 Y18.924
G2 X-32.75 Y19.1 I0.424 J-0.424
G1 X-12.75
G2 X-12.326 Y18.924 J-0.6
G1 X-2.326 Y8.924
G2 X-2.15 Y8.5 I-0.424 J-0.424
G1 Y0
Y-2.328
G3 X-2.03 Y-2.448 I0.12
G1 X-1.91
G18 G2 X-1.79 Z-6.88 K0.12
G0 Z5
Y-2.208
G1 Z-5 F500
Z-7.88
G3 X-1.91 Z-8 I-0.12
G1 X-2.03
G17 G3 X-2.15 Y-2.328 J-0.12
G1 Y-41.5 F1000
G2 X-2.75 Y-42.1 I-0.6
G1 X-42.75
G2 X-43.35 Y-41.5 J0.6
G1 Y8.5
G2 X-43.174 Y8.924 I0.6
G1 X-33.174 Y18.924
G2 X-32.75 Y19.1 I0.424 J-0.424
G1 X-12.75
G2 X-12.326 Y18.924 J-0.6
G1 X-2.326 Y8.924
G2 X-2.15 Y8.5 I-0.424 J-0.424
G1 Y0
Y-2.328
G3 X-2.03 Y-2.448 I0.12
G1 X-1.91
G18 G2 X-1.79 Z-7.88 K0.12
G0 Z10
G17
M9
G28 G91 Z0
G28 X0 Y0
M30
%
