%
(moving_plate_20)
(T5  D=1.2 CR=0 - ZMIN=-6 - flat end mill)
G90 G94
G17
G21
G28 G91 Z0
G90

(Circular1)
M9
T5 M6
S4775 M3
G54
M8
G0 X21.4 Y20.08
Z10
Z0
G1 Z-1.88 F500
G18 G2 X21.52 Z-2 I0.12
G1 X21.58
G17 G3 X21.7 Y20.2 J0.12
X17.9 I-1.9 F1000
X21.7 I1.9
X21.58 Y20.32 I-0.12
G1 X21.52
G18 G3 X21.4 Z-1.88 K0.12
G0 Z5
Y20.08
Z-1
G1 Z-2.88 F500
G2 X21.52 Z-3 I0.12
G1 X21.58
G17 G3 X21.7 Y20.2 J0.12
X17.9 I-1.9 F1000
X21.7 I1.9
X21.58 Y20.32 I-0.12
G1 X21.52
G18 G3 X21.4 Z-2.88 K0.12
G0 Z5
Y20.08
Z-2
G1 Z-3.88 F500
G2 X21.52 Z-4 I0.12
G1 X21.58
G17 G3 X21.7 Y20.2 J0.12
X17.9 I-1.9 F1000
X21.7 I1.9
X21.58 Y20.32 I-0.12
G1 X21.52
G18 G3 X21.4 Z-3.88 K0.12
G0 Z5
Y20.08
Z-3
G1 Z-4.88 F500
G2 X21.52 Z-5 I0.12
G1 X21.58
G17 G3 X21.7 Y20.2 J0.12
X17.9 I-1.9 F1000
X21.7 I1.9
X21.58 Y20.32 I-0.12
G1 X21.52
G18 G3 X21.4 Z-4.88 K0.12
G0 Z5
Y20.08
Z-4
G1 Z-5.88 F500
G2 X21.52 Z-6 I0.12
G1 X21.58
G17 G3 X21.7 Y20.2 J0.12
X17.9 I-1.9 F1000
X21.7 I1.9
X21.58 Y20.32 I-0.12
G1 X21.52
G18 G3 X21.4 Z-5.88 K0.12
G0 Z5
X-18.6 Y20.08
Z0
G1 Z-1.88 F500
G2 X-18.48 Z-2 I0.12
G1 X-18.42
G17 G3 X-18.3 Y20.2 J0.12
X-22.1 I-1.9 F1000
X-18.3 I1.9
X-18.42 Y20.32 I-0.12
G1 X-18.48
G18 G3 X-18.6 Z-1.88 K0.12
G0 Z5
Y20.08
Z-1
G1 Z-2.88 F500
G2 X-18.48 Z-3 I0.12
G1 X-18.42
G17 G3 X-18.3 Y20.2 J0.12
X-22.1 I-1.9 F1000
X-18.3 I1.9
X-18.42 Y20.32 I-0.12
G1 X-18.48
G18 G3 X-18.6 Z-2.88 K0.12
G0 Z5
Y20.08
Z-2
G1 Z-3.88 F500
G2 X-18.48 Z-4 I0.12
G1 X-18.42
G17 G3 X-18.3 Y20.2 J0.12
X-22.1 I-1.9 F1000
X-18.3 I1.9
X-18.42 Y20.32 I-0.12
G1 X-18.48
G18 G3 X-18.6 Z-3.88 K0.12
G0 Z5
Y20.08
Z-3
G1 Z-4.88 F500
G2 X-18.48 Z-5 I0.12
G1 X-18.42
G17 G3 X-18.3 Y20.2 J0.12
X-22.1 I-1.9 F1000
X-18.3 I1.9
X-18.42 Y20.32 I-0.12
G1 X-18.48
G18 G3 X-18.6 Z-4.88 K0.12
G0 Z5
Y20.08
Z-4
G1 Z-5.88 F500
G2 X-18.48 Z-6 I0.12
G1 X-18.42
G17 G3 X-18.3 Y20.2 J0.12
X-22.1 I-1.9 F1000
X-18.3 I1.9
X-18.42 Y20.32 I-0.12
G1 X-18.48
G18 G3 X-18.6 Z-5.88 K0.12
G0 Z5
Y-20.32
Z0
G1 Z-1.88 F500
G2 X-18.48 Z-2 I0.12
G1 X-18.42
G17 G3 X-18.3 Y-20.2 J0.12
X-22.1 I-1.9 F1000
X-18.3 I1.9
X-18.42 Y-20.08 I-0.12
G1 X-18.48
G18 G3 X-18.6 Z-1.88 K0.12
G0 Z5
Y-20.32
Z-1
G1 Z-2.88 F500
G2 X-18.48 Z-3 I0.12
G1 X-18.42
G17 G3 X-18.3 Y-20.2 J0.12
X-22.1 I-1.9 F1000
X-18.3 I1.9
X-18.42 Y-20.08 I-0.12
G1 X-18.48
G18 G3 X-18.6 Z-2.88 K0.12
G0 Z5
Y-20.32
Z-2
G1 Z-3.88 F500
G2 X-18.48 Z-4 I0.12
G1 X-18.42
G17 G3 X-18.3 Y-20.2 J0.12
X-22.1 I-1.9 F1000
X-18.3 I1.9
X-18.42 Y-20.08 I-0.12
G1 X-18.48
G18 G3 X-18.6 Z-3.88 K0.12
G0 Z5
Y-20.32
Z-3
G1 Z-4.88 F500
G2 X-18.48 Z-5 I0.12
G1 X-18.42
G17 G3 X-18.3 Y-20.2 J0.12
X-22.1 I-1.9 F1000
X-18.3 I1.9
X-18.42 Y-20.08 I-0.12
G1 X-18.48
G18 G3 X-18.6 Z-4.88 K0.12
G0 Z5
Y-20.32
Z-4
G1 Z-5.88 F500
G2 X-18.48 Z-6 I0.12
G1 X-18.42
G17 G3 X-18.3 Y-20.2 J0.12
X-22.1 I-1.9 F1000
X-18.3 I1.9
X-18.42 Y-20.08 I-0.12
G1 X-18.48
G18 G3 X-18.6 Z-5.88 K0.12
G0 Z5
X21.4 Y-20.32
Z0
G1 Z-1.88 F500
G2 X21.52 Z-2 I0.12
G1 X21.58
G17 G3 X21.7 Y-20.2 J0.12
X17.9 I-1.9 F1000
X21.7 I1.9
X21.58 Y-20.08 I-0.12
G1 X21.52
G18 G3 X21.4 Z-1.88 K0.12
G0 Z5
Y-20.32
Z-1
G1 Z-2.88 F500
G2 X21.52 Z-3 I0.12
G1 X21.58
G17 G3 X21.7 Y-20.2 J0.12
X17.9 I-1.9 F1000
X21.7 I1.9
X21.58 Y-20.08 I-0.12
G1 X21.52
G18 G3 X21.4 Z-2.88 K0.12
G0 Z5
Y-20.32
Z-2
G1 Z-3.88 F500
G2 X21.52 Z-4 I0.12
G1 X21.58
G17 G3 X21.7 Y-20.2 J0.12
X17.9 I-1.9 F1000
X21.7 I1.9
X21.58 Y-20.08 I-0.12
G1 X21.52
G18 G3 X21.4 Z-3.88 K0.12
G0 Z5
Y-20.32
Z-3
G1 Z-4.88 F500
G2 X21.52 Z-5 I0.12
G1 X21.58
G17 G3 X21.7 Y-20.2 J0.12
X17.9 I-1.9 F1000
X21.7 I1.9
X21.58 Y-20.08 I-0.12
G1 X21.52
G18 G3 X21.4 Z-4.88 K0.12
G0 Z5
Y-20.32
Z-4
G1 Z-5.88 F500
G2 X21.52 Z-6 I0.12
G1 X21.58
G17 G3 X21.7 Y-20.2 J0.12
X17.9 I-1.9 F1000
X21.7 I1.9
X21.58 Y-20.08 I-0.12
G1 X21.52
G18 G3 X21.4 Z-5.88 K0.12
G0 Z10
G17

(2D Contour1)
M8
G0 Z15
X-0.12 Y33.16
Z5
G1 Z2 F500
Z-0.88
G19 G2 Y33.04 Z-1 J-0.12
G1 Y32.92
G17 G3 X0 Y32.8 I0.12
G1 X32.2 F1000
G2 X32.8 Y32.2 J-0.6
G1 Y-32.2
G2 X32.2 Y-32.8 I-0.6
G1 X-32.2
G2 X-32.8 Y-32.2 J0.6
G1 Y32.2
G2 X-32.2 Y32.8 I0.6
G1 X0
G3 X0.12 Y32.92 J0.12
G1 Y33.04
G19 G3 Y33.16 Z-0.88 K0.12
G0 Z5
X-0.12
G1 Z1 F500
Z-1.88
G2 Y33.04 Z-2 J-0.12
G1 Y32.92
G17 G3 X0 Y32.8 I0.12
G1 X32.2 F1000
G2 X32.8 Y32.2 J-0.6
G1 Y-32.2
G2 X32.2 Y-32.8 I-0.6
G1 X-32.2
G2 X-32.8 Y-32.2 J0.6
G1 Y32.2
G2 X-32.2 Y32.8 I0.6
G1 X0
G3 X0.12 Y32.92 J0.12
G1 Y33.04
G19 G3 Y33.16 Z-1.88 K0.12
G0 Z5
X-0.12
G1 Z0 F500
Z-2.88
G2 Y33.04 Z-3 J-0.12
G1 Y32.92
G17 G3 X0 Y32.8 I0.12
G1 X32.2 F1000
G2 X32.8 Y32.2 J-0.6
G1 Y-32.2
G2 X32.2 Y-32.8 I-0.6
G1 X-32.2
G2 X-32.8 Y-32.2 J0.6
G1 Y32.2
G2 X-32.2 Y32.8 I0.6
G1 X0
G3 X0.12 Y32.92 J0.12
G1 Y33.04
G19 G3 Y33.16 Z-2.88 K0.12
G0 Z5
X-0.12
G1 Z-1 F500
Z-3.88
G2 Y33.04 Z-4 J-0.12
G1 Y32.92
G17 G3 X0 Y32.8 I0.12
G1 X32.2 F1000
G2 X32.8 Y32.2 J-0.6
G1 Y-32.2
G2 X32.2 Y-32.8 I-0.6
G1 X-32.2
G2 X-32.8 Y-32.2 J0.6
G1 Y32.2
G2 X-32.2 Y32.8 I0.6
G1 X0
G3 X0.12 Y32.92 J0.12
G1 Y33.04
G19 G3 Y33.16 Z-3.88 K0.12
G0 Z5
X-0.12
G1 Z-2 F500
Z-4.88
G2 Y33.04 Z-5 J-0.12
G1 Y32.92
G17 G3 X0 Y32.8 I0.12
G1 X32.2 F1000
G2 X32.8 Y32.2 J-0.6
G1 Y-32.2
G2 X32.2 Y-32.8 I-0.6
G1 X-32.2
G2 X-32.8 Y-32.2 J0.6
G1 Y32.2
G2 X-32.2 Y32.8 I0.6
G1 X0
G3 X0.12 Y32.92 J0.12
G1 Y33.04
G19 G3 Y33.16 Z-4.88 K0.12
G0 Z5
X-0.12
G1 Z-3 F500
Z-5.88
G2 Y33.04 Z-6 J-0.12
G1 Y32.92
G17 G3 X0 Y32.8 I0.12
G1 X32.2 F1000
G2 X32.8 Y32.2 J-0.6
G1 Y-32.2
G2 X32.2 Y-32.8 I-0.6
G1 X-32.2
G2 X-32.8 Y-32.2 J0.6
G1 Y32.2
G2 X-32.2 Y32.8 I0.6
G1 X0
G3 X0.12 Y32.92 J0.12
G1 Y33.04
G19 G3 Y33.16 Z-5.88 K0.12
G0 Z15
G17
M9
G28 G91 Z0
G28 X0 Y0
M30
%
