%
(moving_plate_40)
(T5  D=1.2 CR=0 - ZMIN=-6 - flat end mill)
G90 G94
G17
G21
G28 G91 Z0
G90

(Circular1)
M9
T5 M6
S4775 M3
G54
M8
G0 X-23.4 Y-30.32
Z10
Z0
G1 Z-1.88 F500
G18 G2 X-23.28 Z-2 I0.12
G1 X-23.22
G17 G3 X-23.1 Y-30.2 J0.12
X-26.9 I-1.9 F1000
X-23.1 I1.9
X-23.22 Y-30.08 I-0.12
G1 X-23.28
G18 G3 X-23.4 Z-1.88 K0.12
G0 Z5
Y-30.32
Z-1
G1 Z-2.88 F500
G2 X-23.28 Z-3 I0.12
G1 X-23.22
G17 G3 X-23.1 Y-30.2 J0.12
X-26.9 I-1.9 F1000
X-23.1 I1.9
X-23.22 Y-30.08 I-0.12
G1 X-23.28
G18 G3 X-23.4 Z-2.88 K0.12
G0 Z5
Y-30.32
Z-2
G1 Z-3.88 F500
G2 X-23.28 Z-4 I0.12
G1 X-23.22
G17 G3 X-23.1 Y-30.2 J0.12
X-26.9 I-1.9 F1000
X-23.1 I1.9
X-23.22 Y-30.08 I-0.12
G1 X-23.28
G18 G3 X-23.4 Z-3.88 K0.12
G0 Z5
Y-30.32
Z-3
G1 Z-4.88 F500
G2 X-23.28 Z-5 I0.12
G1 X-23.22
G17 G3 X-23.1 Y-30.2 J0.12
X-26.9 I-1.9 F1000
X-23.1 I1.9
X-23.22 Y-30.08 I-0.12
G1 X-23.28
G18 G3 X-23.4 Z-4.88 K0.12
G0 Z5
Y-30.32
Z-4
G1 Z-5.88 F500
G2 X-23.28 Z-6 I0.12
G1 X-23.22
G17 G3 X-23.1 Y-30.2 J0.12
X-26.9 I-1.9 F1000
X-23.1 I1.9
X-23.22 Y-30.08 I-0.12
G1 X-23.28
G18 G3 X-23.4 Z-5.88 K0.12
G0 Z5
X26.6 Y-30.32
Z0
G1 Z-1.88 F500
G2 X26.72 Z-2 I0.12
G1 X26.78
G17 G3 X26.9 Y-30.2 J0.12
X23.1 I-1.9 F1000
X26.9 I1.9
X26.78 Y-30.08 I-0.12
G1 X26.72
G18 G3 X26.6 Z-1.88 K0.12
G0 Z5
Y-30.32
Z-1
G1 Z-2.88 F500
G2 X26.72 Z-3 I0.12
G1 X26.78
G17 G3 X26.9 Y-30.2 J0.12
X23.1 I-1.9 F1000
X26.9 I1.9
X26.78 Y-30.08 I-0.12
G1 X26.72
G18 G3 X26.6 Z-2.88 K0.12
G0 Z5
Y-30.32
Z-2
G1 Z-3.88 F500
G2 X26.72 Z-4 I0.12
G1 X26.78
G17 G3 X26.9 Y-30.2 J0.12
X23.1 I-1.9 F1000
X26.9 I1.9
X26.78 Y-30.08 I-0.12
G1 X26.72
G18 G3 X26.6 Z-3.88 K0.12
G0 Z5
Y-30.32
Z-3
G1 Z-4.88 F500
G2 X26.72 Z-5 I0.12
G1 X26.78
G17 G3 X26.9 Y-30.2 J0.12
X23.1 I-1.9 F1000
X26.9 I1.9
X26.78 Y-30.08 I-0.12
G1 X26.72
G18 G3 X26.6 Z-4.88 K0.12
G0 Z5
Y-30.32
Z-4
G1 Z-5.88 F500
G2 X26.72 Z-6 I0.12
G1 X26.78
G17 G3 X26.9 Y-30.2 J0.12
X23.1 I-1.9 F1000
X26.9 I1.9
X26.78 Y-30.08 I-0.12
G1 X26.72
G18 G3 X26.6 Z-5.88 K0.12
G0 Z5
Y27.936
Z0
G1 Z-1.88 F500
G2 X26.72 Z-2 I0.12
G1 X26.78
G17 G3 X26.9 Y28.056 J0.12
X23.1 I-1.9 F1000
X26.9 I1.9
X26.78 Y28.176 I-0.12
G1 X26.72
G18 G3 X26.6 Z-1.88 K0.12
G0 Z5
Y27.936
Z-1
G1 Z-2.88 F500
G2 X26.72 Z-3 I0.12
G1 X26.78
G17 G3 X26.9 Y28.056 J0.12
X23.1 I-1.9 F1000
X26.9 I1.9
X26.78 Y28.176 I-0.12
G1 X26.72
G18 G3 X26.6 Z-2.88 K0.12
G0 Z5
Y27.936
Z-2
G1 Z-3.88 F500
G2 X26.72 Z-4 I0.12
G1 X26.78
G17 G3 X26.9 Y28.056 J0.12
X23.1 I-1.9 F1000
X26.9 I1.9
X26.78 Y28.176 I-0.12
G1 X26.72
G18 G3 X26.6 Z-3.88 K0.12
G0 Z5
Y27.936
Z-3
G1 Z-4.88 F500
G2 X26.72 Z-5 I0.12
G1 X26.78
G17 G3 X26.9 Y28.056 J0.12
X23.1 I-1.9 F1000
X26.9 I1.9
X26.78 Y28.176 I-0.12
G1 X26.72
G18 G3 X26.6 Z-4.88 K0.12
G0 Z5
Y27.936
Z-4
G1 Z-5.88 F500
G2 X26.72 Z-6 I0.12
G1 X26.78
G17 G3 X26.9 Y28.056 J0.12
X23.1 I-1.9 F1000
X26.9 I1.9
X26.78 Y28.176 I-0.12
G1 X26.72
G18 G3 X26.6 Z-5.88 K0.12
G0 Z5
X-23.4 Y30.08
Z0
G1 Z-1.88 F500
G2 X-23.28 Z-2 I0.12
G1 X-23.22
G17 G3 X-23.1 Y30.2 J0.12
X-26.9 I-1.9 F1000
X-23.1 I1.9
X-23.22 Y30.32 I-0.12
G1 X-23.28
G18 G3 X-23.4 Z-1.88 K0.12
G0 Z5
Y30.08
Z-1
G1 Z-2.88 F500
G2 X-23.28 Z-3 I0.12
G1 X-23.22
G17 G3 X-23.1 Y30.2 J0.12
X-26.9 I-1.9 F1000
X-23.1 I1.9
X-23.22 Y30.32 I-0.12
G1 X-23.28
G18 G3 X-23.4 Z-2.88 K0.12
G0 Z5
Y30.08
Z-2
G1 Z-3.88 F500
G2 X-23.28 Z-4 I0.12
G1 X-23.22
G17 G3 X-23.1 Y30.2 J0.12
X-26.9 I-1.9 F1000
X-23.1 I1.9
X-23.22 Y30.32 I-0.12
G1 X-23.28
G18 G3 X-23.4 Z-3.88 K0.12
G0 Z5
Y30.08
Z-3
G1 Z-4.88 F500
G2 X-23.28 Z-5 I0.12
G1 X-23.22
G17 G3 X-23.1 Y30.2 J0.12
X-26.9 I-1.9 F1000
X-23.1 I1.9
X-23.22 Y30.32 I-0.12
G1 X-23.28
G18 G3 X-23.4 Z-4.88 K0.12
G0 Z5
Y30.08
Z-4
G1 Z-5.88 F500
G2 X-23.28 Z-6 I0.12
G1 X-23.22
G17 G3 X-23.1 Y30.2 J0.12
X-26.9 I-1.9 F1000
X-23.1 I1.9
X-23.22 Y30.32 I-0.12
G1 X-23.28
G18 G3 X-23.4 Z-5.88 K0.12
G0 Z10
G17

(2D Contour1)
M8
G0 X-0.12 Y43.16
Z10
Z5
G1 Z2 F500
Z-0.88
G19 G2 Y43.04 Z-1 J-0.12
G1 Y42.92
G17 G3 X0 Y42.8 I0.12
G1 X37 F1000
G2 X37.6 Y42.2 J-0.6
G1 Y-42.2
G2 X37 Y-42.8 I-0.6
G1 X-37
G2 X-37.6 Y-42.2 J0.6
G1 Y42.2
G2 X-37 Y42.8 I0.6
G1 X0
G3 X0.12 Y42.92 J0.12
G1 Y43.04
G19 G3 Y43.16 Z-0.88 K0.12
G0 Z5
X-0.12
G1 Z1 F500
Z-1.88
G2 Y43.04 Z-2 J-0.12
G1 Y42.92
G17 G3 X0 Y42.8 I0.12
G1 X37 F1000
G2 X37.6 Y42.2 J-0.6
G1 Y-42.2
G2 X37 Y-42.8 I-0.6
G1 X-37
G2 X-37.6 Y-42.2 J0.6
G1 Y42.2
G2 X-37 Y42.8 I0.6
G1 X0
G3 X0.12 Y42.92 J0.12
G1 Y43.04
G19 G3 Y43.16 Z-1.88 K0.12
G0 Z5
X-0.12
G1 Z0 F500
Z-2.88
G2 Y43.04 Z-3 J-0.12
G1 Y42.92
G17 G3 X0 Y42.8 I0.12
G1 X37 F1000
G2 X37.6 Y42.2 J-0.6
G1 Y-42.2
G2 X37 Y-42.8 I-0.6
G1 X-37
G2 X-37.6 Y-42.2 J0.6
G1 Y42.2
G2 X-37 Y42.8 I0.6
G1 X0
G3 X0.12 Y42.92 J0.12
G1 Y43.04
G19 G3 Y43.16 Z-2.88 K0.12
G0 Z5
X-0.12
G1 Z-1 F500
Z-3.88
G2 Y43.04 Z-4 J-0.12
G1 Y42.92
G17 G3 X0 Y42.8 I0.12
G1 X37 F1000
G2 X37.6 Y42.2 J-0.6
G1 Y-42.2
G2 X37 Y-42.8 I-0.6
G1 X-37
G2 X-37.6 Y-42.2 J0.6
G1 Y42.2
G2 X-37 Y42.8 I0.6
G1 X0
G3 X0.12 Y42.92 J0.12
G1 Y43.04
G19 G3 Y43.16 Z-3.88 K0.12
G0 Z5
X-0.12
G1 Z-2 F500
Z-4.88
G2 Y43.04 Z-5 J-0.12
G1 Y42.92
G17 G3 X0 Y42.8 I0.12
G1 X37 F1000
G2 X37.6 Y42.2 J-0.6
G1 Y-42.2
G2 X37 Y-42.8 I-0.6
G1 X-37
G2 X-37.6 Y-42.2 J0.6
G1 Y42.2
G2 X-37 Y42.8 I0.6
G1 X0
G3 X0.12 Y42.92 J0.12
G1 Y43.04
G19 G3 Y43.16 Z-4.88 K0.12
G0 Z5
X-0.12
G1 Z-3 F500
Z-5.88
G2 Y43.04 Z-6 J-0.12
G1 Y42.92
G17 G3 X0 Y42.8 I0.12
G1 X37 F1000
G2 X37.6 Y42.2 J-0.6
G1 Y-42.2
G2 X37 Y-42.8 I-0.6
G1 X-37
G2 X-37.6 Y-42.2 J0.6
G1 Y42.2
G2 X-37 Y42.8 I0.6
G1 X0
G3 X0.12 Y42.92 J0.12
G1 Y43.04
G19 G3 Y43.16 Z-5.88 K0.12
G0 Z10
G17
M9
G28 G91 Z0
G28 X0 Y0
M30
%
