%
(plates)
(T5  D=3 CR=0 - ZMIN=-9 - flat end mill)
G90 G94
G17
G21
G28 G91 Z0
G90

(Circular4)
M9
T5 M6
S4775 M3
G54
M8
G0 X-60.25 Y-49.2
Z10
Z0
G1 Z-1.7 F500
G18 G3 X-60.55 Z-2 I-0.3
G1 X-60.7
G17 G3 X-61 Y-49.5 J-0.3
X-59 I1 F1000
X-61 I-1
X-60.7 Y-49.8 I0.3
G1 X-60.55
G18 G2 X-60.25 Z-1.7 K0.3
G0 Z5
Y-49.2
Z-1
G1 Z-2.7 F500
G3 X-60.55 Z-3 I-0.3
G1 X-60.7
G17 G3 X-61 Y-49.5 J-0.3
X-59 I1 F1000
X-61 I-1
X-60.7 Y-49.8 I0.3
G1 X-60.55
G18 G2 X-60.25 Z-2.7 K0.3
G0 Z5
Y-49.2
Z-2
G1 Z-3.7 F500
G3 X-60.55 Z-4 I-0.3
G1 X-60.7
G17 G3 X-61 Y-49.5 J-0.3
X-59 I1 F1000
X-61 I-1
X-60.7 Y-49.8 I0.3
G1 X-60.55
G18 G2 X-60.25 Z-3.7 K0.3
G0 Z5
Y-49.2
Z-3
G1 Z-4.7 F500
G3 X-60.55 Z-5 I-0.3
G1 X-60.7
G17 G3 X-61 Y-49.5 J-0.3
X-59 I1 F1000
X-61 I-1
X-60.7 Y-49.8 I0.3
G1 X-60.55
G18 G2 X-60.25 Z-4.7 K0.3
G0 Z5
Y-49.2
Z-4
G1 Z-5.7 F500
G3 X-60.55 Z-6 I-0.3
G1 X-60.7
G17 G3 X-61 Y-49.5 J-0.3
X-59 I1 F1000
X-61 I-1
X-60.7 Y-49.8 I0.3
G1 X-60.55
G18 G2 X-60.25 Z-5.7 K0.3
G0 Z5
Y-49.2
Z-5
G1 Z-6.7 F500
G3 X-60.55 Z-7 I-0.3
G1 X-60.7
G17 G3 X-61 Y-49.5 J-0.3
X-59 I1 F1000
X-61 I-1
X-60.7 Y-49.8 I0.3
G1 X-60.55
G18 G2 X-60.25 Z-6.7 K0.3
G0 Z5
Y-49.2
Z-6
G1 Z-7.7 F500
G3 X-60.55 Z-8 I-0.3
G1 X-60.7
G17 G3 X-61 Y-49.5 J-0.3
X-59 I1 F1000
X-61 I-1
X-60.7 Y-49.8 I0.3
G1 X-60.55
G18 G2 X-60.25 Z-7.7 K0.3
G0 Z5
Y-49.2
Z-7
G1 Z-8.7 F500
G3 X-60.55 Z-9 I-0.3
G1 X-60.7
G17 G3 X-61 Y-49.5 J-0.3
X-59 I1 F1000
X-61 I-1
X-60.7 Y-49.8 I0.3
G1 X-60.55
G18 G2 X-60.25 Z-8.7 K0.3
G0 Z5
X-80.25 Y-49.2
Z0
G1 Z-1.7 F500
G3 X-80.55 Z-2 I-0.3
G1 X-80.7
G17 G3 X-81 Y-49.5 J-0.3
X-79 I1 F1000
X-81 I-1
X-80.7 Y-49.8 I0.3
G1 X-80.55
G18 G2 X-80.25 Z-1.7 K0.3
G0 Z5
Y-49.2
Z-1
G1 Z-2.7 F500
G3 X-80.55 Z-3 I-0.3
G1 X-80.7
G17 G3 X-81 Y-49.5 J-0.3
X-79 I1 F1000
X-81 I-1
X-80.7 Y-49.8 I0.3
G1 X-80.55
G18 G2 X-80.25 Z-2.7 K0.3
G0 Z5
Y-49.2
Z-2
G1 Z-3.7 F500
G3 X-80.55 Z-4 I-0.3
G1 X-80.7
G17 G3 X-81 Y-49.5 J-0.3
X-79 I1 F1000
X-81 I-1
X-80.7 Y-49.8 I0.3
G1 X-80.55
G18 G2 X-80.25 Z-3.7 K0.3
G0 Z5
Y-49.2
Z-3
G1 Z-4.7 F500
G3 X-80.55 Z-5 I-0.3
G1 X-80.7
G17 G3 X-81 Y-49.5 J-0.3
X-79 I1 F1000
X-81 I-1
X-80.7 Y-49.8 I0.3
G1 X-80.55
G18 G2 X-80.25 Z-4.7 K0.3
G0 Z5
Y-49.2
Z-4
G1 Z-5.7 F500
G3 X-80.55 Z-6 I-0.3
G1 X-80.7
G17 G3 X-81 Y-49.5 J-0.3
X-79 I1 F1000
X-81 I-1
X-80.7 Y-49.8 I0.3
G1 X-80.55
G18 G2 X-80.25 Z-5.7 K0.3
G0 Z5
Y-49.2
Z-5
G1 Z-6.7 F500
G3 X-80.55 Z-7 I-0.3
G1 X-80.7
G17 G3 X-81 Y-49.5 J-0.3
X-79 I1 F1000
X-81 I-1
X-80.7 Y-49.8 I0.3
G1 X-80.55
G18 G2 X-80.25 Z-6.7 K0.3
G0 Z5
Y-49.2
Z-6
G1 Z-7.7 F500
G3 X-80.55 Z-8 I-0.3
G1 X-80.7
G17 G3 X-81 Y-49.5 J-0.3
X-79 I1 F1000
X-81 I-1
X-80.7 Y-49.8 I0.3
G1 X-80.55
G18 G2 X-80.25 Z-7.7 K0.3
G0 Z5
Y-49.2
Z-7
G1 Z-8.7 F500
G3 X-80.55 Z-9 I-0.3
G1 X-80.7
G17 G3 X-81 Y-49.5 J-0.3
X-79 I1 F1000
X-81 I-1
X-80.7 Y-49.8 I0.3
G1 X-80.55
G18 G2 X-80.25 Z-8.7 K0.3
G0 Z5
X-75.25 Y-29.9
Z0
G1 Z-1.7 F500
G3 X-75.55 Z-2 I-0.3
G1 X-75.7
G17 G3 X-76 Y-30.2 J-0.3
X-74 I1 F1000
X-76 I-1
X-75.7 Y-30.5 I0.3
G1 X-75.55
G18 G2 X-75.25 Z-1.7 K0.3
G0 Z5
Y-29.9
Z-1
G1 Z-2.7 F500
G3 X-75.55 Z-3 I-0.3
G1 X-75.7
G17 G3 X-76 Y-30.2 J-0.3
X-74 I1 F1000
X-76 I-1
X-75.7 Y-30.5 I0.3
G1 X-75.55
G18 G2 X-75.25 Z-2.7 K0.3
G0 Z5
Y-29.9
Z-2
G1 Z-3.7 F500
G3 X-75.55 Z-4 I-0.3
G1 X-75.7
G17 G3 X-76 Y-30.2 J-0.3
X-74 I1 F1000
X-76 I-1
X-75.7 Y-30.5 I0.3
G1 X-75.55
G18 G2 X-75.25 Z-3.7 K0.3
G0 Z5
Y-29.9
Z-3
G1 Z-4.7 F500
G3 X-75.55 Z-5 I-0.3
G1 X-75.7
G17 G3 X-76 Y-30.2 J-0.3
X-74 I1 F1000
X-76 I-1
X-75.7 Y-30.5 I0.3
G1 X-75.55
G18 G2 X-75.25 Z-4.7 K0.3
G0 Z5
Y-29.9
Z-4
G1 Z-5.7 F500
G3 X-75.55 Z-6 I-0.3
G1 X-75.7
G17 G3 X-76 Y-30.2 J-0.3
X-74 I1 F1000
X-76 I-1
X-75.7 Y-30.5 I0.3
G1 X-75.55
G18 G2 X-75.25 Z-5.7 K0.3
G0 Z5
Y-29.9
Z-5
G1 Z-6.7 F500
G3 X-75.55 Z-7 I-0.3
G1 X-75.7
G17 G3 X-76 Y-30.2 J-0.3
X-74 I1 F1000
X-76 I-1
X-75.7 Y-30.5 I0.3
G1 X-75.55
G18 G2 X-75.25 Z-6.7 K0.3
G0 Z5
Y-29.9
Z-6
G1 Z-7.7 F500
G3 X-75.55 Z-8 I-0.3
G1 X-75.7
G17 G3 X-76 Y-30.2 J-0.3
X-74 I1 F1000
X-76 I-1
X-75.7 Y-30.5 I0.3
G1 X-75.55
G18 G2 X-75.25 Z-7.7 K0.3
G0 Z5
Y-29.9
Z-7
G1 Z-8.7 F500
G3 X-75.55 Z-9 I-0.3
G1 X-75.7
G17 G3 X-76 Y-30.2 J-0.3
X-74 I1 F1000
X-76 I-1
X-75.7 Y-30.5 I0.3
G1 X-75.55
G18 G2 X-75.25 Z-8.7 K0.3
G0 Z5
Y30.5
Z0
G1 Z-1.7 F500
G3 X-75.55 Z-2 I-0.3
G1 X-75.7
G17 G3 X-76 Y30.2 J-0.3
X-74 I1 F1000
X-76 I-1
X-75.7 Y29.9 I0.3
G1 X-75.55
G18 G2 X-75.25 Z-1.7 K0.3
G0 Z5
Y30.5
Z-1
G1 Z-2.7 F500
G3 X-75.55 Z-3 I-0.3
G1 X-75.7
G17 G3 X-76 Y30.2 J-0.3
X-74 I1 F1000
X-76 I-1
X-75.7 Y29.9 I0.3
G1 X-75.55
G18 G2 X-75.25 Z-2.7 K0.3
G0 Z5
Y30.5
Z-2
G1 Z-3.7 F500
G3 X-75.55 Z-4 I-0.3
G1 X-75.7
G17 G3 X-76 Y30.2 J-0.3
X-74 I1 F1000
X-76 I-1
X-75.7 Y29.9 I0.3
G1 X-75.55
G18 G2 X-75.25 Z-3.7 K0.3
G0 Z5
Y30.5
Z-3
G1 Z-4.7 F500
G3 X-75.55 Z-5 I-0.3
G1 X-75.7
G17 G3 X-76 Y30.2 J-0.3
X-74 I1 F1000
X-76 I-1
X-75.7 Y29.9 I0.3
G1 X-75.55
G18 G2 X-75.25 Z-4.7 K0.3
G0 Z5
Y30.5
Z-4
G1 Z-5.7 F500
G3 X-75.55 Z-6 I-0.3
G1 X-75.7
G17 G3 X-76 Y30.2 J-0.3
X-74 I1 F1000
X-76 I-1
X-75.7 Y29.9 I0.3
G1 X-75.55
G18 G2 X-75.25 Z-5.7 K0.3
G0 Z5
Y30.5
Z-5
G1 Z-6.7 F500
G3 X-75.55 Z-7 I-0.3
G1 X-75.7
G17 G3 X-76 Y30.2 J-0.3
X-74 I1 F1000
X-76 I-1
X-75.7 Y29.9 I0.3
G1 X-75.55
G18 G2 X-75.25 Z-6.7 K0.3
G0 Z5
Y30.5
Z-6
G1 Z-7.7 F500
G3 X-75.55 Z-8 I-0.3
G1 X-75.7
G17 G3 X-76 Y30.2 J-0.3
X-74 I1 F1000
X-76 I-1
X-75.7 Y29.9 I0.3
G1 X-75.55
G18 G2 X-75.25 Z-7.7 K0.3
G0 Z5
Y30.5
Z-7
G1 Z-8.7 F500
G3 X-75.55 Z-9 I-0.3
G1 X-75.7
G17 G3 X-76 Y30.2 J-0.3
X-74 I1 F1000
X-76 I-1
X-75.7 Y29.9 I0.3
G1 X-75.55
G18 G2 X-75.25 Z-8.7 K0.3
G0 Z5
X-80.25 Y49.8
Z0
G1 Z-1.7 F500
G3 X-80.55 Z-2 I-0.3
G1 X-80.7
G17 G3 X-81 Y49.5 J-0.3
X-79 I1 F1000
X-81 I-1
X-80.7 Y49.2 I0.3
G1 X-80.55
G18 G2 X-80.25 Z-1.7 K0.3
G0 Z5
Y49.8
Z-1
G1 Z-2.7 F500
G3 X-80.55 Z-3 I-0.3
G1 X-80.7
G17 G3 X-81 Y49.5 J-0.3
X-79 I1 F1000
X-81 I-1
X-80.7 Y49.2 I0.3
G1 X-80.55
G18 G2 X-80.25 Z-2.7 K0.3
G0 Z5
Y49.8
Z-2
G1 Z-3.7 F500
G3 X-80.55 Z-4 I-0.3
G1 X-80.7
G17 G3 X-81 Y49.5 J-0.3
X-79 I1 F1000
X-81 I-1
X-80.7 Y49.2 I0.3
G1 X-80.55
G18 G2 X-80.25 Z-3.7 K0.3
G0 Z5
Y49.8
Z-3
G1 Z-4.7 F500
G3 X-80.55 Z-5 I-0.3
G1 X-80.7
G17 G3 X-81 Y49.5 J-0.3
X-79 I1 F1000
X-81 I-1
X-80.7 Y49.2 I0.3
G1 X-80.55
G18 G2 X-80.25 Z-4.7 K0.3
G0 Z5
Y49.8
Z-4
G1 Z-5.7 F500
G3 X-80.55 Z-6 I-0.3
G1 X-80.7
G17 G3 X-81 Y49.5 J-0.3
X-79 I1 F1000
X-81 I-1
X-80.7 Y49.2 I0.3
G1 X-80.55
G18 G2 X-80.25 Z-5.7 K0.3
G0 Z5
Y49.8
Z-5
G1 Z-6.7 F500
G3 X-80.55 Z-7 I-0.3
G1 X-80.7
G17 G3 X-81 Y49.5 J-0.3
X-79 I1 F1000
X-81 I-1
X-80.7 Y49.2 I0.3
G1 X-80.55
G18 G2 X-80.25 Z-6.7 K0.3
G0 Z5
Y49.8
Z-6
G1 Z-7.7 F500
G3 X-80.55 Z-8 I-0.3
G1 X-80.7
G17 G3 X-81 Y49.5 J-0.3
X-79 I1 F1000
X-81 I-1
X-80.7 Y49.2 I0.3
G1 X-80.55
G18 G2 X-80.25 Z-7.7 K0.3
G0 Z5
Y49.8
Z-7
G1 Z-8.7 F500
G3 X-80.55 Z-9 I-0.3
G1 X-80.7
G17 G3 X-81 Y49.5 J-0.3
X-79 I1 F1000
X-81 I-1
X-80.7 Y49.2 I0.3
G1 X-80.55
G18 G2 X-80.25 Z-8.7 K0.3
G0 Z5
X-60.25 Y49.8
Z0
G1 Z-1.7 F500
G3 X-60.55 Z-2 I-0.3
G1 X-60.7
G17 G3 X-61 Y49.5 J-0.3
X-59 I1 F1000
X-61 I-1
X-60.7 Y49.2 I0.3
G1 X-60.55
G18 G2 X-60.25 Z-1.7 K0.3
G0 Z5
Y49.8
Z-1
G1 Z-2.7 F500
G3 X-60.55 Z-3 I-0.3
G1 X-60.7
G17 G3 X-61 Y49.5 J-0.3
X-59 I1 F1000
X-61 I-1
X-60.7 Y49.2 I0.3
G1 X-60.55
G18 G2 X-60.25 Z-2.7 K0.3
G0 Z5
Y49.8
Z-2
G1 Z-3.7 F500
G3 X-60.55 Z-4 I-0.3
G1 X-60.7
G17 G3 X-61 Y49.5 J-0.3
X-59 I1 F1000
X-61 I-1
X-60.7 Y49.2 I0.3
G1 X-60.55
G18 G2 X-60.25 Z-3.7 K0.3
G0 Z5
Y49.8
Z-3
G1 Z-4.7 F500
G3 X-60.55 Z-5 I-0.3
G1 X-60.7
G17 G3 X-61 Y49.5 J-0.3
X-59 I1 F1000
X-61 I-1
X-60.7 Y49.2 I0.3
G1 X-60.55
G18 G2 X-60.25 Z-4.7 K0.3
G0 Z5
Y49.8
Z-4
G1 Z-5.7 F500
G3 X-60.55 Z-6 I-0.3
G1 X-60.7
G17 G3 X-61 Y49.5 J-0.3
X-59 I1 F1000
X-61 I-1
X-60.7 Y49.2 I0.3
G1 X-60.55
G18 G2 X-60.25 Z-5.7 K0.3
G0 Z5
Y49.8
Z-5
G1 Z-6.7 F500
G3 X-60.55 Z-7 I-0.3
G1 X-60.7
G17 G3 X-61 Y49.5 J-0.3
X-59 I1 F1000
X-61 I-1
X-60.7 Y49.2 I0.3
G1 X-60.55
G18 G2 X-60.25 Z-6.7 K0.3
G0 Z5
Y49.8
Z-6
G1 Z-7.7 F500
G3 X-60.55 Z-8 I-0.3
G1 X-60.7
G17 G3 X-61 Y49.5 J-0.3
X-59 I1 F1000
X-61 I-1
X-60.7 Y49.2 I0.3
G1 X-60.55
G18 G2 X-60.25 Z-7.7 K0.3
G0 Z5
Y49.8
Z-7
G1 Z-8.7 F500
G3 X-60.55 Z-9 I-0.3
G1 X-60.7
G17 G3 X-61 Y49.5 J-0.3
X-59 I1 F1000
X-61 I-1
X-60.7 Y49.2 I0.3
G1 X-60.55
G18 G2 X-60.25 Z-8.7 K0.3
G0 Z5
X14.75 Y30.5
Z0
G1 Z-1.7 F500
G3 X14.45 Z-2 I-0.3
G1 X14.3
G17 G3 X14 Y30.2 J-0.3
X16 I1 F1000
X14 I-1
X14.3 Y29.9 I0.3
G1 X14.45
G18 G2 X14.75 Z-1.7 K0.3
G0 Z5
Y30.5
Z-1
G1 Z-2.7 F500
G3 X14.45 Z-3 I-0.3
G1 X14.3
G17 G3 X14 Y30.2 J-0.3
X16 I1 F1000
X14 I-1
X14.3 Y29.9 I0.3
G1 X14.45
G18 G2 X14.75 Z-2.7 K0.3
G0 Z5
Y30.5
Z-2
G1 Z-3.7 F500
G3 X14.45 Z-4 I-0.3
G1 X14.3
G17 G3 X14 Y30.2 J-0.3
X16 I1 F1000
X14 I-1
X14.3 Y29.9 I0.3
G1 X14.45
G18 G2 X14.75 Z-3.7 K0.3
G0 Z5
Y30.5
Z-3
G1 Z-4.7 F500
G3 X14.45 Z-5 I-0.3
G1 X14.3
G17 G3 X14 Y30.2 J-0.3
X16 I1 F1000
X14 I-1
X14.3 Y29.9 I0.3
G1 X14.45
G18 G2 X14.75 Z-4.7 K0.3
G0 Z5
Y30.5
Z-4
G1 Z-5.7 F500
G3 X14.45 Z-6 I-0.3
G1 X14.3
G17 G3 X14 Y30.2 J-0.3
X16 I1 F1000
X14 I-1
X14.3 Y29.9 I0.3
G1 X14.45
G18 G2 X14.75 Z-5.7 K0.3
G0 Z5
Y30.5
Z-5
G1 Z-6.7 F500
G3 X14.45 Z-7 I-0.3
G1 X14.3
G17 G3 X14 Y30.2 J-0.3
X16 I1 F1000
X14 I-1
X14.3 Y29.9 I0.3
G1 X14.45
G18 G2 X14.75 Z-6.7 K0.3
G0 Z5
Y30.5
Z-6
G1 Z-7.7 F500
G3 X14.45 Z-8 I-0.3
G1 X14.3
G17 G3 X14 Y30.2 J-0.3
X16 I1 F1000
X14 I-1
X14.3 Y29.9 I0.3
G1 X14.45
G18 G2 X14.75 Z-7.7 K0.3
G0 Z5
Y30.5
Z-7
G1 Z-8.7 F500
G3 X14.45 Z-9 I-0.3
G1 X14.3
G17 G3 X14 Y30.2 J-0.3
X16 I1 F1000
X14 I-1
X14.3 Y29.9 I0.3
G1 X14.45
G18 G2 X14.75 Z-8.7 K0.3
G0 Z5
X29.75 Y49.8
Z0
G1 Z-1.7 F500
G3 X29.45 Z-2 I-0.3
G1 X29.3
G17 G3 X29 Y49.5 J-0.3
X31 I1 F1000
X29 I-1
X29.3 Y49.2 I0.3
G1 X29.45
G18 G2 X29.75 Z-1.7 K0.3
G0 Z5
Y49.8
Z-1
G1 Z-2.7 F500
G3 X29.45 Z-3 I-0.3
G1 X29.3
G17 G3 X29 Y49.5 J-0.3
X31 I1 F1000
X29 I-1
X29.3 Y49.2 I0.3
G1 X29.45
G18 G2 X29.75 Z-2.7 K0.3
G0 Z5
Y49.8
Z-2
G1 Z-3.7 F500
G3 X29.45 Z-4 I-0.3
G1 X29.3
G17 G3 X29 Y49.5 J-0.3
X31 I1 F1000
X29 I-1
X29.3 Y49.2 I0.3
G1 X29.45
G18 G2 X29.75 Z-3.7 K0.3
G0 Z5
Y49.8
Z-3
G1 Z-4.7 F500
G3 X29.45 Z-5 I-0.3
G1 X29.3
G17 G3 X29 Y49.5 J-0.3
X31 I1 F1000
X29 I-1
X29.3 Y49.2 I0.3
G1 X29.45
G18 G2 X29.75 Z-4.7 K0.3
G0 Z5
Y49.8
Z-4
G1 Z-5.7 F500
G3 X29.45 Z-6 I-0.3
G1 X29.3
G17 G3 X29 Y49.5 J-0.3
X31 I1 F1000
X29 I-1
X29.3 Y49.2 I0.3
G1 X29.45
G18 G2 X29.75 Z-5.7 K0.3
G0 Z5
Y49.8
Z-5
G1 Z-6.7 F500
G3 X29.45 Z-7 I-0.3
G1 X29.3
G17 G3 X29 Y49.5 J-0.3
X31 I1 F1000
X29 I-1
X29.3 Y49.2 I0.3
G1 X29.45
G18 G2 X29.75 Z-6.7 K0.3
G0 Z5
Y49.8
Z-6
G1 Z-7.7 F500
G3 X29.45 Z-8 I-0.3
G1 X29.3
G17 G3 X29 Y49.5 J-0.3
X31 I1 F1000
X29 I-1
X29.3 Y49.2 I0.3
G1 X29.45
G18 G2 X29.75 Z-7.7 K0.3
G0 Z5
Y49.8
Z-7
G1 Z-8.7 F500
G3 X29.45 Z-9 I-0.3
G1 X29.3
G17 G3 X29 Y49.5 J-0.3
X31 I1 F1000
X29 I-1
X29.3 Y49.2 I0.3
G1 X29.45
G18 G2 X29.75 Z-8.7 K0.3
G0 Z5
X9.75 Y49.8
Z0
G1 Z-1.7 F500
G3 X9.45 Z-2 I-0.3
G1 X9.3
G17 G3 X9 Y49.5 J-0.3
X11 I1 F1000
X9 I-1
X9.3 Y49.2 I0.3
G1 X9.45
G18 G2 X9.75 Z-1.7 K0.3
G0 Z5
Y49.8
Z-1
G1 Z-2.7 F500
G3 X9.45 Z-3 I-0.3
G1 X9.3
G17 G3 X9 Y49.5 J-0.3
X11 I1 F1000
X9 I-1
X9.3 Y49.2 I0.3
G1 X9.45
G18 G2 X9.75 Z-2.7 K0.3
G0 Z5
Y49.8
Z-2
G1 Z-3.7 F500
G3 X9.45 Z-4 I-0.3
G1 X9.3
G17 G3 X9 Y49.5 J-0.3
X11 I1 F1000
X9 I-1
X9.3 Y49.2 I0.3
G1 X9.45
G18 G2 X9.75 Z-3.7 K0.3
G0 Z5
Y49.8
Z-3
G1 Z-4.7 F500
G3 X9.45 Z-5 I-0.3
G1 X9.3
G17 G3 X9 Y49.5 J-0.3
X11 I1 F1000
X9 I-1
X9.3 Y49.2 I0.3
G1 X9.45
G18 G2 X9.75 Z-4.7 K0.3
G0 Z5
Y49.8
Z-4
G1 Z-5.7 F500
G3 X9.45 Z-6 I-0.3
G1 X9.3
G17 G3 X9 Y49.5 J-0.3
X11 I1 F1000
X9 I-1
X9.3 Y49.2 I0.3
G1 X9.45
G18 G2 X9.75 Z-5.7 K0.3
G0 Z5
Y49.8
Z-5
G1 Z-6.7 F500
G3 X9.45 Z-7 I-0.3
G1 X9.3
G17 G3 X9 Y49.5 J-0.3
X11 I1 F1000
X9 I-1
X9.3 Y49.2 I0.3
G1 X9.45
G18 G2 X9.75 Z-6.7 K0.3
G0 Z5
Y49.8
Z-6
G1 Z-7.7 F500
G3 X9.45 Z-8 I-0.3
G1 X9.3
G17 G3 X9 Y49.5 J-0.3
X11 I1 F1000
X9 I-1
X9.3 Y49.2 I0.3
G1 X9.45
G18 G2 X9.75 Z-7.7 K0.3
G0 Z5
Y49.8
Z-7
G1 Z-8.7 F500
G3 X9.45 Z-9 I-0.3
G1 X9.3
G17 G3 X9 Y49.5 J-0.3
X11 I1 F1000
X9 I-1
X9.3 Y49.2 I0.3
G1 X9.45
G18 G2 X9.75 Z-8.7 K0.3
G0 Z5
X-10.25 Y49.8
Z0
G1 Z-1.7 F500
G3 X-10.55 Z-2 I-0.3
G1 X-10.7
G17 G3 X-11 Y49.5 J-0.3
X-9 I1 F1000
X-11 I-1
X-10.7 Y49.2 I0.3
G1 X-10.55
G18 G2 X-10.25 Z-1.7 K0.3
G0 Z5
Y49.8
Z-1
G1 Z-2.7 F500
G3 X-10.55 Z-3 I-0.3
G1 X-10.7
G17 G3 X-11 Y49.5 J-0.3
X-9 I1 F1000
X-11 I-1
X-10.7 Y49.2 I0.3
G1 X-10.55
G18 G2 X-10.25 Z-2.7 K0.3
G0 Z5
Y49.8
Z-2
G1 Z-3.7 F500
G3 X-10.55 Z-4 I-0.3
G1 X-10.7
G17 G3 X-11 Y49.5 J-0.3
X-9 I1 F1000
X-11 I-1
X-10.7 Y49.2 I0.3
G1 X-10.55
G18 G2 X-10.25 Z-3.7 K0.3
G0 Z5
Y49.8
Z-3
G1 Z-4.7 F500
G3 X-10.55 Z-5 I-0.3
G1 X-10.7
G17 G3 X-11 Y49.5 J-0.3
X-9 I1 F1000
X-11 I-1
X-10.7 Y49.2 I0.3
G1 X-10.55
G18 G2 X-10.25 Z-4.7 K0.3
G0 Z5
Y49.8
Z-4
G1 Z-5.7 F500
G3 X-10.55 Z-6 I-0.3
G1 X-10.7
G17 G3 X-11 Y49.5 J-0.3
X-9 I1 F1000
X-11 I-1
X-10.7 Y49.2 I0.3
G1 X-10.55
G18 G2 X-10.25 Z-5.7 K0.3
G0 Z5
Y49.8
Z-5
G1 Z-6.7 F500
G3 X-10.55 Z-7 I-0.3
G1 X-10.7
G17 G3 X-11 Y49.5 J-0.3
X-9 I1 F1000
X-11 I-1
X-10.7 Y49.2 I0.3
G1 X-10.55
G18 G2 X-10.25 Z-6.7 K0.3
G0 Z5
Y49.8
Z-6
G1 Z-7.7 F500
G3 X-10.55 Z-8 I-0.3
G1 X-10.7
G17 G3 X-11 Y49.5 J-0.3
X-9 I1 F1000
X-11 I-1
X-10.7 Y49.2 I0.3
G1 X-10.55
G18 G2 X-10.25 Z-7.7 K0.3
G0 Z5
Y49.8
Z-7
G1 Z-8.7 F500
G3 X-10.55 Z-9 I-0.3
G1 X-10.7
G17 G3 X-11 Y49.5 J-0.3
X-9 I1 F1000
X-11 I-1
X-10.7 Y49.2 I0.3
G1 X-10.55
G18 G2 X-10.25 Z-8.7 K0.3
G0 Z5
X-30.25 Y49.8
Z0
G1 Z-1.7 F500
G3 X-30.55 Z-2 I-0.3
G1 X-30.7
G17 G3 X-31 Y49.5 J-0.3
X-29 I1 F1000
X-31 I-1
X-30.7 Y49.2 I0.3
G1 X-30.55
G18 G2 X-30.25 Z-1.7 K0.3
G0 Z5
Y49.8
Z-1
G1 Z-2.7 F500
G3 X-30.55 Z-3 I-0.3
G1 X-30.7
G17 G3 X-31 Y49.5 J-0.3
X-29 I1 F1000
X-31 I-1
X-30.7 Y49.2 I0.3
G1 X-30.55
G18 G2 X-30.25 Z-2.7 K0.3
G0 Z5
Y49.8
Z-2
G1 Z-3.7 F500
G3 X-30.55 Z-4 I-0.3
G1 X-30.7
G17 G3 X-31 Y49.5 J-0.3
X-29 I1 F1000
X-31 I-1
X-30.7 Y49.2 I0.3
G1 X-30.55
G18 G2 X-30.25 Z-3.7 K0.3
G0 Z5
Y49.8
Z-3
G1 Z-4.7 F500
G3 X-30.55 Z-5 I-0.3
G1 X-30.7
G17 G3 X-31 Y49.5 J-0.3
X-29 I1 F1000
X-31 I-1
X-30.7 Y49.2 I0.3
G1 X-30.55
G18 G2 X-30.25 Z-4.7 K0.3
G0 Z5
Y49.8
Z-4
G1 Z-5.7 F500
G3 X-30.55 Z-6 I-0.3
G1 X-30.7
G17 G3 X-31 Y49.5 J-0.3
X-29 I1 F1000
X-31 I-1
X-30.7 Y49.2 I0.3
G1 X-30.55
G18 G2 X-30.25 Z-5.7 K0.3
G0 Z5
Y49.8
Z-5
G1 Z-6.7 F500
G3 X-30.55 Z-7 I-0.3
G1 X-30.7
G17 G3 X-31 Y49.5 J-0.3
X-29 I1 F1000
X-31 I-1
X-30.7 Y49.2 I0.3
G1 X-30.55
G18 G2 X-30.25 Z-6.7 K0.3
G0 Z5
Y49.8
Z-6
G1 Z-7.7 F500
G3 X-30.55 Z-8 I-0.3
G1 X-30.7
G17 G3 X-31 Y49.5 J-0.3
X-29 I1 F1000
X-31 I-1
X-30.7 Y49.2 I0.3
G1 X-30.55
G18 G2 X-30.25 Z-7.7 K0.3
G0 Z5
Y49.8
Z-7
G1 Z-8.7 F500
G3 X-30.55 Z-9 I-0.3
G1 X-30.7
G17 G3 X-31 Y49.5 J-0.3
X-29 I1 F1000
X-31 I-1
X-30.7 Y49.2 I0.3
G1 X-30.55
G18 G2 X-30.25 Z-8.7 K0.3
G0 Z5
X-15.25 Y30.5
Z0
G1 Z-1.7 F500
G3 X-15.55 Z-2 I-0.3
G1 X-15.7
G17 G3 X-16 Y30.2 J-0.3
X-14 I1 F1000
X-16 I-1
X-15.7 Y29.9 I0.3
G1 X-15.55
G18 G2 X-15.25 Z-1.7 K0.3
G0 Z5
Y30.5
Z-1
G1 Z-2.7 F500
G3 X-15.55 Z-3 I-0.3
G1 X-15.7
G17 G3 X-16 Y30.2 J-0.3
X-14 I1 F1000
X-16 I-1
X-15.7 Y29.9 I0.3
G1 X-15.55
G18 G2 X-15.25 Z-2.7 K0.3
G0 Z5
Y30.5
Z-2
G1 Z-3.7 F500
G3 X-15.55 Z-4 I-0.3
G1 X-15.7
G17 G3 X-16 Y30.2 J-0.3
X-14 I1 F1000
X-16 I-1
X-15.7 Y29.9 I0.3
G1 X-15.55
G18 G2 X-15.25 Z-3.7 K0.3
G0 Z5
Y30.5
Z-3
G1 Z-4.7 F500
G3 X-15.55 Z-5 I-0.3
G1 X-15.7
G17 G3 X-16 Y30.2 J-0.3
X-14 I1 F1000
X-16 I-1
X-15.7 Y29.9 I0.3
G1 X-15.55
G18 G2 X-15.25 Z-4.7 K0.3
G0 Z5
Y30.5
Z-4
G1 Z-5.7 F500
G3 X-15.55 Z-6 I-0.3
G1 X-15.7
G17 G3 X-16 Y30.2 J-0.3
X-14 I1 F1000
X-16 I-1
X-15.7 Y29.9 I0.3
G1 X-15.55
G18 G2 X-15.25 Z-5.7 K0.3
G0 Z5
Y30.5
Z-5
G1 Z-6.7 F500
G3 X-15.55 Z-7 I-0.3
G1 X-15.7
G17 G3 X-16 Y30.2 J-0.3
X-14 I1 F1000
X-16 I-1
X-15.7 Y29.9 I0.3
G1 X-15.55
G18 G2 X-15.25 Z-6.7 K0.3
G0 Z5
Y30.5
Z-6
G1 Z-7.7 F500
G3 X-15.55 Z-8 I-0.3
G1 X-15.7
G17 G3 X-16 Y30.2 J-0.3
X-14 I1 F1000
X-16 I-1
X-15.7 Y29.9 I0.3
G1 X-15.55
G18 G2 X-15.25 Z-7.7 K0.3
G0 Z5
Y30.5
Z-7
G1 Z-8.7 F500
G3 X-15.55 Z-9 I-0.3
G1 X-15.7
G17 G3 X-16 Y30.2 J-0.3
X-14 I1 F1000
X-16 I-1
X-15.7 Y29.9 I0.3
G1 X-15.55
G18 G2 X-15.25 Z-8.7 K0.3
G0 Z5
X-25.25 Y10.3
Z0
G1 Z-1.7 F500
G3 X-25.55 Z-2 I-0.3
G1 X-25.7
G17 G3 X-26 Y10 J-0.3
X-24 I1 F1000
X-26 I-1
X-25.7 Y9.7 I0.3
G1 X-25.55
G18 G2 X-25.25 Z-1.7 K0.3
G0 Z5
Y10.3
Z-1
G1 Z-2.7 F500
G3 X-25.55 Z-3 I-0.3
G1 X-25.7
G17 G3 X-26 Y10 J-0.3
X-24 I1 F1000
X-26 I-1
X-25.7 Y9.7 I0.3
G1 X-25.55
G18 G2 X-25.25 Z-2.7 K0.3
G0 Z5
Y10.3
Z-2
G1 Z-3.7 F500
G3 X-25.55 Z-4 I-0.3
G1 X-25.7
G17 G3 X-26 Y10 J-0.3
X-24 I1 F1000
X-26 I-1
X-25.7 Y9.7 I0.3
G1 X-25.55
G18 G2 X-25.25 Z-3.7 K0.3
G0 Z5
Y10.3
Z-3
G1 Z-4.7 F500
G3 X-25.55 Z-5 I-0.3
G1 X-25.7
G17 G3 X-26 Y10 J-0.3
X-24 I1 F1000
X-26 I-1
X-25.7 Y9.7 I0.3
G1 X-25.55
G18 G2 X-25.25 Z-4.7 K0.3
G0 Z5
Y10.3
Z-4
G1 Z-5.7 F500
G3 X-25.55 Z-6 I-0.3
G1 X-25.7
G17 G3 X-26 Y10 J-0.3
X-24 I1 F1000
X-26 I-1
X-25.7 Y9.7 I0.3
G1 X-25.55
G18 G2 X-25.25 Z-5.7 K0.3
G0 Z5
Y10.3
Z-5
G1 Z-6.7 F500
G3 X-25.55 Z-7 I-0.3
G1 X-25.7
G17 G3 X-26 Y10 J-0.3
X-24 I1 F1000
X-26 I-1
X-25.7 Y9.7 I0.3
G1 X-25.55
G18 G2 X-25.25 Z-6.7 K0.3
G0 Z5
Y10.3
Z-6
G1 Z-7.7 F500
G3 X-25.55 Z-8 I-0.3
G1 X-25.7
G17 G3 X-26 Y10 J-0.3
X-24 I1 F1000
X-26 I-1
X-25.7 Y9.7 I0.3
G1 X-25.55
G18 G2 X-25.25 Z-7.7 K0.3
G0 Z5
Y10.3
Z-7
G1 Z-8.7 F500
G3 X-25.55 Z-9 I-0.3
G1 X-25.7
G17 G3 X-26 Y10 J-0.3
X-24 I1 F1000
X-26 I-1
X-25.7 Y9.7 I0.3
G1 X-25.55
G18 G2 X-25.25 Z-8.7 K0.3
G0 Z5
X-35.25 Y10.3
Z0
G1 Z-1.7 F500
G3 X-35.55 Z-2 I-0.3
G1 X-35.7
G17 G3 X-36 Y10 J-0.3
X-34 I1 F1000
X-36 I-1
X-35.7 Y9.7 I0.3
G1 X-35.55
G18 G2 X-35.25 Z-1.7 K0.3
G0 Z5
Y10.3
Z-1
G1 Z-2.7 F500
G3 X-35.55 Z-3 I-0.3
G1 X-35.7
G17 G3 X-36 Y10 J-0.3
X-34 I1 F1000
X-36 I-1
X-35.7 Y9.7 I0.3
G1 X-35.55
G18 G2 X-35.25 Z-2.7 K0.3
G0 Z5
Y10.3
Z-2
G1 Z-3.7 F500
G3 X-35.55 Z-4 I-0.3
G1 X-35.7
G17 G3 X-36 Y10 J-0.3
X-34 I1 F1000
X-36 I-1
X-35.7 Y9.7 I0.3
G1 X-35.55
G18 G2 X-35.25 Z-3.7 K0.3
G0 Z5
Y10.3
Z-3
G1 Z-4.7 F500
G3 X-35.55 Z-5 I-0.3
G1 X-35.7
G17 G3 X-36 Y10 J-0.3
X-34 I1 F1000
X-36 I-1
X-35.7 Y9.7 I0.3
G1 X-35.55
G18 G2 X-35.25 Z-4.7 K0.3
G0 Z5
Y10.3
Z-4
G1 Z-5.7 F500
G3 X-35.55 Z-6 I-0.3
G1 X-35.7
G17 G3 X-36 Y10 J-0.3
X-34 I1 F1000
X-36 I-1
X-35.7 Y9.7 I0.3
G1 X-35.55
G18 G2 X-35.25 Z-5.7 K0.3
G0 Z5
Y10.3
Z-5
G1 Z-6.7 F500
G3 X-35.55 Z-7 I-0.3
G1 X-35.7
G17 G3 X-36 Y10 J-0.3
X-34 I1 F1000
X-36 I-1
X-35.7 Y9.7 I0.3
G1 X-35.55
G18 G2 X-35.25 Z-6.7 K0.3
G0 Z5
Y10.3
Z-6
G1 Z-7.7 F500
G3 X-35.55 Z-8 I-0.3
G1 X-35.7
G17 G3 X-36 Y10 J-0.3
X-34 I1 F1000
X-36 I-1
X-35.7 Y9.7 I0.3
G1 X-35.55
G18 G2 X-35.25 Z-7.7 K0.3
G0 Z5
Y10.3
Z-7
G1 Z-8.7 F500
G3 X-35.55 Z-9 I-0.3
G1 X-35.7
G17 G3 X-36 Y10 J-0.3
X-34 I1 F1000
X-36 I-1
X-35.7 Y9.7 I0.3
G1 X-35.55
G18 G2 X-35.25 Z-8.7 K0.3
G0 Z5
Y20.3
Z0
G1 Z-1.7 F500
G3 X-35.55 Z-2 I-0.3
G1 X-35.7
G17 G3 X-36 Y20 J-0.3
X-34 I1 F1000
X-36 I-1
X-35.7 Y19.7 I0.3
G1 X-35.55
G18 G2 X-35.25 Z-1.7 K0.3
G0 Z5
Y20.3
Z-1
G1 Z-2.7 F500
G3 X-35.55 Z-3 I-0.3
G1 X-35.7
G17 G3 X-36 Y20 J-0.3
X-34 I1 F1000
X-36 I-1
X-35.7 Y19.7 I0.3
G1 X-35.55
G18 G2 X-35.25 Z-2.7 K0.3
G0 Z5
Y20.3
Z-2
G1 Z-3.7 F500
G3 X-35.55 Z-4 I-0.3
G1 X-35.7
G17 G3 X-36 Y20 J-0.3
X-34 I1 F1000
X-36 I-1
X-35.7 Y19.7 I0.3
G1 X-35.55
G18 G2 X-35.25 Z-3.7 K0.3
G0 Z5
Y20.3
Z-3
G1 Z-4.7 F500
G3 X-35.55 Z-5 I-0.3
G1 X-35.7
G17 G3 X-36 Y20 J-0.3
X-34 I1 F1000
X-36 I-1
X-35.7 Y19.7 I0.3
G1 X-35.55
G18 G2 X-35.25 Z-4.7 K0.3
G0 Z5
Y20.3
Z-4
G1 Z-5.7 F500
G3 X-35.55 Z-6 I-0.3
G1 X-35.7
G17 G3 X-36 Y20 J-0.3
X-34 I1 F1000
X-36 I-1
X-35.7 Y19.7 I0.3
G1 X-35.55
G18 G2 X-35.25 Z-5.7 K0.3
G0 Z5
Y20.3
Z-5
G1 Z-6.7 F500
G3 X-35.55 Z-7 I-0.3
G1 X-35.7
G17 G3 X-36 Y20 J-0.3
X-34 I1 F1000
X-36 I-1
X-35.7 Y19.7 I0.3
G1 X-35.55
G18 G2 X-35.25 Z-6.7 K0.3
G0 Z5
Y20.3
Z-6
G1 Z-7.7 F500
G3 X-35.55 Z-8 I-0.3
G1 X-35.7
G17 G3 X-36 Y20 J-0.3
X-34 I1 F1000
X-36 I-1
X-35.7 Y19.7 I0.3
G1 X-35.55
G18 G2 X-35.25 Z-7.7 K0.3
G0 Z5
Y20.3
Z-7
G1 Z-8.7 F500
G3 X-35.55 Z-9 I-0.3
G1 X-35.7
G17 G3 X-36 Y20 J-0.3
X-34 I1 F1000
X-36 I-1
X-35.7 Y19.7 I0.3
G1 X-35.55
G18 G2 X-35.25 Z-8.7 K0.3
G0 Z5
X-55.25 Y20.3
Z0
G1 Z-1.7 F500
G3 X-55.55 Z-2 I-0.3
G1 X-55.7
G17 G3 X-56 Y20 J-0.3
X-54 I1 F1000
X-56 I-1
X-55.7 Y19.7 I0.3
G1 X-55.55
G18 G2 X-55.25 Z-1.7 K0.3
G0 Z5
Y20.3
Z-1
G1 Z-2.7 F500
G3 X-55.55 Z-3 I-0.3
G1 X-55.7
G17 G3 X-56 Y20 J-0.3
X-54 I1 F1000
X-56 I-1
X-55.7 Y19.7 I0.3
G1 X-55.55
G18 G2 X-55.25 Z-2.7 K0.3
G0 Z5
Y20.3
Z-2
G1 Z-3.7 F500
G3 X-55.55 Z-4 I-0.3
G1 X-55.7
G17 G3 X-56 Y20 J-0.3
X-54 I1 F1000
X-56 I-1
X-55.7 Y19.7 I0.3
G1 X-55.55
G18 G2 X-55.25 Z-3.7 K0.3
G0 Z5
Y20.3
Z-3
G1 Z-4.7 F500
G3 X-55.55 Z-5 I-0.3
G1 X-55.7
G17 G3 X-56 Y20 J-0.3
X-54 I1 F1000
X-56 I-1
X-55.7 Y19.7 I0.3
G1 X-55.55
G18 G2 X-55.25 Z-4.7 K0.3
G0 Z5
Y20.3
Z-4
G1 Z-5.7 F500
G3 X-55.55 Z-6 I-0.3
G1 X-55.7
G17 G3 X-56 Y20 J-0.3
X-54 I1 F1000
X-56 I-1
X-55.7 Y19.7 I0.3
G1 X-55.55
G18 G2 X-55.25 Z-5.7 K0.3
G0 Z5
Y20.3
Z-5
G1 Z-6.7 F500
G3 X-55.55 Z-7 I-0.3
G1 X-55.7
G17 G3 X-56 Y20 J-0.3
X-54 I1 F1000
X-56 I-1
X-55.7 Y19.7 I0.3
G1 X-55.55
G18 G2 X-55.25 Z-6.7 K0.3
G0 Z5
Y20.3
Z-6
G1 Z-7.7 F500
G3 X-55.55 Z-8 I-0.3
G1 X-55.7
G17 G3 X-56 Y20 J-0.3
X-54 I1 F1000
X-56 I-1
X-55.7 Y19.7 I0.3
G1 X-55.55
G18 G2 X-55.25 Z-7.7 K0.3
G0 Z5
Y20.3
Z-7
G1 Z-8.7 F500
G3 X-55.55 Z-9 I-0.3
G1 X-55.7
G17 G3 X-56 Y20 J-0.3
X-54 I1 F1000
X-56 I-1
X-55.7 Y19.7 I0.3
G1 X-55.55
G18 G2 X-55.25 Z-8.7 K0.3
G0 Z5
Y10.3
Z0
G1 Z-1.7 F500
G3 X-55.55 Z-2 I-0.3
G1 X-55.7
G17 G3 X-56 Y10 J-0.3
X-54 I1 F1000
X-56 I-1
X-55.7 Y9.7 I0.3
G1 X-55.55
G18 G2 X-55.25 Z-1.7 K0.3
G0 Z5
Y10.3
Z-1
G1 Z-2.7 F500
G3 X-55.55 Z-3 I-0.3
G1 X-55.7
G17 G3 X-56 Y10 J-0.3
X-54 I1 F1000
X-56 I-1
X-55.7 Y9.7 I0.3
G1 X-55.55
G18 G2 X-55.25 Z-2.7 K0.3
G0 Z5
Y10.3
Z-2
G1 Z-3.7 F500
G3 X-55.55 Z-4 I-0.3
G1 X-55.7
G17 G3 X-56 Y10 J-0.3
X-54 I1 F1000
X-56 I-1
X-55.7 Y9.7 I0.3
G1 X-55.55
G18 G2 X-55.25 Z-3.7 K0.3
G0 Z5
Y10.3
Z-3
G1 Z-4.7 F500
G3 X-55.55 Z-5 I-0.3
G1 X-55.7
G17 G3 X-56 Y10 J-0.3
X-54 I1 F1000
X-56 I-1
X-55.7 Y9.7 I0.3
G1 X-55.55
G18 G2 X-55.25 Z-4.7 K0.3
G0 Z5
Y10.3
Z-4
G1 Z-5.7 F500
G3 X-55.55 Z-6 I-0.3
G1 X-55.7
G17 G3 X-56 Y10 J-0.3
X-54 I1 F1000
X-56 I-1
X-55.7 Y9.7 I0.3
G1 X-55.55
G18 G2 X-55.25 Z-5.7 K0.3
G0 Z5
Y10.3
Z-5
G1 Z-6.7 F500
G3 X-55.55 Z-7 I-0.3
G1 X-55.7
G17 G3 X-56 Y10 J-0.3
X-54 I1 F1000
X-56 I-1
X-55.7 Y9.7 I0.3
G1 X-55.55
G18 G2 X-55.25 Z-6.7 K0.3
G0 Z5
Y10.3
Z-6
G1 Z-7.7 F500
G3 X-55.55 Z-8 I-0.3
G1 X-55.7
G17 G3 X-56 Y10 J-0.3
X-54 I1 F1000
X-56 I-1
X-55.7 Y9.7 I0.3
G1 X-55.55
G18 G2 X-55.25 Z-7.7 K0.3
G0 Z5
Y10.3
Z-7
G1 Z-8.7 F500
G3 X-55.55 Z-9 I-0.3
G1 X-55.7
G17 G3 X-56 Y10 J-0.3
X-54 I1 F1000
X-56 I-1
X-55.7 Y9.7 I0.3
G1 X-55.55
G18 G2 X-55.25 Z-8.7 K0.3
G0 Z5
X-65.25 Y10.3
Z0
G1 Z-1.7 F500
G3 X-65.55 Z-2 I-0.3
G1 X-65.7
G17 G3 X-66 Y10 J-0.3
X-64 I1 F1000
X-66 I-1
X-65.7 Y9.7 I0.3
G1 X-65.55
G18 G2 X-65.25 Z-1.7 K0.3
G0 Z5
Y10.3
Z-1
G1 Z-2.7 F500
G3 X-65.55 Z-3 I-0.3
G1 X-65.7
G17 G3 X-66 Y10 J-0.3
X-64 I1 F1000
X-66 I-1
X-65.7 Y9.7 I0.3
G1 X-65.55
G18 G2 X-65.25 Z-2.7 K0.3
G0 Z5
Y10.3
Z-2
G1 Z-3.7 F500
G3 X-65.55 Z-4 I-0.3
G1 X-65.7
G17 G3 X-66 Y10 J-0.3
X-64 I1 F1000
X-66 I-1
X-65.7 Y9.7 I0.3
G1 X-65.55
G18 G2 X-65.25 Z-3.7 K0.3
G0 Z5
Y10.3
Z-3
G1 Z-4.7 F500
G3 X-65.55 Z-5 I-0.3
G1 X-65.7
G17 G3 X-66 Y10 J-0.3
X-64 I1 F1000
X-66 I-1
X-65.7 Y9.7 I0.3
G1 X-65.55
G18 G2 X-65.25 Z-4.7 K0.3
G0 Z5
Y10.3
Z-4
G1 Z-5.7 F500
G3 X-65.55 Z-6 I-0.3
G1 X-65.7
G17 G3 X-66 Y10 J-0.3
X-64 I1 F1000
X-66 I-1
X-65.7 Y9.7 I0.3
G1 X-65.55
G18 G2 X-65.25 Z-5.7 K0.3
G0 Z5
Y10.3
Z-5
G1 Z-6.7 F500
G3 X-65.55 Z-7 I-0.3
G1 X-65.7
G17 G3 X-66 Y10 J-0.3
X-64 I1 F1000
X-66 I-1
X-65.7 Y9.7 I0.3
G1 X-65.55
G18 G2 X-65.25 Z-6.7 K0.3
G0 Z5
Y10.3
Z-6
G1 Z-7.7 F500
G3 X-65.55 Z-8 I-0.3
G1 X-65.7
G17 G3 X-66 Y10 J-0.3
X-64 I1 F1000
X-66 I-1
X-65.7 Y9.7 I0.3
G1 X-65.55
G18 G2 X-65.25 Z-7.7 K0.3
G0 Z5
Y10.3
Z-7
G1 Z-8.7 F500
G3 X-65.55 Z-9 I-0.3
G1 X-65.7
G17 G3 X-66 Y10 J-0.3
X-64 I1 F1000
X-66 I-1
X-65.7 Y9.7 I0.3
G1 X-65.55
G18 G2 X-65.25 Z-8.7 K0.3
G0 Z5
Y-9.7
Z0
G1 Z-1.7 F500
G3 X-65.55 Z-2 I-0.3
G1 X-65.7
G17 G3 X-66 Y-10 J-0.3
X-64 I1 F1000
X-66 I-1
X-65.7 Y-10.3 I0.3
G1 X-65.55
G18 G2 X-65.25 Z-1.7 K0.3
G0 Z5
Y-9.7
Z-1
G1 Z-2.7 F500
G3 X-65.55 Z-3 I-0.3
G1 X-65.7
G17 G3 X-66 Y-10 J-0.3
X-64 I1 F1000
X-66 I-1
X-65.7 Y-10.3 I0.3
G1 X-65.55
G18 G2 X-65.25 Z-2.7 K0.3
G0 Z5
Y-9.7
Z-2
G1 Z-3.7 F500
G3 X-65.55 Z-4 I-0.3
G1 X-65.7
G17 G3 X-66 Y-10 J-0.3
X-64 I1 F1000
X-66 I-1
X-65.7 Y-10.3 I0.3
G1 X-65.55
G18 G2 X-65.25 Z-3.7 K0.3
G0 Z5
Y-9.7
Z-3
G1 Z-4.7 F500
G3 X-65.55 Z-5 I-0.3
G1 X-65.7
G17 G3 X-66 Y-10 J-0.3
X-64 I1 F1000
X-66 I-1
X-65.7 Y-10.3 I0.3
G1 X-65.55
G18 G2 X-65.25 Z-4.7 K0.3
G0 Z5
Y-9.7
Z-4
G1 Z-5.7 F500
G3 X-65.55 Z-6 I-0.3
G1 X-65.7
G17 G3 X-66 Y-10 J-0.3
X-64 I1 F1000
X-66 I-1
X-65.7 Y-10.3 I0.3
G1 X-65.55
G18 G2 X-65.25 Z-5.7 K0.3
G0 Z5
Y-9.7
Z-5
G1 Z-6.7 F500
G3 X-65.55 Z-7 I-0.3
G1 X-65.7
G17 G3 X-66 Y-10 J-0.3
X-64 I1 F1000
X-66 I-1
X-65.7 Y-10.3 I0.3
G1 X-65.55
G18 G2 X-65.25 Z-6.7 K0.3
G0 Z5
Y-9.7
Z-6
G1 Z-7.7 F500
G3 X-65.55 Z-8 I-0.3
G1 X-65.7
G17 G3 X-66 Y-10 J-0.3
X-64 I1 F1000
X-66 I-1
X-65.7 Y-10.3 I0.3
G1 X-65.55
G18 G2 X-65.25 Z-7.7 K0.3
G0 Z5
Y-9.7
Z-7
G1 Z-8.7 F500
G3 X-65.55 Z-9 I-0.3
G1 X-65.7
G17 G3 X-66 Y-10 J-0.3
X-64 I1 F1000
X-66 I-1
X-65.7 Y-10.3 I0.3
G1 X-65.55
G18 G2 X-65.25 Z-8.7 K0.3
G0 Z5
X-55.25 Y-9.7
Z0
G1 Z-1.7 F500
G3 X-55.55 Z-2 I-0.3
G1 X-55.7
G17 G3 X-56 Y-10 J-0.3
X-54 I1 F1000
X-56 I-1
X-55.7 Y-10.3 I0.3
G1 X-55.55
G18 G2 X-55.25 Z-1.7 K0.3
G0 Z5
Y-9.7
Z-1
G1 Z-2.7 F500
G3 X-55.55 Z-3 I-0.3
G1 X-55.7
G17 G3 X-56 Y-10 J-0.3
X-54 I1 F1000
X-56 I-1
X-55.7 Y-10.3 I0.3
G1 X-55.55
G18 G2 X-55.25 Z-2.7 K0.3
G0 Z5
Y-9.7
Z-2
G1 Z-3.7 F500
G3 X-55.55 Z-4 I-0.3
G1 X-55.7
G17 G3 X-56 Y-10 J-0.3
X-54 I1 F1000
X-56 I-1
X-55.7 Y-10.3 I0.3
G1 X-55.55
G18 G2 X-55.25 Z-3.7 K0.3
G0 Z5
Y-9.7
Z-3
G1 Z-4.7 F500
G3 X-55.55 Z-5 I-0.3
G1 X-55.7
G17 G3 X-56 Y-10 J-0.3
X-54 I1 F1000
X-56 I-1
X-55.7 Y-10.3 I0.3
G1 X-55.55
G18 G2 X-55.25 Z-4.7 K0.3
G0 Z5
Y-9.7
Z-4
G1 Z-5.7 F500
G3 X-55.55 Z-6 I-0.3
G1 X-55.7
G17 G3 X-56 Y-10 J-0.3
X-54 I1 F1000
X-56 I-1
X-55.7 Y-10.3 I0.3
G1 X-55.55
G18 G2 X-55.25 Z-5.7 K0.3
G0 Z5
Y-9.7
Z-5
G1 Z-6.7 F500
G3 X-55.55 Z-7 I-0.3
G1 X-55.7
G17 G3 X-56 Y-10 J-0.3
X-54 I1 F1000
X-56 I-1
X-55.7 Y-10.3 I0.3
G1 X-55.55
G18 G2 X-55.25 Z-6.7 K0.3
G0 Z5
Y-9.7
Z-6
G1 Z-7.7 F500
G3 X-55.55 Z-8 I-0.3
G1 X-55.7
G17 G3 X-56 Y-10 J-0.3
X-54 I1 F1000
X-56 I-1
X-55.7 Y-10.3 I0.3
G1 X-55.55
G18 G2 X-55.25 Z-7.7 K0.3
G0 Z5
Y-9.7
Z-7
G1 Z-8.7 F500
G3 X-55.55 Z-9 I-0.3
G1 X-55.7
G17 G3 X-56 Y-10 J-0.3
X-54 I1 F1000
X-56 I-1
X-55.7 Y-10.3 I0.3
G1 X-55.55
G18 G2 X-55.25 Z-8.7 K0.3
G0 Z5
Y-19.7
Z0
G1 Z-1.7 F500
G3 X-55.55 Z-2 I-0.3
G1 X-55.7
G17 G3 X-56 Y-20 J-0.3
X-54 I1 F1000
X-56 I-1
X-55.7 Y-20.3 I0.3
G1 X-55.55
G18 G2 X-55.25 Z-1.7 K0.3
G0 Z5
Y-19.7
Z-1
G1 Z-2.7 F500
G3 X-55.55 Z-3 I-0.3
G1 X-55.7
G17 G3 X-56 Y-20 J-0.3
X-54 I1 F1000
X-56 I-1
X-55.7 Y-20.3 I0.3
G1 X-55.55
G18 G2 X-55.25 Z-2.7 K0.3
G0 Z5
Y-19.7
Z-2
G1 Z-3.7 F500
G3 X-55.55 Z-4 I-0.3
G1 X-55.7
G17 G3 X-56 Y-20 J-0.3
X-54 I1 F1000
X-56 I-1
X-55.7 Y-20.3 I0.3
G1 X-55.55
G18 G2 X-55.25 Z-3.7 K0.3
G0 Z5
Y-19.7
Z-3
G1 Z-4.7 F500
G3 X-55.55 Z-5 I-0.3
G1 X-55.7
G17 G3 X-56 Y-20 J-0.3
X-54 I1 F1000
X-56 I-1
X-55.7 Y-20.3 I0.3
G1 X-55.55
G18 G2 X-55.25 Z-4.7 K0.3
G0 Z5
Y-19.7
Z-4
G1 Z-5.7 F500
G3 X-55.55 Z-6 I-0.3
G1 X-55.7
G17 G3 X-56 Y-20 J-0.3
X-54 I1 F1000
X-56 I-1
X-55.7 Y-20.3 I0.3
G1 X-55.55
G18 G2 X-55.25 Z-5.7 K0.3
G0 Z5
Y-19.7
Z-5
G1 Z-6.7 F500
G3 X-55.55 Z-7 I-0.3
G1 X-55.7
G17 G3 X-56 Y-20 J-0.3
X-54 I1 F1000
X-56 I-1
X-55.7 Y-20.3 I0.3
G1 X-55.55
G18 G2 X-55.25 Z-6.7 K0.3
G0 Z5
Y-19.7
Z-6
G1 Z-7.7 F500
G3 X-55.55 Z-8 I-0.3
G1 X-55.7
G17 G3 X-56 Y-20 J-0.3
X-54 I1 F1000
X-56 I-1
X-55.7 Y-20.3 I0.3
G1 X-55.55
G18 G2 X-55.25 Z-7.7 K0.3
G0 Z5
Y-19.7
Z-7
G1 Z-8.7 F500
G3 X-55.55 Z-9 I-0.3
G1 X-55.7
G17 G3 X-56 Y-20 J-0.3
X-54 I1 F1000
X-56 I-1
X-55.7 Y-20.3 I0.3
G1 X-55.55
G18 G2 X-55.25 Z-8.7 K0.3
G0 Z5
X-35.25 Y-19.7
Z0
G1 Z-1.7 F500
G3 X-35.55 Z-2 I-0.3
G1 X-35.7
G17 G3 X-36 Y-20 J-0.3
X-34 I1 F1000
X-36 I-1
X-35.7 Y-20.3 I0.3
G1 X-35.55
G18 G2 X-35.25 Z-1.7 K0.3
G0 Z5
Y-19.7
Z-1
G1 Z-2.7 F500
G3 X-35.55 Z-3 I-0.3
G1 X-35.7
G17 G3 X-36 Y-20 J-0.3
X-34 I1 F1000
X-36 I-1
X-35.7 Y-20.3 I0.3
G1 X-35.55
G18 G2 X-35.25 Z-2.7 K0.3
G0 Z5
Y-19.7
Z-2
G1 Z-3.7 F500
G3 X-35.55 Z-4 I-0.3
G1 X-35.7
G17 G3 X-36 Y-20 J-0.3
X-34 I1 F1000
X-36 I-1
X-35.7 Y-20.3 I0.3
G1 X-35.55
G18 G2 X-35.25 Z-3.7 K0.3
G0 Z5
Y-19.7
Z-3
G1 Z-4.7 F500
G3 X-35.55 Z-5 I-0.3
G1 X-35.7
G17 G3 X-36 Y-20 J-0.3
X-34 I1 F1000
X-36 I-1
X-35.7 Y-20.3 I0.3
G1 X-35.55
G18 G2 X-35.25 Z-4.7 K0.3
G0 Z5
Y-19.7
Z-4
G1 Z-5.7 F500
G3 X-35.55 Z-6 I-0.3
G1 X-35.7
G17 G3 X-36 Y-20 J-0.3
X-34 I1 F1000
X-36 I-1
X-35.7 Y-20.3 I0.3
G1 X-35.55
G18 G2 X-35.25 Z-5.7 K0.3
G0 Z5
Y-19.7
Z-5
G1 Z-6.7 F500
G3 X-35.55 Z-7 I-0.3
G1 X-35.7
G17 G3 X-36 Y-20 J-0.3
X-34 I1 F1000
X-36 I-1
X-35.7 Y-20.3 I0.3
G1 X-35.55
G18 G2 X-35.25 Z-6.7 K0.3
G0 Z5
Y-19.7
Z-6
G1 Z-7.7 F500
G3 X-35.55 Z-8 I-0.3
G1 X-35.7
G17 G3 X-36 Y-20 J-0.3
X-34 I1 F1000
X-36 I-1
X-35.7 Y-20.3 I0.3
G1 X-35.55
G18 G2 X-35.25 Z-7.7 K0.3
G0 Z5
Y-19.7
Z-7
G1 Z-8.7 F500
G3 X-35.55 Z-9 I-0.3
G1 X-35.7
G17 G3 X-36 Y-20 J-0.3
X-34 I1 F1000
X-36 I-1
X-35.7 Y-20.3 I0.3
G1 X-35.55
G18 G2 X-35.25 Z-8.7 K0.3
G0 Z5
Y-9.7
Z0
G1 Z-1.7 F500
G3 X-35.55 Z-2 I-0.3
G1 X-35.7
G17 G3 X-36 Y-10 J-0.3
X-34 I1 F1000
X-36 I-1
X-35.7 Y-10.3 I0.3
G1 X-35.55
G18 G2 X-35.25 Z-1.7 K0.3
G0 Z5
Y-9.7
Z-1
G1 Z-2.7 F500
G3 X-35.55 Z-3 I-0.3
G1 X-35.7
G17 G3 X-36 Y-10 J-0.3
X-34 I1 F1000
X-36 I-1
X-35.7 Y-10.3 I0.3
G1 X-35.55
G18 G2 X-35.25 Z-2.7 K0.3
G0 Z5
Y-9.7
Z-2
G1 Z-3.7 F500
G3 X-35.55 Z-4 I-0.3
G1 X-35.7
G17 G3 X-36 Y-10 J-0.3
X-34 I1 F1000
X-36 I-1
X-35.7 Y-10.3 I0.3
G1 X-35.55
G18 G2 X-35.25 Z-3.7 K0.3
G0 Z5
Y-9.7
Z-3
G1 Z-4.7 F500
G3 X-35.55 Z-5 I-0.3
G1 X-35.7
G17 G3 X-36 Y-10 J-0.3
X-34 I1 F1000
X-36 I-1
X-35.7 Y-10.3 I0.3
G1 X-35.55
G18 G2 X-35.25 Z-4.7 K0.3
G0 Z5
Y-9.7
Z-4
G1 Z-5.7 F500
G3 X-35.55 Z-6 I-0.3
G1 X-35.7
G17 G3 X-36 Y-10 J-0.3
X-34 I1 F1000
X-36 I-1
X-35.7 Y-10.3 I0.3
G1 X-35.55
G18 G2 X-35.25 Z-5.7 K0.3
G0 Z5
Y-9.7
Z-5
G1 Z-6.7 F500
G3 X-35.55 Z-7 I-0.3
G1 X-35.7
G17 G3 X-36 Y-10 J-0.3
X-34 I1 F1000
X-36 I-1
X-35.7 Y-10.3 I0.3
G1 X-35.55
G18 G2 X-35.25 Z-6.7 K0.3
G0 Z5
Y-9.7
Z-6
G1 Z-7.7 F500
G3 X-35.55 Z-8 I-0.3
G1 X-35.7
G17 G3 X-36 Y-10 J-0.3
X-34 I1 F1000
X-36 I-1
X-35.7 Y-10.3 I0.3
G1 X-35.55
G18 G2 X-35.25 Z-7.7 K0.3
G0 Z5
Y-9.7
Z-7
G1 Z-8.7 F500
G3 X-35.55 Z-9 I-0.3
G1 X-35.7
G17 G3 X-36 Y-10 J-0.3
X-34 I1 F1000
X-36 I-1
X-35.7 Y-10.3 I0.3
G1 X-35.55
G18 G2 X-35.25 Z-8.7 K0.3
G0 Z5
X-25.25 Y-9.7
Z0
G1 Z-1.7 F500
G3 X-25.55 Z-2 I-0.3
G1 X-25.7
G17 G3 X-26 Y-10 J-0.3
X-24 I1 F1000
X-26 I-1
X-25.7 Y-10.3 I0.3
G1 X-25.55
G18 G2 X-25.25 Z-1.7 K0.3
G0 Z5
Y-9.7
Z-1
G1 Z-2.7 F500
G3 X-25.55 Z-3 I-0.3
G1 X-25.7
G17 G3 X-26 Y-10 J-0.3
X-24 I1 F1000
X-26 I-1
X-25.7 Y-10.3 I0.3
G1 X-25.55
G18 G2 X-25.25 Z-2.7 K0.3
G0 Z5
Y-9.7
Z-2
G1 Z-3.7 F500
G3 X-25.55 Z-4 I-0.3
G1 X-25.7
G17 G3 X-26 Y-10 J-0.3
X-24 I1 F1000
X-26 I-1
X-25.7 Y-10.3 I0.3
G1 X-25.55
G18 G2 X-25.25 Z-3.7 K0.3
G0 Z5
Y-9.7
Z-3
G1 Z-4.7 F500
G3 X-25.55 Z-5 I-0.3
G1 X-25.7
G17 G3 X-26 Y-10 J-0.3
X-24 I1 F1000
X-26 I-1
X-25.7 Y-10.3 I0.3
G1 X-25.55
G18 G2 X-25.25 Z-4.7 K0.3
G0 Z5
Y-9.7
Z-4
G1 Z-5.7 F500
G3 X-25.55 Z-6 I-0.3
G1 X-25.7
G17 G3 X-26 Y-10 J-0.3
X-24 I1 F1000
X-26 I-1
X-25.7 Y-10.3 I0.3
G1 X-25.55
G18 G2 X-25.25 Z-5.7 K0.3
G0 Z5
Y-9.7
Z-5
G1 Z-6.7 F500
G3 X-25.55 Z-7 I-0.3
G1 X-25.7
G17 G3 X-26 Y-10 J-0.3
X-24 I1 F1000
X-26 I-1
X-25.7 Y-10.3 I0.3
G1 X-25.55
G18 G2 X-25.25 Z-6.7 K0.3
G0 Z5
Y-9.7
Z-6
G1 Z-7.7 F500
G3 X-25.55 Z-8 I-0.3
G1 X-25.7
G17 G3 X-26 Y-10 J-0.3
X-24 I1 F1000
X-26 I-1
X-25.7 Y-10.3 I0.3
G1 X-25.55
G18 G2 X-25.25 Z-7.7 K0.3
G0 Z5
Y-9.7
Z-7
G1 Z-8.7 F500
G3 X-25.55 Z-9 I-0.3
G1 X-25.7
G17 G3 X-26 Y-10 J-0.3
X-24 I1 F1000
X-26 I-1
X-25.7 Y-10.3 I0.3
G1 X-25.55
G18 G2 X-25.25 Z-8.7 K0.3
G0 Z5
X-15.25 Y-29.9
Z0
G1 Z-1.7 F500
G3 X-15.55 Z-2 I-0.3
G1 X-15.7
G17 G3 X-16 Y-30.2 J-0.3
X-14 I1 F1000
X-16 I-1
X-15.7 Y-30.5 I0.3
G1 X-15.55
G18 G2 X-15.25 Z-1.7 K0.3
G0 Z5
Y-29.9
Z-1
G1 Z-2.7 F500
G3 X-15.55 Z-3 I-0.3
G1 X-15.7
G17 G3 X-16 Y-30.2 J-0.3
X-14 I1 F1000
X-16 I-1
X-15.7 Y-30.5 I0.3
G1 X-15.55
G18 G2 X-15.25 Z-2.7 K0.3
G0 Z5
Y-29.9
Z-2
G1 Z-3.7 F500
G3 X-15.55 Z-4 I-0.3
G1 X-15.7
G17 G3 X-16 Y-30.2 J-0.3
X-14 I1 F1000
X-16 I-1
X-15.7 Y-30.5 I0.3
G1 X-15.55
G18 G2 X-15.25 Z-3.7 K0.3
G0 Z5
Y-29.9
Z-3
G1 Z-4.7 F500
G3 X-15.55 Z-5 I-0.3
G1 X-15.7
G17 G3 X-16 Y-30.2 J-0.3
X-14 I1 F1000
X-16 I-1
X-15.7 Y-30.5 I0.3
G1 X-15.55
G18 G2 X-15.25 Z-4.7 K0.3
G0 Z5
Y-29.9
Z-4
G1 Z-5.7 F500
G3 X-15.55 Z-6 I-0.3
G1 X-15.7
G17 G3 X-16 Y-30.2 J-0.3
X-14 I1 F1000
X-16 I-1
X-15.7 Y-30.5 I0.3
G1 X-15.55
G18 G2 X-15.25 Z-5.7 K0.3
G0 Z5
Y-29.9
Z-5
G1 Z-6.7 F500
G3 X-15.55 Z-7 I-0.3
G1 X-15.7
G17 G3 X-16 Y-30.2 J-0.3
X-14 I1 F1000
X-16 I-1
X-15.7 Y-30.5 I0.3
G1 X-15.55
G18 G2 X-15.25 Z-6.7 K0.3
G0 Z5
Y-29.9
Z-6
G1 Z-7.7 F500
G3 X-15.55 Z-8 I-0.3
G1 X-15.7
G17 G3 X-16 Y-30.2 J-0.3
X-14 I1 F1000
X-16 I-1
X-15.7 Y-30.5 I0.3
G1 X-15.55
G18 G2 X-15.25 Z-7.7 K0.3
G0 Z5
Y-29.9
Z-7
G1 Z-8.7 F500
G3 X-15.55 Z-9 I-0.3
G1 X-15.7
G17 G3 X-16 Y-30.2 J-0.3
X-14 I1 F1000
X-16 I-1
X-15.7 Y-30.5 I0.3
G1 X-15.55
G18 G2 X-15.25 Z-8.7 K0.3
G0 Z5
X-30.25 Y-49.2
Z0
G1 Z-1.7 F500
G3 X-30.55 Z-2 I-0.3
G1 X-30.7
G17 G3 X-31 Y-49.5 J-0.3
X-29 I1 F1000
X-31 I-1
X-30.7 Y-49.8 I0.3
G1 X-30.55
G18 G2 X-30.25 Z-1.7 K0.3
G0 Z5
Y-49.2
Z-1
G1 Z-2.7 F500
G3 X-30.55 Z-3 I-0.3
G1 X-30.7
G17 G3 X-31 Y-49.5 J-0.3
X-29 I1 F1000
X-31 I-1
X-30.7 Y-49.8 I0.3
G1 X-30.55
G18 G2 X-30.25 Z-2.7 K0.3
G0 Z5
Y-49.2
Z-2
G1 Z-3.7 F500
G3 X-30.55 Z-4 I-0.3
G1 X-30.7
G17 G3 X-31 Y-49.5 J-0.3
X-29 I1 F1000
X-31 I-1
X-30.7 Y-49.8 I0.3
G1 X-30.55
G18 G2 X-30.25 Z-3.7 K0.3
G0 Z5
Y-49.2
Z-3
G1 Z-4.7 F500
G3 X-30.55 Z-5 I-0.3
G1 X-30.7
G17 G3 X-31 Y-49.5 J-0.3
X-29 I1 F1000
X-31 I-1
X-30.7 Y-49.8 I0.3
G1 X-30.55
G18 G2 X-30.25 Z-4.7 K0.3
G0 Z5
Y-49.2
Z-4
G1 Z-5.7 F500
G3 X-30.55 Z-6 I-0.3
G1 X-30.7
G17 G3 X-31 Y-49.5 J-0.3
X-29 I1 F1000
X-31 I-1
X-30.7 Y-49.8 I0.3
G1 X-30.55
G18 G2 X-30.25 Z-5.7 K0.3
G0 Z5
Y-49.2
Z-5
G1 Z-6.7 F500
G3 X-30.55 Z-7 I-0.3
G1 X-30.7
G17 G3 X-31 Y-49.5 J-0.3
X-29 I1 F1000
X-31 I-1
X-30.7 Y-49.8 I0.3
G1 X-30.55
G18 G2 X-30.25 Z-6.7 K0.3
G0 Z5
Y-49.2
Z-6
G1 Z-7.7 F500
G3 X-30.55 Z-8 I-0.3
G1 X-30.7
G17 G3 X-31 Y-49.5 J-0.3
X-29 I1 F1000
X-31 I-1
X-30.7 Y-49.8 I0.3
G1 X-30.55
G18 G2 X-30.25 Z-7.7 K0.3
G0 Z5
Y-49.2
Z-7
G1 Z-8.7 F500
G3 X-30.55 Z-9 I-0.3
G1 X-30.7
G17 G3 X-31 Y-49.5 J-0.3
X-29 I1 F1000
X-31 I-1
X-30.7 Y-49.8 I0.3
G1 X-30.55
G18 G2 X-30.25 Z-8.7 K0.3
G0 Z5
X-10.25 Y-49.2
Z0
G1 Z-1.7 F500
G3 X-10.55 Z-2 I-0.3
G1 X-10.7
G17 G3 X-11 Y-49.5 J-0.3
X-9 I1 F1000
X-11 I-1
X-10.7 Y-49.8 I0.3
G1 X-10.55
G18 G2 X-10.25 Z-1.7 K0.3
G0 Z5
Y-49.2
Z-1
G1 Z-2.7 F500
G3 X-10.55 Z-3 I-0.3
G1 X-10.7
G17 G3 X-11 Y-49.5 J-0.3
X-9 I1 F1000
X-11 I-1
X-10.7 Y-49.8 I0.3
G1 X-10.55
G18 G2 X-10.25 Z-2.7 K0.3
G0 Z5
Y-49.2
Z-2
G1 Z-3.7 F500
G3 X-10.55 Z-4 I-0.3
G1 X-10.7
G17 G3 X-11 Y-49.5 J-0.3
X-9 I1 F1000
X-11 I-1
X-10.7 Y-49.8 I0.3
G1 X-10.55
G18 G2 X-10.25 Z-3.7 K0.3
G0 Z5
Y-49.2
Z-3
G1 Z-4.7 F500
G3 X-10.55 Z-5 I-0.3
G1 X-10.7
G17 G3 X-11 Y-49.5 J-0.3
X-9 I1 F1000
X-11 I-1
X-10.7 Y-49.8 I0.3
G1 X-10.55
G18 G2 X-10.25 Z-4.7 K0.3
G0 Z5
Y-49.2
Z-4
G1 Z-5.7 F500
G3 X-10.55 Z-6 I-0.3
G1 X-10.7
G17 G3 X-11 Y-49.5 J-0.3
X-9 I1 F1000
X-11 I-1
X-10.7 Y-49.8 I0.3
G1 X-10.55
G18 G2 X-10.25 Z-5.7 K0.3
G0 Z5
Y-49.2
Z-5
G1 Z-6.7 F500
G3 X-10.55 Z-7 I-0.3
G1 X-10.7
G17 G3 X-11 Y-49.5 J-0.3
X-9 I1 F1000
X-11 I-1
X-10.7 Y-49.8 I0.3
G1 X-10.55
G18 G2 X-10.25 Z-6.7 K0.3
G0 Z5
Y-49.2
Z-6
G1 Z-7.7 F500
G3 X-10.55 Z-8 I-0.3
G1 X-10.7
G17 G3 X-11 Y-49.5 J-0.3
X-9 I1 F1000
X-11 I-1
X-10.7 Y-49.8 I0.3
G1 X-10.55
G18 G2 X-10.25 Z-7.7 K0.3
G0 Z5
Y-49.2
Z-7
G1 Z-8.7 F500
G3 X-10.55 Z-9 I-0.3
G1 X-10.7
G17 G3 X-11 Y-49.5 J-0.3
X-9 I1 F1000
X-11 I-1
X-10.7 Y-49.8 I0.3
G1 X-10.55
G18 G2 X-10.25 Z-8.7 K0.3
G0 Z5
X9.75 Y-49.2
Z0
G1 Z-1.7 F500
G3 X9.45 Z-2 I-0.3
G1 X9.3
G17 G3 X9 Y-49.5 J-0.3
X11 I1 F1000
X9 I-1
X9.3 Y-49.8 I0.3
G1 X9.45
G18 G2 X9.75 Z-1.7 K0.3
G0 Z5
Y-49.2
Z-1
G1 Z-2.7 F500
G3 X9.45 Z-3 I-0.3
G1 X9.3
G17 G3 X9 Y-49.5 J-0.3
X11 I1 F1000
X9 I-1
X9.3 Y-49.8 I0.3
G1 X9.45
G18 G2 X9.75 Z-2.7 K0.3
G0 Z5
Y-49.2
Z-2
G1 Z-3.7 F500
G3 X9.45 Z-4 I-0.3
G1 X9.3
G17 G3 X9 Y-49.5 J-0.3
X11 I1 F1000
X9 I-1
X9.3 Y-49.8 I0.3
G1 X9.45
G18 G2 X9.75 Z-3.7 K0.3
G0 Z5
Y-49.2
Z-3
G1 Z-4.7 F500
G3 X9.45 Z-5 I-0.3
G1 X9.3
G17 G3 X9 Y-49.5 J-0.3
X11 I1 F1000
X9 I-1
X9.3 Y-49.8 I0.3
G1 X9.45
G18 G2 X9.75 Z-4.7 K0.3
G0 Z5
Y-49.2
Z-4
G1 Z-5.7 F500
G3 X9.45 Z-6 I-0.3
G1 X9.3
G17 G3 X9 Y-49.5 J-0.3
X11 I1 F1000
X9 I-1
X9.3 Y-49.8 I0.3
G1 X9.45
G18 G2 X9.75 Z-5.7 K0.3
G0 Z5
Y-49.2
Z-5
G1 Z-6.7 F500
G3 X9.45 Z-7 I-0.3
G1 X9.3
G17 G3 X9 Y-49.5 J-0.3
X11 I1 F1000
X9 I-1
X9.3 Y-49.8 I0.3
G1 X9.45
G18 G2 X9.75 Z-6.7 K0.3
G0 Z5
Y-49.2
Z-6
G1 Z-7.7 F500
G3 X9.45 Z-8 I-0.3
G1 X9.3
G17 G3 X9 Y-49.5 J-0.3
X11 I1 F1000
X9 I-1
X9.3 Y-49.8 I0.3
G1 X9.45
G18 G2 X9.75 Z-7.7 K0.3
G0 Z5
Y-49.2
Z-7
G1 Z-8.7 F500
G3 X9.45 Z-9 I-0.3
G1 X9.3
G17 G3 X9 Y-49.5 J-0.3
X11 I1 F1000
X9 I-1
X9.3 Y-49.8 I0.3
G1 X9.45
G18 G2 X9.75 Z-8.7 K0.3
G0 Z5
X29.75 Y-49.2
Z0
G1 Z-1.7 F500
G3 X29.45 Z-2 I-0.3
G1 X29.3
G17 G3 X29 Y-49.5 J-0.3
X31 I1 F1000
X29 I-1
X29.3 Y-49.8 I0.3
G1 X29.45
G18 G2 X29.75 Z-1.7 K0.3
G0 Z5
Y-49.2
Z-1
G1 Z-2.7 F500
G3 X29.45 Z-3 I-0.3
G1 X29.3
G17 G3 X29 Y-49.5 J-0.3
X31 I1 F1000
X29 I-1
X29.3 Y-49.8 I0.3
G1 X29.45
G18 G2 X29.75 Z-2.7 K0.3
G0 Z5
Y-49.2
Z-2
G1 Z-3.7 F500
G3 X29.45 Z-4 I-0.3
G1 X29.3
G17 G3 X29 Y-49.5 J-0.3
X31 I1 F1000
X29 I-1
X29.3 Y-49.8 I0.3
G1 X29.45
G18 G2 X29.75 Z-3.7 K0.3
G0 Z5
Y-49.2
Z-3
G1 Z-4.7 F500
G3 X29.45 Z-5 I-0.3
G1 X29.3
G17 G3 X29 Y-49.5 J-0.3
X31 I1 F1000
X29 I-1
X29.3 Y-49.8 I0.3
G1 X29.45
G18 G2 X29.75 Z-4.7 K0.3
G0 Z5
Y-49.2
Z-4
G1 Z-5.7 F500
G3 X29.45 Z-6 I-0.3
G1 X29.3
G17 G3 X29 Y-49.5 J-0.3
X31 I1 F1000
X29 I-1
X29.3 Y-49.8 I0.3
G1 X29.45
G18 G2 X29.75 Z-5.7 K0.3
G0 Z5
Y-49.2
Z-5
G1 Z-6.7 F500
G3 X29.45 Z-7 I-0.3
G1 X29.3
G17 G3 X29 Y-49.5 J-0.3
X31 I1 F1000
X29 I-1
X29.3 Y-49.8 I0.3
G1 X29.45
G18 G2 X29.75 Z-6.7 K0.3
G0 Z5
Y-49.2
Z-6
G1 Z-7.7 F500
G3 X29.45 Z-8 I-0.3
G1 X29.3
G17 G3 X29 Y-49.5 J-0.3
X31 I1 F1000
X29 I-1
X29.3 Y-49.8 I0.3
G1 X29.45
G18 G2 X29.75 Z-7.7 K0.3
G0 Z5
Y-49.2
Z-7
G1 Z-8.7 F500
G3 X29.45 Z-9 I-0.3
G1 X29.3
G17 G3 X29 Y-49.5 J-0.3
X31 I1 F1000
X29 I-1
X29.3 Y-49.8 I0.3
G1 X29.45
G18 G2 X29.75 Z-8.7 K0.3
G0 Z5
X14.75 Y-29.9
Z0
G1 Z-1.7 F500
G3 X14.45 Z-2 I-0.3
G1 X14.3
G17 G3 X14 Y-30.2 J-0.3
X16 I1 F1000
X14 I-1
X14.3 Y-30.5 I0.3
G1 X14.45
G18 G2 X14.75 Z-1.7 K0.3
G0 Z5
Y-29.9
Z-1
G1 Z-2.7 F500
G3 X14.45 Z-3 I-0.3
G1 X14.3
G17 G3 X14 Y-30.2 J-0.3
X16 I1 F1000
X14 I-1
X14.3 Y-30.5 I0.3
G1 X14.45
G18 G2 X14.75 Z-2.7 K0.3
G0 Z5
Y-29.9
Z-2
G1 Z-3.7 F500
G3 X14.45 Z-4 I-0.3
G1 X14.3
G17 G3 X14 Y-30.2 J-0.3
X16 I1 F1000
X14 I-1
X14.3 Y-30.5 I0.3
G1 X14.45
G18 G2 X14.75 Z-3.7 K0.3
G0 Z5
Y-29.9
Z-3
G1 Z-4.7 F500
G3 X14.45 Z-5 I-0.3
G1 X14.3
G17 G3 X14 Y-30.2 J-0.3
X16 I1 F1000
X14 I-1
X14.3 Y-30.5 I0.3
G1 X14.45
G18 G2 X14.75 Z-4.7 K0.3
G0 Z5
Y-29.9
Z-4
G1 Z-5.7 F500
G3 X14.45 Z-6 I-0.3
G1 X14.3
G17 G3 X14 Y-30.2 J-0.3
X16 I1 F1000
X14 I-1
X14.3 Y-30.5 I0.3
G1 X14.45
G18 G2 X14.75 Z-5.7 K0.3
G0 Z5
Y-29.9
Z-5
G1 Z-6.7 F500
G3 X14.45 Z-7 I-0.3
G1 X14.3
G17 G3 X14 Y-30.2 J-0.3
X16 I1 F1000
X14 I-1
X14.3 Y-30.5 I0.3
G1 X14.45
G18 G2 X14.75 Z-6.7 K0.3
G0 Z5
Y-29.9
Z-6
G1 Z-7.7 F500
G3 X14.45 Z-8 I-0.3
G1 X14.3
G17 G3 X14 Y-30.2 J-0.3
X16 I1 F1000
X14 I-1
X14.3 Y-30.5 I0.3
G1 X14.45
G18 G2 X14.75 Z-7.7 K0.3
G0 Z5
Y-29.9
Z-7
G1 Z-8.7 F500
G3 X14.45 Z-9 I-0.3
G1 X14.3
G17 G3 X14 Y-30.2 J-0.3
X16 I1 F1000
X14 I-1
X14.3 Y-30.5 I0.3
G1 X14.45
G18 G2 X14.75 Z-8.7 K0.3
G0 Z5
X59.75 Y-49.2
Z0
G1 Z-1.7 F500
G3 X59.45 Z-2 I-0.3
G1 X59.3
G17 G3 X59 Y-49.5 J-0.3
X61 I1 F1000
X59 I-1
X59.3 Y-49.8 I0.3
G1 X59.45
G18 G2 X59.75 Z-1.7 K0.3
G0 Z5
Y-49.2
Z-1
G1 Z-2.7 F500
G3 X59.45 Z-3 I-0.3
G1 X59.3
G17 G3 X59 Y-49.5 J-0.3
X61 I1 F1000
X59 I-1
X59.3 Y-49.8 I0.3
G1 X59.45
G18 G2 X59.75 Z-2.7 K0.3
G0 Z5
Y-49.2
Z-2
G1 Z-3.7 F500
G3 X59.45 Z-4 I-0.3
G1 X59.3
G17 G3 X59 Y-49.5 J-0.3
X61 I1 F1000
X59 I-1
X59.3 Y-49.8 I0.3
G1 X59.45
G18 G2 X59.75 Z-3.7 K0.3
G0 Z5
Y-49.2
Z-3
G1 Z-4.7 F500
G3 X59.45 Z-5 I-0.3
G1 X59.3
G17 G3 X59 Y-49.5 J-0.3
X61 I1 F1000
X59 I-1
X59.3 Y-49.8 I0.3
G1 X59.45
G18 G2 X59.75 Z-4.7 K0.3
G0 Z5
Y-49.2
Z-4
G1 Z-5.7 F500
G3 X59.45 Z-6 I-0.3
G1 X59.3
G17 G3 X59 Y-49.5 J-0.3
X61 I1 F1000
X59 I-1
X59.3 Y-49.8 I0.3
G1 X59.45
G18 G2 X59.75 Z-5.7 K0.3
G0 Z5
Y-49.2
Z-5
G1 Z-6.7 F500
G3 X59.45 Z-7 I-0.3
G1 X59.3
G17 G3 X59 Y-49.5 J-0.3
X61 I1 F1000
X59 I-1
X59.3 Y-49.8 I0.3
G1 X59.45
G18 G2 X59.75 Z-6.7 K0.3
G0 Z5
Y-49.2
Z-6
G1 Z-7.7 F500
G3 X59.45 Z-8 I-0.3
G1 X59.3
G17 G3 X59 Y-49.5 J-0.3
X61 I1 F1000
X59 I-1
X59.3 Y-49.8 I0.3
G1 X59.45
G18 G2 X59.75 Z-7.7 K0.3
G0 Z5
Y-49.2
Z-7
G1 Z-8.7 F500
G3 X59.45 Z-9 I-0.3
G1 X59.3
G17 G3 X59 Y-49.5 J-0.3
X61 I1 F1000
X59 I-1
X59.3 Y-49.8 I0.3
G1 X59.45
G18 G2 X59.75 Z-8.7 K0.3
G0 Z5
X79.75 Y-49.2
Z0
G1 Z-1.7 F500
G3 X79.45 Z-2 I-0.3
G1 X79.3
G17 G3 X79 Y-49.5 J-0.3
X81 I1 F1000
X79 I-1
X79.3 Y-49.8 I0.3
G1 X79.45
G18 G2 X79.75 Z-1.7 K0.3
G0 Z5
Y-49.2
Z-1
G1 Z-2.7 F500
G3 X79.45 Z-3 I-0.3
G1 X79.3
G17 G3 X79 Y-49.5 J-0.3
X81 I1 F1000
X79 I-1
X79.3 Y-49.8 I0.3
G1 X79.45
G18 G2 X79.75 Z-2.7 K0.3
G0 Z5
Y-49.2
Z-2
G1 Z-3.7 F500
G3 X79.45 Z-4 I-0.3
G1 X79.3
G17 G3 X79 Y-49.5 J-0.3
X81 I1 F1000
X79 I-1
X79.3 Y-49.8 I0.3
G1 X79.45
G18 G2 X79.75 Z-3.7 K0.3
G0 Z5
Y-49.2
Z-3
G1 Z-4.7 F500
G3 X79.45 Z-5 I-0.3
G1 X79.3
G17 G3 X79 Y-49.5 J-0.3
X81 I1 F1000
X79 I-1
X79.3 Y-49.8 I0.3
G1 X79.45
G18 G2 X79.75 Z-4.7 K0.3
G0 Z5
Y-49.2
Z-4
G1 Z-5.7 F500
G3 X79.45 Z-6 I-0.3
G1 X79.3
G17 G3 X79 Y-49.5 J-0.3
X81 I1 F1000
X79 I-1
X79.3 Y-49.8 I0.3
G1 X79.45
G18 G2 X79.75 Z-5.7 K0.3
G0 Z5
Y-49.2
Z-5
G1 Z-6.7 F500
G3 X79.45 Z-7 I-0.3
G1 X79.3
G17 G3 X79 Y-49.5 J-0.3
X81 I1 F1000
X79 I-1
X79.3 Y-49.8 I0.3
G1 X79.45
G18 G2 X79.75 Z-6.7 K0.3
G0 Z5
Y-49.2
Z-6
G1 Z-7.7 F500
G3 X79.45 Z-8 I-0.3
G1 X79.3
G17 G3 X79 Y-49.5 J-0.3
X81 I1 F1000
X79 I-1
X79.3 Y-49.8 I0.3
G1 X79.45
G18 G2 X79.75 Z-7.7 K0.3
G0 Z5
Y-49.2
Z-7
G1 Z-8.7 F500
G3 X79.45 Z-9 I-0.3
G1 X79.3
G17 G3 X79 Y-49.5 J-0.3
X81 I1 F1000
X79 I-1
X79.3 Y-49.8 I0.3
G1 X79.45
G18 G2 X79.75 Z-8.7 K0.3
G0 Z5
X74.75 Y-29.9
Z0
G1 Z-1.7 F500
G3 X74.45 Z-2 I-0.3
G1 X74.3
G17 G3 X74 Y-30.2 J-0.3
X76 I1 F1000
X74 I-1
X74.3 Y-30.5 I0.3
G1 X74.45
G18 G2 X74.75 Z-1.7 K0.3
G0 Z5
Y-29.9
Z-1
G1 Z-2.7 F500
G3 X74.45 Z-3 I-0.3
G1 X74.3
G17 G3 X74 Y-30.2 J-0.3
X76 I1 F1000
X74 I-1
X74.3 Y-30.5 I0.3
G1 X74.45
G18 G2 X74.75 Z-2.7 K0.3
G0 Z5
Y-29.9
Z-2
G1 Z-3.7 F500
G3 X74.45 Z-4 I-0.3
G1 X74.3
G17 G3 X74 Y-30.2 J-0.3
X76 I1 F1000
X74 I-1
X74.3 Y-30.5 I0.3
G1 X74.45
G18 G2 X74.75 Z-3.7 K0.3
G0 Z5
Y-29.9
Z-3
G1 Z-4.7 F500
G3 X74.45 Z-5 I-0.3
G1 X74.3
G17 G3 X74 Y-30.2 J-0.3
X76 I1 F1000
X74 I-1
X74.3 Y-30.5 I0.3
G1 X74.45
G18 G2 X74.75 Z-4.7 K0.3
G0 Z5
Y-29.9
Z-4
G1 Z-5.7 F500
G3 X74.45 Z-6 I-0.3
G1 X74.3
G17 G3 X74 Y-30.2 J-0.3
X76 I1 F1000
X74 I-1
X74.3 Y-30.5 I0.3
G1 X74.45
G18 G2 X74.75 Z-5.7 K0.3
G0 Z5
Y-29.9
Z-5
G1 Z-6.7 F500
G3 X74.45 Z-7 I-0.3
G1 X74.3
G17 G3 X74 Y-30.2 J-0.3
X76 I1 F1000
X74 I-1
X74.3 Y-30.5 I0.3
G1 X74.45
G18 G2 X74.75 Z-6.7 K0.3
G0 Z5
Y-29.9
Z-6
G1 Z-7.7 F500
G3 X74.45 Z-8 I-0.3
G1 X74.3
G17 G3 X74 Y-30.2 J-0.3
X76 I1 F1000
X74 I-1
X74.3 Y-30.5 I0.3
G1 X74.45
G18 G2 X74.75 Z-7.7 K0.3
G0 Z5
Y-29.9
Z-7
G1 Z-8.7 F500
G3 X74.45 Z-9 I-0.3
G1 X74.3
G17 G3 X74 Y-30.2 J-0.3
X76 I1 F1000
X74 I-1
X74.3 Y-30.5 I0.3
G1 X74.45
G18 G2 X74.75 Z-8.7 K0.3
G0 Z5
X64.75 Y-9.7
Z0
G1 Z-1.7 F500
G3 X64.45 Z-2 I-0.3
G1 X64.3
G17 G3 X64 Y-10 J-0.3
X66 I1 F1000
X64 I-1
X64.3 Y-10.3 I0.3
G1 X64.45
G18 G2 X64.75 Z-1.7 K0.3
G0 Z5
Y-9.7
Z-1
G1 Z-2.7 F500
G3 X64.45 Z-3 I-0.3
G1 X64.3
G17 G3 X64 Y-10 J-0.3
X66 I1 F1000
X64 I-1
X64.3 Y-10.3 I0.3
G1 X64.45
G18 G2 X64.75 Z-2.7 K0.3
G0 Z5
Y-9.7
Z-2
G1 Z-3.7 F500
G3 X64.45 Z-4 I-0.3
G1 X64.3
G17 G3 X64 Y-10 J-0.3
X66 I1 F1000
X64 I-1
X64.3 Y-10.3 I0.3
G1 X64.45
G18 G2 X64.75 Z-3.7 K0.3
G0 Z5
Y-9.7
Z-3
G1 Z-4.7 F500
G3 X64.45 Z-5 I-0.3
G1 X64.3
G17 G3 X64 Y-10 J-0.3
X66 I1 F1000
X64 I-1
X64.3 Y-10.3 I0.3
G1 X64.45
G18 G2 X64.75 Z-4.7 K0.3
G0 Z5
Y-9.7
Z-4
G1 Z-5.7 F500
G3 X64.45 Z-6 I-0.3
G1 X64.3
G17 G3 X64 Y-10 J-0.3
X66 I1 F1000
X64 I-1
X64.3 Y-10.3 I0.3
G1 X64.45
G18 G2 X64.75 Z-5.7 K0.3
G0 Z5
Y-9.7
Z-5
G1 Z-6.7 F500
G3 X64.45 Z-7 I-0.3
G1 X64.3
G17 G3 X64 Y-10 J-0.3
X66 I1 F1000
X64 I-1
X64.3 Y-10.3 I0.3
G1 X64.45
G18 G2 X64.75 Z-6.7 K0.3
G0 Z5
Y-9.7
Z-6
G1 Z-7.7 F500
G3 X64.45 Z-8 I-0.3
G1 X64.3
G17 G3 X64 Y-10 J-0.3
X66 I1 F1000
X64 I-1
X64.3 Y-10.3 I0.3
G1 X64.45
G18 G2 X64.75 Z-7.7 K0.3
G0 Z5
Y-9.7
Z-7
G1 Z-8.7 F500
G3 X64.45 Z-9 I-0.3
G1 X64.3
G17 G3 X64 Y-10 J-0.3
X66 I1 F1000
X64 I-1
X64.3 Y-10.3 I0.3
G1 X64.45
G18 G2 X64.75 Z-8.7 K0.3
G0 Z5
X54.75 Y-9.7
Z0
G1 Z-1.7 F500
G3 X54.45 Z-2 I-0.3
G1 X54.3
G17 G3 X54 Y-10 J-0.3
X56 I1 F1000
X54 I-1
X54.3 Y-10.3 I0.3
G1 X54.45
G18 G2 X54.75 Z-1.7 K0.3
G0 Z5
Y-9.7
Z-1
G1 Z-2.7 F500
G3 X54.45 Z-3 I-0.3
G1 X54.3
G17 G3 X54 Y-10 J-0.3
X56 I1 F1000
X54 I-1
X54.3 Y-10.3 I0.3
G1 X54.45
G18 G2 X54.75 Z-2.7 K0.3
G0 Z5
Y-9.7
Z-2
G1 Z-3.7 F500
G3 X54.45 Z-4 I-0.3
G1 X54.3
G17 G3 X54 Y-10 J-0.3
X56 I1 F1000
X54 I-1
X54.3 Y-10.3 I0.3
G1 X54.45
G18 G2 X54.75 Z-3.7 K0.3
G0 Z5
Y-9.7
Z-3
G1 Z-4.7 F500
G3 X54.45 Z-5 I-0.3
G1 X54.3
G17 G3 X54 Y-10 J-0.3
X56 I1 F1000
X54 I-1
X54.3 Y-10.3 I0.3
G1 X54.45
G18 G2 X54.75 Z-4.7 K0.3
G0 Z5
Y-9.7
Z-4
G1 Z-5.7 F500
G3 X54.45 Z-6 I-0.3
G1 X54.3
G17 G3 X54 Y-10 J-0.3
X56 I1 F1000
X54 I-1
X54.3 Y-10.3 I0.3
G1 X54.45
G18 G2 X54.75 Z-5.7 K0.3
G0 Z5
Y-9.7
Z-5
G1 Z-6.7 F500
G3 X54.45 Z-7 I-0.3
G1 X54.3
G17 G3 X54 Y-10 J-0.3
X56 I1 F1000
X54 I-1
X54.3 Y-10.3 I0.3
G1 X54.45
G18 G2 X54.75 Z-6.7 K0.3
G0 Z5
Y-9.7
Z-6
G1 Z-7.7 F500
G3 X54.45 Z-8 I-0.3
G1 X54.3
G17 G3 X54 Y-10 J-0.3
X56 I1 F1000
X54 I-1
X54.3 Y-10.3 I0.3
G1 X54.45
G18 G2 X54.75 Z-7.7 K0.3
G0 Z5
Y-9.7
Z-7
G1 Z-8.7 F500
G3 X54.45 Z-9 I-0.3
G1 X54.3
G17 G3 X54 Y-10 J-0.3
X56 I1 F1000
X54 I-1
X54.3 Y-10.3 I0.3
G1 X54.45
G18 G2 X54.75 Z-8.7 K0.3
G0 Z5
Y-19.7
Z0
G1 Z-1.7 F500
G3 X54.45 Z-2 I-0.3
G1 X54.3
G17 G3 X54 Y-20 J-0.3
X56 I1 F1000
X54 I-1
X54.3 Y-20.3 I0.3
G1 X54.45
G18 G2 X54.75 Z-1.7 K0.3
G0 Z5
Y-19.7
Z-1
G1 Z-2.7 F500
G3 X54.45 Z-3 I-0.3
G1 X54.3
G17 G3 X54 Y-20 J-0.3
X56 I1 F1000
X54 I-1
X54.3 Y-20.3 I0.3
G1 X54.45
G18 G2 X54.75 Z-2.7 K0.3
G0 Z5
Y-19.7
Z-2
G1 Z-3.7 F500
G3 X54.45 Z-4 I-0.3
G1 X54.3
G17 G3 X54 Y-20 J-0.3
X56 I1 F1000
X54 I-1
X54.3 Y-20.3 I0.3
G1 X54.45
G18 G2 X54.75 Z-3.7 K0.3
G0 Z5
Y-19.7
Z-3
G1 Z-4.7 F500
G3 X54.45 Z-5 I-0.3
G1 X54.3
G17 G3 X54 Y-20 J-0.3
X56 I1 F1000
X54 I-1
X54.3 Y-20.3 I0.3
G1 X54.45
G18 G2 X54.75 Z-4.7 K0.3
G0 Z5
Y-19.7
Z-4
G1 Z-5.7 F500
G3 X54.45 Z-6 I-0.3
G1 X54.3
G17 G3 X54 Y-20 J-0.3
X56 I1 F1000
X54 I-1
X54.3 Y-20.3 I0.3
G1 X54.45
G18 G2 X54.75 Z-5.7 K0.3
G0 Z5
Y-19.7
Z-5
G1 Z-6.7 F500
G3 X54.45 Z-7 I-0.3
G1 X54.3
G17 G3 X54 Y-20 J-0.3
X56 I1 F1000
X54 I-1
X54.3 Y-20.3 I0.3
G1 X54.45
G18 G2 X54.75 Z-6.7 K0.3
G0 Z5
Y-19.7
Z-6
G1 Z-7.7 F500
G3 X54.45 Z-8 I-0.3
G1 X54.3
G17 G3 X54 Y-20 J-0.3
X56 I1 F1000
X54 I-1
X54.3 Y-20.3 I0.3
G1 X54.45
G18 G2 X54.75 Z-7.7 K0.3
G0 Z5
Y-19.7
Z-7
G1 Z-8.7 F500
G3 X54.45 Z-9 I-0.3
G1 X54.3
G17 G3 X54 Y-20 J-0.3
X56 I1 F1000
X54 I-1
X54.3 Y-20.3 I0.3
G1 X54.45
G18 G2 X54.75 Z-8.7 K0.3
G0 Z5
X34.75 Y-19.7
Z0
G1 Z-1.7 F500
G3 X34.45 Z-2 I-0.3
G1 X34.3
G17 G3 X34 Y-20 J-0.3
X36 I1 F1000
X34 I-1
X34.3 Y-20.3 I0.3
G1 X34.45
G18 G2 X34.75 Z-1.7 K0.3
G0 Z5
Y-19.7
Z-1
G1 Z-2.7 F500
G3 X34.45 Z-3 I-0.3
G1 X34.3
G17 G3 X34 Y-20 J-0.3
X36 I1 F1000
X34 I-1
X34.3 Y-20.3 I0.3
G1 X34.45
G18 G2 X34.75 Z-2.7 K0.3
G0 Z5
Y-19.7
Z-2
G1 Z-3.7 F500
G3 X34.45 Z-4 I-0.3
G1 X34.3
G17 G3 X34 Y-20 J-0.3
X36 I1 F1000
X34 I-1
X34.3 Y-20.3 I0.3
G1 X34.45
G18 G2 X34.75 Z-3.7 K0.3
G0 Z5
Y-19.7
Z-3
G1 Z-4.7 F500
G3 X34.45 Z-5 I-0.3
G1 X34.3
G17 G3 X34 Y-20 J-0.3
X36 I1 F1000
X34 I-1
X34.3 Y-20.3 I0.3
G1 X34.45
G18 G2 X34.75 Z-4.7 K0.3
G0 Z5
Y-19.7
Z-4
G1 Z-5.7 F500
G3 X34.45 Z-6 I-0.3
G1 X34.3
G17 G3 X34 Y-20 J-0.3
X36 I1 F1000
X34 I-1
X34.3 Y-20.3 I0.3
G1 X34.45
G18 G2 X34.75 Z-5.7 K0.3
G0 Z5
Y-19.7
Z-5
G1 Z-6.7 F500
G3 X34.45 Z-7 I-0.3
G1 X34.3
G17 G3 X34 Y-20 J-0.3
X36 I1 F1000
X34 I-1
X34.3 Y-20.3 I0.3
G1 X34.45
G18 G2 X34.75 Z-6.7 K0.3
G0 Z5
Y-19.7
Z-6
G1 Z-7.7 F500
G3 X34.45 Z-8 I-0.3
G1 X34.3
G17 G3 X34 Y-20 J-0.3
X36 I1 F1000
X34 I-1
X34.3 Y-20.3 I0.3
G1 X34.45
G18 G2 X34.75 Z-7.7 K0.3
G0 Z5
Y-19.7
Z-7
G1 Z-8.7 F500
G3 X34.45 Z-9 I-0.3
G1 X34.3
G17 G3 X34 Y-20 J-0.3
X36 I1 F1000
X34 I-1
X34.3 Y-20.3 I0.3
G1 X34.45
G18 G2 X34.75 Z-8.7 K0.3
G0 Z5
Y-9.7
Z0
G1 Z-1.7 F500
G3 X34.45 Z-2 I-0.3
G1 X34.3
G17 G3 X34 Y-10 J-0.3
X36 I1 F1000
X34 I-1
X34.3 Y-10.3 I0.3
G1 X34.45
G18 G2 X34.75 Z-1.7 K0.3
G0 Z5
Y-9.7
Z-1
G1 Z-2.7 F500
G3 X34.45 Z-3 I-0.3
G1 X34.3
G17 G3 X34 Y-10 J-0.3
X36 I1 F1000
X34 I-1
X34.3 Y-10.3 I0.3
G1 X34.45
G18 G2 X34.75 Z-2.7 K0.3
G0 Z5
Y-9.7
Z-2
G1 Z-3.7 F500
G3 X34.45 Z-4 I-0.3
G1 X34.3
G17 G3 X34 Y-10 J-0.3
X36 I1 F1000
X34 I-1
X34.3 Y-10.3 I0.3
G1 X34.45
G18 G2 X34.75 Z-3.7 K0.3
G0 Z5
Y-9.7
Z-3
G1 Z-4.7 F500
G3 X34.45 Z-5 I-0.3
G1 X34.3
G17 G3 X34 Y-10 J-0.3
X36 I1 F1000
X34 I-1
X34.3 Y-10.3 I0.3
G1 X34.45
G18 G2 X34.75 Z-4.7 K0.3
G0 Z5
Y-9.7
Z-4
G1 Z-5.7 F500
G3 X34.45 Z-6 I-0.3
G1 X34.3
G17 G3 X34 Y-10 J-0.3
X36 I1 F1000
X34 I-1
X34.3 Y-10.3 I0.3
G1 X34.45
G18 G2 X34.75 Z-5.7 K0.3
G0 Z5
Y-9.7
Z-5
G1 Z-6.7 F500
G3 X34.45 Z-7 I-0.3
G1 X34.3
G17 G3 X34 Y-10 J-0.3
X36 I1 F1000
X34 I-1
X34.3 Y-10.3 I0.3
G1 X34.45
G18 G2 X34.75 Z-6.7 K0.3
G0 Z5
Y-9.7
Z-6
G1 Z-7.7 F500
G3 X34.45 Z-8 I-0.3
G1 X34.3
G17 G3 X34 Y-10 J-0.3
X36 I1 F1000
X34 I-1
X34.3 Y-10.3 I0.3
G1 X34.45
G18 G2 X34.75 Z-7.7 K0.3
G0 Z5
Y-9.7
Z-7
G1 Z-8.7 F500
G3 X34.45 Z-9 I-0.3
G1 X34.3
G17 G3 X34 Y-10 J-0.3
X36 I1 F1000
X34 I-1
X34.3 Y-10.3 I0.3
G1 X34.45
G18 G2 X34.75 Z-8.7 K0.3
G0 Z5
X24.75 Y-9.7
Z0
G1 Z-1.7 F500
G3 X24.45 Z-2 I-0.3
G1 X24.3
G17 G3 X24 Y-10 J-0.3
X26 I1 F1000
X24 I-1
X24.3 Y-10.3 I0.3
G1 X24.45
G18 G2 X24.75 Z-1.7 K0.3
G0 Z5
Y-9.7
Z-1
G1 Z-2.7 F500
G3 X24.45 Z-3 I-0.3
G1 X24.3
G17 G3 X24 Y-10 J-0.3
X26 I1 F1000
X24 I-1
X24.3 Y-10.3 I0.3
G1 X24.45
G18 G2 X24.75 Z-2.7 K0.3
G0 Z5
Y-9.7
Z-2
G1 Z-3.7 F500
G3 X24.45 Z-4 I-0.3
G1 X24.3
G17 G3 X24 Y-10 J-0.3
X26 I1 F1000
X24 I-1
X24.3 Y-10.3 I0.3
G1 X24.45
G18 G2 X24.75 Z-3.7 K0.3
G0 Z5
Y-9.7
Z-3
G1 Z-4.7 F500
G3 X24.45 Z-5 I-0.3
G1 X24.3
G17 G3 X24 Y-10 J-0.3
X26 I1 F1000
X24 I-1
X24.3 Y-10.3 I0.3
G1 X24.45
G18 G2 X24.75 Z-4.7 K0.3
G0 Z5
Y-9.7
Z-4
G1 Z-5.7 F500
G3 X24.45 Z-6 I-0.3
G1 X24.3
G17 G3 X24 Y-10 J-0.3
X26 I1 F1000
X24 I-1
X24.3 Y-10.3 I0.3
G1 X24.45
G18 G2 X24.75 Z-5.7 K0.3
G0 Z5
Y-9.7
Z-5
G1 Z-6.7 F500
G3 X24.45 Z-7 I-0.3
G1 X24.3
G17 G3 X24 Y-10 J-0.3
X26 I1 F1000
X24 I-1
X24.3 Y-10.3 I0.3
G1 X24.45
G18 G2 X24.75 Z-6.7 K0.3
G0 Z5
Y-9.7
Z-6
G1 Z-7.7 F500
G3 X24.45 Z-8 I-0.3
G1 X24.3
G17 G3 X24 Y-10 J-0.3
X26 I1 F1000
X24 I-1
X24.3 Y-10.3 I0.3
G1 X24.45
G18 G2 X24.75 Z-7.7 K0.3
G0 Z5
Y-9.7
Z-7
G1 Z-8.7 F500
G3 X24.45 Z-9 I-0.3
G1 X24.3
G17 G3 X24 Y-10 J-0.3
X26 I1 F1000
X24 I-1
X24.3 Y-10.3 I0.3
G1 X24.45
G18 G2 X24.75 Z-8.7 K0.3
G0 Z5
Y10.3
Z0
G1 Z-1.7 F500
G3 X24.45 Z-2 I-0.3
G1 X24.3
G17 G3 X24 Y10 J-0.3
X26 I1 F1000
X24 I-1
X24.3 Y9.7 I0.3
G1 X24.45
G18 G2 X24.75 Z-1.7 K0.3
G0 Z5
Y10.3
Z-1
G1 Z-2.7 F500
G3 X24.45 Z-3 I-0.3
G1 X24.3
G17 G3 X24 Y10 J-0.3
X26 I1 F1000
X24 I-1
X24.3 Y9.7 I0.3
G1 X24.45
G18 G2 X24.75 Z-2.7 K0.3
G0 Z5
Y10.3
Z-2
G1 Z-3.7 F500
G3 X24.45 Z-4 I-0.3
G1 X24.3
G17 G3 X24 Y10 J-0.3
X26 I1 F1000
X24 I-1
X24.3 Y9.7 I0.3
G1 X24.45
G18 G2 X24.75 Z-3.7 K0.3
G0 Z5
Y10.3
Z-3
G1 Z-4.7 F500
G3 X24.45 Z-5 I-0.3
G1 X24.3
G17 G3 X24 Y10 J-0.3
X26 I1 F1000
X24 I-1
X24.3 Y9.7 I0.3
G1 X24.45
G18 G2 X24.75 Z-4.7 K0.3
G0 Z5
Y10.3
Z-4
G1 Z-5.7 F500
G3 X24.45 Z-6 I-0.3
G1 X24.3
G17 G3 X24 Y10 J-0.3
X26 I1 F1000
X24 I-1
X24.3 Y9.7 I0.3
G1 X24.45
G18 G2 X24.75 Z-5.7 K0.3
G0 Z5
Y10.3
Z-5
G1 Z-6.7 F500
G3 X24.45 Z-7 I-0.3
G1 X24.3
G17 G3 X24 Y10 J-0.3
X26 I1 F1000
X24 I-1
X24.3 Y9.7 I0.3
G1 X24.45
G18 G2 X24.75 Z-6.7 K0.3
G0 Z5
Y10.3
Z-6
G1 Z-7.7 F500
G3 X24.45 Z-8 I-0.3
G1 X24.3
G17 G3 X24 Y10 J-0.3
X26 I1 F1000
X24 I-1
X24.3 Y9.7 I0.3
G1 X24.45
G18 G2 X24.75 Z-7.7 K0.3
G0 Z5
Y10.3
Z-7
G1 Z-8.7 F500
G3 X24.45 Z-9 I-0.3
G1 X24.3
G17 G3 X24 Y10 J-0.3
X26 I1 F1000
X24 I-1
X24.3 Y9.7 I0.3
G1 X24.45
G18 G2 X24.75 Z-8.7 K0.3
G0 Z5
X34.75 Y10.3
Z0
G1 Z-1.7 F500
G3 X34.45 Z-2 I-0.3
G1 X34.3
G17 G3 X34 Y10 J-0.3
X36 I1 F1000
X34 I-1
X34.3 Y9.7 I0.3
G1 X34.45
G18 G2 X34.75 Z-1.7 K0.3
G0 Z5
Y10.3
Z-1
G1 Z-2.7 F500
G3 X34.45 Z-3 I-0.3
G1 X34.3
G17 G3 X34 Y10 J-0.3
X36 I1 F1000
X34 I-1
X34.3 Y9.7 I0.3
G1 X34.45
G18 G2 X34.75 Z-2.7 K0.3
G0 Z5
Y10.3
Z-2
G1 Z-3.7 F500
G3 X34.45 Z-4 I-0.3
G1 X34.3
G17 G3 X34 Y10 J-0.3
X36 I1 F1000
X34 I-1
X34.3 Y9.7 I0.3
G1 X34.45
G18 G2 X34.75 Z-3.7 K0.3
G0 Z5
Y10.3
Z-3
G1 Z-4.7 F500
G3 X34.45 Z-5 I-0.3
G1 X34.3
G17 G3 X34 Y10 J-0.3
X36 I1 F1000
X34 I-1
X34.3 Y9.7 I0.3
G1 X34.45
G18 G2 X34.75 Z-4.7 K0.3
G0 Z5
Y10.3
Z-4
G1 Z-5.7 F500
G3 X34.45 Z-6 I-0.3
G1 X34.3
G17 G3 X34 Y10 J-0.3
X36 I1 F1000
X34 I-1
X34.3 Y9.7 I0.3
G1 X34.45
G18 G2 X34.75 Z-5.7 K0.3
G0 Z5
Y10.3
Z-5
G1 Z-6.7 F500
G3 X34.45 Z-7 I-0.3
G1 X34.3
G17 G3 X34 Y10 J-0.3
X36 I1 F1000
X34 I-1
X34.3 Y9.7 I0.3
G1 X34.45
G18 G2 X34.75 Z-6.7 K0.3
G0 Z5
Y10.3
Z-6
G1 Z-7.7 F500
G3 X34.45 Z-8 I-0.3
G1 X34.3
G17 G3 X34 Y10 J-0.3
X36 I1 F1000
X34 I-1
X34.3 Y9.7 I0.3
G1 X34.45
G18 G2 X34.75 Z-7.7 K0.3
G0 Z5
Y10.3
Z-7
G1 Z-8.7 F500
G3 X34.45 Z-9 I-0.3
G1 X34.3
G17 G3 X34 Y10 J-0.3
X36 I1 F1000
X34 I-1
X34.3 Y9.7 I0.3
G1 X34.45
G18 G2 X34.75 Z-8.7 K0.3
G0 Z5
Y20.3
Z0
G1 Z-1.7 F500
G3 X34.45 Z-2 I-0.3
G1 X34.3
G17 G3 X34 Y20 J-0.3
X36 I1 F1000
X34 I-1
X34.3 Y19.7 I0.3
G1 X34.45
G18 G2 X34.75 Z-1.7 K0.3
G0 Z5
Y20.3
Z-1
G1 Z-2.7 F500
G3 X34.45 Z-3 I-0.3
G1 X34.3
G17 G3 X34 Y20 J-0.3
X36 I1 F1000
X34 I-1
X34.3 Y19.7 I0.3
G1 X34.45
G18 G2 X34.75 Z-2.7 K0.3
G0 Z5
Y20.3
Z-2
G1 Z-3.7 F500
G3 X34.45 Z-4 I-0.3
G1 X34.3
G17 G3 X34 Y20 J-0.3
X36 I1 F1000
X34 I-1
X34.3 Y19.7 I0.3
G1 X34.45
G18 G2 X34.75 Z-3.7 K0.3
G0 Z5
Y20.3
Z-3
G1 Z-4.7 F500
G3 X34.45 Z-5 I-0.3
G1 X34.3
G17 G3 X34 Y20 J-0.3
X36 I1 F1000
X34 I-1
X34.3 Y19.7 I0.3
G1 X34.45
G18 G2 X34.75 Z-4.7 K0.3
G0 Z5
Y20.3
Z-4
G1 Z-5.7 F500
G3 X34.45 Z-6 I-0.3
G1 X34.3
G17 G3 X34 Y20 J-0.3
X36 I1 F1000
X34 I-1
X34.3 Y19.7 I0.3
G1 X34.45
G18 G2 X34.75 Z-5.7 K0.3
G0 Z5
Y20.3
Z-5
G1 Z-6.7 F500
G3 X34.45 Z-7 I-0.3
G1 X34.3
G17 G3 X34 Y20 J-0.3
X36 I1 F1000
X34 I-1
X34.3 Y19.7 I0.3
G1 X34.45
G18 G2 X34.75 Z-6.7 K0.3
G0 Z5
Y20.3
Z-6
G1 Z-7.7 F500
G3 X34.45 Z-8 I-0.3
G1 X34.3
G17 G3 X34 Y20 J-0.3
X36 I1 F1000
X34 I-1
X34.3 Y19.7 I0.3
G1 X34.45
G18 G2 X34.75 Z-7.7 K0.3
G0 Z5
Y20.3
Z-7
G1 Z-8.7 F500
G3 X34.45 Z-9 I-0.3
G1 X34.3
G17 G3 X34 Y20 J-0.3
X36 I1 F1000
X34 I-1
X34.3 Y19.7 I0.3
G1 X34.45
G18 G2 X34.75 Z-8.7 K0.3
G0 Z5
X54.75 Y20.3
Z0
G1 Z-1.7 F500
G3 X54.45 Z-2 I-0.3
G1 X54.3
G17 G3 X54 Y20 J-0.3
X56 I1 F1000
X54 I-1
X54.3 Y19.7 I0.3
G1 X54.45
G18 G2 X54.75 Z-1.7 K0.3
G0 Z5
Y20.3
Z-1
G1 Z-2.7 F500
G3 X54.45 Z-3 I-0.3
G1 X54.3
G17 G3 X54 Y20 J-0.3
X56 I1 F1000
X54 I-1
X54.3 Y19.7 I0.3
G1 X54.45
G18 G2 X54.75 Z-2.7 K0.3
G0 Z5
Y20.3
Z-2
G1 Z-3.7 F500
G3 X54.45 Z-4 I-0.3
G1 X54.3
G17 G3 X54 Y20 J-0.3
X56 I1 F1000
X54 I-1
X54.3 Y19.7 I0.3
G1 X54.45
G18 G2 X54.75 Z-3.7 K0.3
G0 Z5
Y20.3
Z-3
G1 Z-4.7 F500
G3 X54.45 Z-5 I-0.3
G1 X54.3
G17 G3 X54 Y20 J-0.3
X56 I1 F1000
X54 I-1
X54.3 Y19.7 I0.3
G1 X54.45
G18 G2 X54.75 Z-4.7 K0.3
G0 Z5
Y20.3
Z-4
G1 Z-5.7 F500
G3 X54.45 Z-6 I-0.3
G1 X54.3
G17 G3 X54 Y20 J-0.3
X56 I1 F1000
X54 I-1
X54.3 Y19.7 I0.3
G1 X54.45
G18 G2 X54.75 Z-5.7 K0.3
G0 Z5
Y20.3
Z-5
G1 Z-6.7 F500
G3 X54.45 Z-7 I-0.3
G1 X54.3
G17 G3 X54 Y20 J-0.3
X56 I1 F1000
X54 I-1
X54.3 Y19.7 I0.3
G1 X54.45
G18 G2 X54.75 Z-6.7 K0.3
G0 Z5
Y20.3
Z-6
G1 Z-7.7 F500
G3 X54.45 Z-8 I-0.3
G1 X54.3
G17 G3 X54 Y20 J-0.3
X56 I1 F1000
X54 I-1
X54.3 Y19.7 I0.3
G1 X54.45
G18 G2 X54.75 Z-7.7 K0.3
G0 Z5
Y20.3
Z-7
G1 Z-8.7 F500
G3 X54.45 Z-9 I-0.3
G1 X54.3
G17 G3 X54 Y20 J-0.3
X56 I1 F1000
X54 I-1
X54.3 Y19.7 I0.3
G1 X54.45
G18 G2 X54.75 Z-8.7 K0.3
G0 Z5
Y10.3
Z0
G1 Z-1.7 F500
G3 X54.45 Z-2 I-0.3
G1 X54.3
G17 G3 X54 Y10 J-0.3
X56 I1 F1000
X54 I-1
X54.3 Y9.7 I0.3
G1 X54.45
G18 G2 X54.75 Z-1.7 K0.3
G0 Z5
Y10.3
Z-1
G1 Z-2.7 F500
G3 X54.45 Z-3 I-0.3
G1 X54.3
G17 G3 X54 Y10 J-0.3
X56 I1 F1000
X54 I-1
X54.3 Y9.7 I0.3
G1 X54.45
G18 G2 X54.75 Z-2.7 K0.3
G0 Z5
Y10.3
Z-2
G1 Z-3.7 F500
G3 X54.45 Z-4 I-0.3
G1 X54.3
G17 G3 X54 Y10 J-0.3
X56 I1 F1000
X54 I-1
X54.3 Y9.7 I0.3
G1 X54.45
G18 G2 X54.75 Z-3.7 K0.3
G0 Z5
Y10.3
Z-3
G1 Z-4.7 F500
G3 X54.45 Z-5 I-0.3
G1 X54.3
G17 G3 X54 Y10 J-0.3
X56 I1 F1000
X54 I-1
X54.3 Y9.7 I0.3
G1 X54.45
G18 G2 X54.75 Z-4.7 K0.3
G0 Z5
Y10.3
Z-4
G1 Z-5.7 F500
G3 X54.45 Z-6 I-0.3
G1 X54.3
G17 G3 X54 Y10 J-0.3
X56 I1 F1000
X54 I-1
X54.3 Y9.7 I0.3
G1 X54.45
G18 G2 X54.75 Z-5.7 K0.3
G0 Z5
Y10.3
Z-5
G1 Z-6.7 F500
G3 X54.45 Z-7 I-0.3
G1 X54.3
G17 G3 X54 Y10 J-0.3
X56 I1 F1000
X54 I-1
X54.3 Y9.7 I0.3
G1 X54.45
G18 G2 X54.75 Z-6.7 K0.3
G0 Z5
Y10.3
Z-6
G1 Z-7.7 F500
G3 X54.45 Z-8 I-0.3
G1 X54.3
G17 G3 X54 Y10 J-0.3
X56 I1 F1000
X54 I-1
X54.3 Y9.7 I0.3
G1 X54.45
G18 G2 X54.75 Z-7.7 K0.3
G0 Z5
Y10.3
Z-7
G1 Z-8.7 F500
G3 X54.45 Z-9 I-0.3
G1 X54.3
G17 G3 X54 Y10 J-0.3
X56 I1 F1000
X54 I-1
X54.3 Y9.7 I0.3
G1 X54.45
G18 G2 X54.75 Z-8.7 K0.3
G0 Z5
X64.75 Y10.3
Z0
G1 Z-1.7 F500
G3 X64.45 Z-2 I-0.3
G1 X64.3
G17 G3 X64 Y10 J-0.3
X66 I1 F1000
X64 I-1
X64.3 Y9.7 I0.3
G1 X64.45
G18 G2 X64.75 Z-1.7 K0.3
G0 Z5
Y10.3
Z-1
G1 Z-2.7 F500
G3 X64.45 Z-3 I-0.3
G1 X64.3
G17 G3 X64 Y10 J-0.3
X66 I1 F1000
X64 I-1
X64.3 Y9.7 I0.3
G1 X64.45
G18 G2 X64.75 Z-2.7 K0.3
G0 Z5
Y10.3
Z-2
G1 Z-3.7 F500
G3 X64.45 Z-4 I-0.3
G1 X64.3
G17 G3 X64 Y10 J-0.3
X66 I1 F1000
X64 I-1
X64.3 Y9.7 I0.3
G1 X64.45
G18 G2 X64.75 Z-3.7 K0.3
G0 Z5
Y10.3
Z-3
G1 Z-4.7 F500
G3 X64.45 Z-5 I-0.3
G1 X64.3
G17 G3 X64 Y10 J-0.3
X66 I1 F1000
X64 I-1
X64.3 Y9.7 I0.3
G1 X64.45
G18 G2 X64.75 Z-4.7 K0.3
G0 Z5
Y10.3
Z-4
G1 Z-5.7 F500
G3 X64.45 Z-6 I-0.3
G1 X64.3
G17 G3 X64 Y10 J-0.3
X66 I1 F1000
X64 I-1
X64.3 Y9.7 I0.3
G1 X64.45
G18 G2 X64.75 Z-5.7 K0.3
G0 Z5
Y10.3
Z-5
G1 Z-6.7 F500
G3 X64.45 Z-7 I-0.3
G1 X64.3
G17 G3 X64 Y10 J-0.3
X66 I1 F1000
X64 I-1
X64.3 Y9.7 I0.3
G1 X64.45
G18 G2 X64.75 Z-6.7 K0.3
G0 Z5
Y10.3
Z-6
G1 Z-7.7 F500
G3 X64.45 Z-8 I-0.3
G1 X64.3
G17 G3 X64 Y10 J-0.3
X66 I1 F1000
X64 I-1
X64.3 Y9.7 I0.3
G1 X64.45
G18 G2 X64.75 Z-7.7 K0.3
G0 Z5
Y10.3
Z-7
G1 Z-8.7 F500
G3 X64.45 Z-9 I-0.3
G1 X64.3
G17 G3 X64 Y10 J-0.3
X66 I1 F1000
X64 I-1
X64.3 Y9.7 I0.3
G1 X64.45
G18 G2 X64.75 Z-8.7 K0.3
G0 Z5
X74.75 Y30.5
Z0
G1 Z-1.7 F500
G3 X74.45 Z-2 I-0.3
G1 X74.3
G17 G3 X74 Y30.2 J-0.3
X76 I1 F1000
X74 I-1
X74.3 Y29.9 I0.3
G1 X74.45
G18 G2 X74.75 Z-1.7 K0.3
G0 Z5
Y30.5
Z-1
G1 Z-2.7 F500
G3 X74.45 Z-3 I-0.3
G1 X74.3
G17 G3 X74 Y30.2 J-0.3
X76 I1 F1000
X74 I-1
X74.3 Y29.9 I0.3
G1 X74.45
G18 G2 X74.75 Z-2.7 K0.3
G0 Z5
Y30.5
Z-2
G1 Z-3.7 F500
G3 X74.45 Z-4 I-0.3
G1 X74.3
G17 G3 X74 Y30.2 J-0.3
X76 I1 F1000
X74 I-1
X74.3 Y29.9 I0.3
G1 X74.45
G18 G2 X74.75 Z-3.7 K0.3
G0 Z5
Y30.5
Z-3
G1 Z-4.7 F500
G3 X74.45 Z-5 I-0.3
G1 X74.3
G17 G3 X74 Y30.2 J-0.3
X76 I1 F1000
X74 I-1
X74.3 Y29.9 I0.3
G1 X74.45
G18 G2 X74.75 Z-4.7 K0.3
G0 Z5
Y30.5
Z-4
G1 Z-5.7 F500
G3 X74.45 Z-6 I-0.3
G1 X74.3
G17 G3 X74 Y30.2 J-0.3
X76 I1 F1000
X74 I-1
X74.3 Y29.9 I0.3
G1 X74.45
G18 G2 X74.75 Z-5.7 K0.3
G0 Z5
Y30.5
Z-5
G1 Z-6.7 F500
G3 X74.45 Z-7 I-0.3
G1 X74.3
G17 G3 X74 Y30.2 J-0.3
X76 I1 F1000
X74 I-1
X74.3 Y29.9 I0.3
G1 X74.45
G18 G2 X74.75 Z-6.7 K0.3
G0 Z5
Y30.5
Z-6
G1 Z-7.7 F500
G3 X74.45 Z-8 I-0.3
G1 X74.3
G17 G3 X74 Y30.2 J-0.3
X76 I1 F1000
X74 I-1
X74.3 Y29.9 I0.3
G1 X74.45
G18 G2 X74.75 Z-7.7 K0.3
G0 Z5
Y30.5
Z-7
G1 Z-8.7 F500
G3 X74.45 Z-9 I-0.3
G1 X74.3
G17 G3 X74 Y30.2 J-0.3
X76 I1 F1000
X74 I-1
X74.3 Y29.9 I0.3
G1 X74.45
G18 G2 X74.75 Z-8.7 K0.3
G0 Z5
X79.75 Y49.8
Z0
G1 Z-1.7 F500
G3 X79.45 Z-2 I-0.3
G1 X79.3
G17 G3 X79 Y49.5 J-0.3
X81 I1 F1000
X79 I-1
X79.3 Y49.2 I0.3
G1 X79.45
G18 G2 X79.75 Z-1.7 K0.3
G0 Z5
Y49.8
Z-1
G1 Z-2.7 F500
G3 X79.45 Z-3 I-0.3
G1 X79.3
G17 G3 X79 Y49.5 J-0.3
X81 I1 F1000
X79 I-1
X79.3 Y49.2 I0.3
G1 X79.45
G18 G2 X79.75 Z-2.7 K0.3
G0 Z5
Y49.8
Z-2
G1 Z-3.7 F500
G3 X79.45 Z-4 I-0.3
G1 X79.3
G17 G3 X79 Y49.5 J-0.3
X81 I1 F1000
X79 I-1
X79.3 Y49.2 I0.3
G1 X79.45
G18 G2 X79.75 Z-3.7 K0.3
G0 Z5
Y49.8
Z-3
G1 Z-4.7 F500
G3 X79.45 Z-5 I-0.3
G1 X79.3
G17 G3 X79 Y49.5 J-0.3
X81 I1 F1000
X79 I-1
X79.3 Y49.2 I0.3
G1 X79.45
G18 G2 X79.75 Z-4.7 K0.3
G0 Z5
Y49.8
Z-4
G1 Z-5.7 F500
G3 X79.45 Z-6 I-0.3
G1 X79.3
G17 G3 X79 Y49.5 J-0.3
X81 I1 F1000
X79 I-1
X79.3 Y49.2 I0.3
G1 X79.45
G18 G2 X79.75 Z-5.7 K0.3
G0 Z5
Y49.8
Z-5
G1 Z-6.7 F500
G3 X79.45 Z-7 I-0.3
G1 X79.3
G17 G3 X79 Y49.5 J-0.3
X81 I1 F1000
X79 I-1
X79.3 Y49.2 I0.3
G1 X79.45
G18 G2 X79.75 Z-6.7 K0.3
G0 Z5
Y49.8
Z-6
G1 Z-7.7 F500
G3 X79.45 Z-8 I-0.3
G1 X79.3
G17 G3 X79 Y49.5 J-0.3
X81 I1 F1000
X79 I-1
X79.3 Y49.2 I0.3
G1 X79.45
G18 G2 X79.75 Z-7.7 K0.3
G0 Z5
Y49.8
Z-7
G1 Z-8.7 F500
G3 X79.45 Z-9 I-0.3
G1 X79.3
G17 G3 X79 Y49.5 J-0.3
X81 I1 F1000
X79 I-1
X79.3 Y49.2 I0.3
G1 X79.45
G18 G2 X79.75 Z-8.7 K0.3
G0 Z5
X59.75 Y49.8
Z0
G1 Z-1.7 F500
G3 X59.45 Z-2 I-0.3
G1 X59.3
G17 G3 X59 Y49.5 J-0.3
X61 I1 F1000
X59 I-1
X59.3 Y49.2 I0.3
G1 X59.45
G18 G2 X59.75 Z-1.7 K0.3
G0 Z5
Y49.8
Z-1
G1 Z-2.7 F500
G3 X59.45 Z-3 I-0.3
G1 X59.3
G17 G3 X59 Y49.5 J-0.3
X61 I1 F1000
X59 I-1
X59.3 Y49.2 I0.3
G1 X59.45
G18 G2 X59.75 Z-2.7 K0.3
G0 Z5
Y49.8
Z-2
G1 Z-3.7 F500
G3 X59.45 Z-4 I-0.3
G1 X59.3
G17 G3 X59 Y49.5 J-0.3
X61 I1 F1000
X59 I-1
X59.3 Y49.2 I0.3
G1 X59.45
G18 G2 X59.75 Z-3.7 K0.3
G0 Z5
Y49.8
Z-3
G1 Z-4.7 F500
G3 X59.45 Z-5 I-0.3
G1 X59.3
G17 G3 X59 Y49.5 J-0.3
X61 I1 F1000
X59 I-1
X59.3 Y49.2 I0.3
G1 X59.45
G18 G2 X59.75 Z-4.7 K0.3
G0 Z5
Y49.8
Z-4
G1 Z-5.7 F500
G3 X59.45 Z-6 I-0.3
G1 X59.3
G17 G3 X59 Y49.5 J-0.3
X61 I1 F1000
X59 I-1
X59.3 Y49.2 I0.3
G1 X59.45
G18 G2 X59.75 Z-5.7 K0.3
G0 Z5
Y49.8
Z-5
G1 Z-6.7 F500
G3 X59.45 Z-7 I-0.3
G1 X59.3
G17 G3 X59 Y49.5 J-0.3
X61 I1 F1000
X59 I-1
X59.3 Y49.2 I0.3
G1 X59.45
G18 G2 X59.75 Z-6.7 K0.3
G0 Z5
Y49.8
Z-6
G1 Z-7.7 F500
G3 X59.45 Z-8 I-0.3
G1 X59.3
G17 G3 X59 Y49.5 J-0.3
X61 I1 F1000
X59 I-1
X59.3 Y49.2 I0.3
G1 X59.45
G18 G2 X59.75 Z-7.7 K0.3
G0 Z5
Y49.8
Z-7
G1 Z-8.7 F500
G3 X59.45 Z-9 I-0.3
G1 X59.3
G17 G3 X59 Y49.5 J-0.3
X61 I1 F1000
X59 I-1
X59.3 Y49.2 I0.3
G1 X59.45
G18 G2 X59.75 Z-8.7 K0.3
G0 Z10
G17

(2D Contour2)
M8
G0 X0.4 Y53.24
Z10
Z5
G1 Z2 F500
Z-0.7
G18 G3 X0.1 Z-1 I-0.3
G1 X-0.2
G17 G3 X-0.5 Y52.94 J-0.3
G1 Y-54.5 F1000
G2 X-2 Y-56 I-1.5
G1 X-88
G2 X-89.5 Y-54.5 J1.5
G1 Y54.5
G2 X-88 Y56 I1.5
G1 X-2
G2 X-0.5 Y54.5 J-1.5
G1 Y52.94
G3 X-0.2 Y52.64 I0.3
G1 X0.1
G18 G2 X0.4 Z-0.7 K0.3
G0 Z5
X-0.4 Y-54.8
G1 Z2 F500
Z-0.7
G2 X-0.1 Z-1 I0.3
G1 X0.2
G17 G3 X0.5 Y-54.5 J0.3
G1 Y54.5 F1000
G2 X2 Y56 I1.5
G1 X88
G2 X89.5 Y54.5 J-1.5
G1 Y-54.5
G2 X88 Y-56 I-1.5
G1 X2
G2 X0.5 Y-54.5 J1.5
G3 X0.2 Y-54.2 I-0.3
G1 X-0.1
G18 G3 X-0.4 Z-0.7 K0.3
G0 Z5
X0.4 Y53.24
G1 Z1 F500
Z-1.7
G3 X0.1 Z-2 I-0.3
G1 X-0.2
G17 G3 X-0.5 Y52.94 J-0.3
G1 Y-54.5 F1000
G2 X-2 Y-56 I-1.5
G1 X-88
G2 X-89.5 Y-54.5 J1.5
G1 Y54.5
G2 X-88 Y56 I1.5
G1 X-2
G2 X-0.5 Y54.5 J-1.5
G1 Y52.94
G3 X-0.2 Y52.64 I0.3
G1 X0.1
G18 G2 X0.4 Z-1.7 K0.3
G0 Z5
X-0.4 Y-54.8
G1 Z1 F500
Z-1.7
G2 X-0.1 Z-2 I0.3
G1 X0.2
G17 G3 X0.5 Y-54.5 J0.3
G1 Y54.5 F1000
G2 X2 Y56 I1.5
G1 X88
G2 X89.5 Y54.5 J-1.5
G1 Y-54.5
G2 X88 Y-56 I-1.5
G1 X2
G2 X0.5 Y-54.5 J1.5
G3 X0.2 Y-54.2 I-0.3
G1 X-0.1
G18 G3 X-0.4 Z-1.7 K0.3
G0 Z5
X0.4 Y53.24
G1 Z0 F500
Z-2.7
G3 X0.1 Z-3 I-0.3
G1 X-0.2
G17 G3 X-0.5 Y52.94 J-0.3
G1 Y-54.5 F1000
G2 X-2 Y-56 I-1.5
G1 X-88
G2 X-89.5 Y-54.5 J1.5
G1 Y54.5
G2 X-88 Y56 I1.5
G1 X-2
G2 X-0.5 Y54.5 J-1.5
G1 Y52.94
G3 X-0.2 Y52.64 I0.3
G1 X0.1
G18 G2 X0.4 Z-2.7 K0.3
G0 Z5
X-0.4 Y-54.8
G1 Z0 F500
Z-2.7
G2 X-0.1 Z-3 I0.3
G1 X0.2
G17 G3 X0.5 Y-54.5 J0.3
G1 Y54.5 F1000
G2 X2 Y56 I1.5
G1 X88
G2 X89.5 Y54.5 J-1.5
G1 Y-54.5
G2 X88 Y-56 I-1.5
G1 X2
G2 X0.5 Y-54.5 J1.5
G3 X0.2 Y-54.2 I-0.3
G1 X-0.1
G18 G3 X-0.4 Z-2.7 K0.3
G0 Z5
X0.4 Y53.24
G1 Z-1 F500
Z-3.7
G3 X0.1 Z-4 I-0.3
G1 X-0.2
G17 G3 X-0.5 Y52.94 J-0.3
G1 Y-54.5 F1000
G2 X-2 Y-56 I-1.5
G1 X-88
G2 X-89.5 Y-54.5 J1.5
G1 Y54.5
G2 X-88 Y56 I1.5
G1 X-2
G2 X-0.5 Y54.5 J-1.5
G1 Y52.94
G3 X-0.2 Y52.64 I0.3
G1 X0.1
G18 G2 X0.4 Z-3.7 K0.3
G0 Z5
X-0.4 Y-54.8
G1 Z-1 F500
Z-3.7
G2 X-0.1 Z-4 I0.3
G1 X0.2
G17 G3 X0.5 Y-54.5 J0.3
G1 Y54.5 F1000
G2 X2 Y56 I1.5
G1 X88
G2 X89.5 Y54.5 J-1.5
G1 Y-54.5
G2 X88 Y-56 I-1.5
G1 X2
G2 X0.5 Y-54.5 J1.5
G3 X0.2 Y-54.2 I-0.3
G1 X-0.1
G18 G3 X-0.4 Z-3.7 K0.3
G0 Z5
X0.4 Y53.24
G1 Z-2 F500
Z-4.7
G3 X0.1 Z-5 I-0.3
G1 X-0.2
G17 G3 X-0.5 Y52.94 J-0.3
G1 Y-54.5 F1000
G2 X-2 Y-56 I-1.5
G1 X-88
G2 X-89.5 Y-54.5 J1.5
G1 Y54.5
G2 X-88 Y56 I1.5
G1 X-2
G2 X-0.5 Y54.5 J-1.5
G1 Y52.94
G3 X-0.2 Y52.64 I0.3
G1 X0.1
G18 G2 X0.4 Z-4.7 K0.3
G0 Z5
X-0.4 Y-54.8
G1 Z-2 F500
Z-4.7
G2 X-0.1 Z-5 I0.3
G1 X0.2
G17 G3 X0.5 Y-54.5 J0.3
G1 Y54.5 F1000
G2 X2 Y56 I1.5
G1 X88
G2 X89.5 Y54.5 J-1.5
G1 Y-54.5
G2 X88 Y-56 I-1.5
G1 X2
G2 X0.5 Y-54.5 J1.5
G3 X0.2 Y-54.2 I-0.3
G1 X-0.1
G18 G3 X-0.4 Z-4.7 K0.3
G0 Z5
X0.4 Y53.24
G1 Z-3 F500
Z-5.7
G3 X0.1 Z-6 I-0.3
G1 X-0.2
G17 G3 X-0.5 Y52.94 J-0.3
G1 Y-54.5 F1000
G2 X-2 Y-56 I-1.5
G1 X-88
G2 X-89.5 Y-54.5 J1.5
G1 Y54.5
G2 X-88 Y56 I1.5
G1 X-2
G2 X-0.5 Y54.5 J-1.5
G1 Y52.94
G3 X-0.2 Y52.64 I0.3
G1 X0.1
G18 G2 X0.4 Z-5.7 K0.3
G0 Z5
X-0.4 Y-54.8
G1 Z-3 F500
Z-5.7
G2 X-0.1 Z-6 I0.3
G1 X0.2
G17 G3 X0.5 Y-54.5 J0.3
G1 Y54.5 F1000
G2 X2 Y56 I1.5
G1 X88
G2 X89.5 Y54.5 J-1.5
G1 Y-54.5
G2 X88 Y-56 I-1.5
G1 X2
G2 X0.5 Y-54.5 J1.5
G3 X0.2 Y-54.2 I-0.3
G1 X-0.1
G18 G3 X-0.4 Z-5.7 K0.3
G0 Z5
X0.4 Y53.24
G1 Z-4 F500
Z-6.7
G3 X0.1 Z-7 I-0.3
G1 X-0.2
G17 G3 X-0.5 Y52.94 J-0.3
G1 Y-54.5 F1000
G2 X-2 Y-56 I-1.5
G1 X-88
G2 X-89.5 Y-54.5 J1.5
G1 Y54.5
G2 X-88 Y56 I1.5
G1 X-2
G2 X-0.5 Y54.5 J-1.5
G1 Y52.94
G3 X-0.2 Y52.64 I0.3
G1 X0.1
G18 G2 X0.4 Z-6.7 K0.3
G0 Z5
X-0.4 Y-54.8
G1 Z-4 F500
Z-6.7
G2 X-0.1 Z-7 I0.3
G1 X0.2
G17 G3 X0.5 Y-54.5 J0.3
G1 Y54.5 F1000
G2 X2 Y56 I1.5
G1 X88
G2 X89.5 Y54.5 J-1.5
G1 Y-54.5
G2 X88 Y-56 I-1.5
G1 X2
G2 X0.5 Y-54.5 J1.5
G3 X0.2 Y-54.2 I-0.3
G1 X-0.1
G18 G3 X-0.4 Z-6.7 K0.3
G0 Z5
X0.4 Y53.24
G1 Z-5 F500
Z-7.7
G3 X0.1 Z-8 I-0.3
G1 X-0.2
G17 G3 X-0.5 Y52.94 J-0.3
G1 Y-54.5 F1000
G2 X-2 Y-56 I-1.5
G1 X-88
G2 X-89.5 Y-54.5 J1.5
G1 Y54.5
G2 X-88 Y56 I1.5
G1 X-2
G2 X-0.5 Y54.5 J-1.5
G1 Y52.94
G3 X-0.2 Y52.64 I0.3
G1 X0.1
G18 G2 X0.4 Z-7.7 K0.3
G0 Z5
X-0.4 Y-54.8
G1 Z-5 F500
Z-7.7
G2 X-0.1 Z-8 I0.3
G1 X0.2
G17 G3 X0.5 Y-54.5 J0.3
G1 Y54.5 F1000
G2 X2 Y56 I1.5
G1 X88
G2 X89.5 Y54.5 J-1.5
G1 Y-54.5
G2 X88 Y-56 I-1.5
G1 X2
G2 X0.5 Y-54.5 J1.5
G3 X0.2 Y-54.2 I-0.3
G1 X-0.1
G18 G3 X-0.4 Z-7.7 K0.3
G0 Z5
X0.4 Y53.24
G1 Z-6 F500
Z-8.7
G3 X0.1 Z-9 I-0.3
G1 X-0.2
G17 G3 X-0.5 Y52.94 J-0.3
G1 Y-54.5 F1000
G2 X-2 Y-56 I-1.5
G1 X-88
G2 X-89.5 Y-54.5 J1.5
G1 Y54.5
G2 X-88 Y56 I1.5
G1 X-2
G2 X-0.5 Y54.5 J-1.5
G1 Y52.94
G3 X-0.2 Y52.64 I0.3
G1 X0.1
G18 G2 X0.4 Z-8.7 K0.3
G0 Z5
X-0.4 Y-54.8
G1 Z-6 F500
Z-8.7
G2 X-0.1 Z-9 I0.3
G1 X0.2
G17 G3 X0.5 Y-54.5 J0.3
G1 Y54.5 F1000
G2 X2 Y56 I1.5
G1 X88
G2 X89.5 Y54.5 J-1.5
G1 Y-54.5
G2 X88 Y-56 I-1.5
G1 X2
G2 X0.5 Y-54.5 J1.5
G3 X0.2 Y-54.2 I-0.3
G1 X-0.1
G18 G3 X-0.4 Z-8.7 K0.3
G0 Z10
G17
M9
G28 G91 Z0
G28 X0 Y0
M30
%
