%
(plate_and_led)
(T5  D=3 CR=0 - ZMIN=-9 - flat end mill)
G90 G94
G17
G21
G28 G91 Z0
G90

(Circular5)
M9
T5 M6
S4775 M3
G54
M8
G0 X-51.75 Y30.3
Z10
Z0
G1 Z-1.7 F500
G18 G3 X-52.05 Z-2 I-0.3
G1 X-52.2
G17 G3 X-52.5 Y30 J-0.3
X-50.5 I1 F1000
X-52.5 I-1
X-52.2 Y29.7 I0.3
G1 X-52.05
G18 G2 X-51.75 Z-1.7 K0.3
G0 Z5
Y30.3
Z-1
G1 Z-2.7 F500
G3 X-52.05 Z-3 I-0.3
G1 X-52.2
G17 G3 X-52.5 Y30 J-0.3
X-50.5 I1 F1000
X-52.5 I-1
X-52.2 Y29.7 I0.3
G1 X-52.05
G18 G2 X-51.75 Z-2.7 K0.3
G0 Z5
Y30.3
Z-2
G1 Z-3.7 F500
G3 X-52.05 Z-4 I-0.3
G1 X-52.2
G17 G3 X-52.5 Y30 J-0.3
X-50.5 I1 F1000
X-52.5 I-1
X-52.2 Y29.7 I0.3
G1 X-52.05
G18 G2 X-51.75 Z-3.7 K0.3
G0 Z5
Y30.3
Z-3
G1 Z-4.7 F500
G3 X-52.05 Z-5 I-0.3
G1 X-52.2
G17 G3 X-52.5 Y30 J-0.3
X-50.5 I1 F1000
X-52.5 I-1
X-52.2 Y29.7 I0.3
G1 X-52.05
G18 G2 X-51.75 Z-4.7 K0.3
G0 Z5
Y30.3
Z-4
G1 Z-5.7 F500
G3 X-52.05 Z-6 I-0.3
G1 X-52.2
G17 G3 X-52.5 Y30 J-0.3
X-50.5 I1 F1000
X-52.5 I-1
X-52.2 Y29.7 I0.3
G1 X-52.05
G18 G2 X-51.75 Z-5.7 K0.3
G0 Z5
Y30.3
Z-5
G1 Z-6.7 F500
G3 X-52.05 Z-7 I-0.3
G1 X-52.2
G17 G3 X-52.5 Y30 J-0.3
X-50.5 I1 F1000
X-52.5 I-1
X-52.2 Y29.7 I0.3
G1 X-52.05
G18 G2 X-51.75 Z-6.7 K0.3
G0 Z5
Y30.3
Z-6
G1 Z-7.7 F500
G3 X-52.05 Z-8 I-0.3
G1 X-52.2
G17 G3 X-52.5 Y30 J-0.3
X-50.5 I1 F1000
X-52.5 I-1
X-52.2 Y29.7 I0.3
G1 X-52.05
G18 G2 X-51.75 Z-7.7 K0.3
G0 Z5
Y30.3
Z-7
G1 Z-8.7 F500
G3 X-52.05 Z-9 I-0.3
G1 X-52.2
G17 G3 X-52.5 Y30 J-0.3
X-50.5 I1 F1000
X-52.5 I-1
X-52.2 Y29.7 I0.3
G1 X-52.05
G18 G2 X-51.75 Z-8.7 K0.3
G0 Z5
X-41.75 Y30.3
Z0
G1 Z-1.7 F500
G3 X-42.05 Z-2 I-0.3
G1 X-42.2
G17 G3 X-42.5 Y30 J-0.3
X-40.5 I1 F1000
X-42.5 I-1
X-42.2 Y29.7 I0.3
G1 X-42.05
G18 G2 X-41.75 Z-1.7 K0.3
G0 Z5
Y30.3
Z-1
G1 Z-2.7 F500
G3 X-42.05 Z-3 I-0.3
G1 X-42.2
G17 G3 X-42.5 Y30 J-0.3
X-40.5 I1 F1000
X-42.5 I-1
X-42.2 Y29.7 I0.3
G1 X-42.05
G18 G2 X-41.75 Z-2.7 K0.3
G0 Z5
Y30.3
Z-2
G1 Z-3.7 F500
G3 X-42.05 Z-4 I-0.3
G1 X-42.2
G17 G3 X-42.5 Y30 J-0.3
X-40.5 I1 F1000
X-42.5 I-1
X-42.2 Y29.7 I0.3
G1 X-42.05
G18 G2 X-41.75 Z-3.7 K0.3
G0 Z5
Y30.3
Z-3
G1 Z-4.7 F500
G3 X-42.05 Z-5 I-0.3
G1 X-42.2
G17 G3 X-42.5 Y30 J-0.3
X-40.5 I1 F1000
X-42.5 I-1
X-42.2 Y29.7 I0.3
G1 X-42.05
G18 G2 X-41.75 Z-4.7 K0.3
G0 Z5
Y30.3
Z-4
G1 Z-5.7 F500
G3 X-42.05 Z-6 I-0.3
G1 X-42.2
G17 G3 X-42.5 Y30 J-0.3
X-40.5 I1 F1000
X-42.5 I-1
X-42.2 Y29.7 I0.3
G1 X-42.05
G18 G2 X-41.75 Z-5.7 K0.3
G0 Z5
Y30.3
Z-5
G1 Z-6.7 F500
G3 X-42.05 Z-7 I-0.3
G1 X-42.2
G17 G3 X-42.5 Y30 J-0.3
X-40.5 I1 F1000
X-42.5 I-1
X-42.2 Y29.7 I0.3
G1 X-42.05
G18 G2 X-41.75 Z-6.7 K0.3
G0 Z5
Y30.3
Z-6
G1 Z-7.7 F500
G3 X-42.05 Z-8 I-0.3
G1 X-42.2
G17 G3 X-42.5 Y30 J-0.3
X-40.5 I1 F1000
X-42.5 I-1
X-42.2 Y29.7 I0.3
G1 X-42.05
G18 G2 X-41.75 Z-7.7 K0.3
G0 Z5
Y30.3
Z-7
G1 Z-8.7 F500
G3 X-42.05 Z-9 I-0.3
G1 X-42.2
G17 G3 X-42.5 Y30 J-0.3
X-40.5 I1 F1000
X-42.5 I-1
X-42.2 Y29.7 I0.3
G1 X-42.05
G18 G2 X-41.75 Z-8.7 K0.3
G0 Z5
X-46.75 Y-9.7
Z0
G1 Z-1.7 F500
G3 X-47.05 Z-2 I-0.3
G1 X-47.2
G17 G3 X-47.5 Y-10 J-0.3
X-45.5 I1 F1000
X-47.5 I-1
X-47.2 Y-10.3 I0.3
G1 X-47.05
G18 G2 X-46.75 Z-1.7 K0.3
G0 Z5
Y-9.7
Z-1
G1 Z-2.7 F500
G3 X-47.05 Z-3 I-0.3
G1 X-47.2
G17 G3 X-47.5 Y-10 J-0.3
X-45.5 I1 F1000
X-47.5 I-1
X-47.2 Y-10.3 I0.3
G1 X-47.05
G18 G2 X-46.75 Z-2.7 K0.3
G0 Z5
Y-9.7
Z-2
G1 Z-3.7 F500
G3 X-47.05 Z-4 I-0.3
G1 X-47.2
G17 G3 X-47.5 Y-10 J-0.3
X-45.5 I1 F1000
X-47.5 I-1
X-47.2 Y-10.3 I0.3
G1 X-47.05
G18 G2 X-46.75 Z-3.7 K0.3
G0 Z5
Y-9.7
Z-3
G1 Z-4.7 F500
G3 X-47.05 Z-5 I-0.3
G1 X-47.2
G17 G3 X-47.5 Y-10 J-0.3
X-45.5 I1 F1000
X-47.5 I-1
X-47.2 Y-10.3 I0.3
G1 X-47.05
G18 G2 X-46.75 Z-4.7 K0.3
G0 Z5
Y-9.7
Z-4
G1 Z-5.7 F500
G3 X-47.05 Z-6 I-0.3
G1 X-47.2
G17 G3 X-47.5 Y-10 J-0.3
X-45.5 I1 F1000
X-47.5 I-1
X-47.2 Y-10.3 I0.3
G1 X-47.05
G18 G2 X-46.75 Z-5.7 K0.3
G0 Z5
Y-9.7
Z-5
G1 Z-6.7 F500
G3 X-47.05 Z-7 I-0.3
G1 X-47.2
G17 G3 X-47.5 Y-10 J-0.3
X-45.5 I1 F1000
X-47.5 I-1
X-47.2 Y-10.3 I0.3
G1 X-47.05
G18 G2 X-46.75 Z-6.7 K0.3
G0 Z5
Y-9.7
Z-6
G1 Z-7.7 F500
G3 X-47.05 Z-8 I-0.3
G1 X-47.2
G17 G3 X-47.5 Y-10 J-0.3
X-45.5 I1 F1000
X-47.5 I-1
X-47.2 Y-10.3 I0.3
G1 X-47.05
G18 G2 X-46.75 Z-7.7 K0.3
G0 Z5
Y-9.7
Z-7
G1 Z-8.7 F500
G3 X-47.05 Z-9 I-0.3
G1 X-47.2
G17 G3 X-47.5 Y-10 J-0.3
X-45.5 I1 F1000
X-47.5 I-1
X-47.2 Y-10.3 I0.3
G1 X-47.05
G18 G2 X-46.75 Z-8.7 K0.3
G0 Z5
Y-29.7
Z0
G1 Z-1.7 F500
G3 X-47.05 Z-2 I-0.3
G1 X-47.2
G17 G3 X-47.5 Y-30 J-0.3
X-45.5 I1 F1000
X-47.5 I-1
X-47.2 Y-30.3 I0.3
G1 X-47.05
G18 G2 X-46.75 Z-1.7 K0.3
G0 Z5
Y-29.7
Z-1
G1 Z-2.7 F500
G3 X-47.05 Z-3 I-0.3
G1 X-47.2
G17 G3 X-47.5 Y-30 J-0.3
X-45.5 I1 F1000
X-47.5 I-1
X-47.2 Y-30.3 I0.3
G1 X-47.05
G18 G2 X-46.75 Z-2.7 K0.3
G0 Z5
Y-29.7
Z-2
G1 Z-3.7 F500
G3 X-47.05 Z-4 I-0.3
G1 X-47.2
G17 G3 X-47.5 Y-30 J-0.3
X-45.5 I1 F1000
X-47.5 I-1
X-47.2 Y-30.3 I0.3
G1 X-47.05
G18 G2 X-46.75 Z-3.7 K0.3
G0 Z5
Y-29.7
Z-3
G1 Z-4.7 F500
G3 X-47.05 Z-5 I-0.3
G1 X-47.2
G17 G3 X-47.5 Y-30 J-0.3
X-45.5 I1 F1000
X-47.5 I-1
X-47.2 Y-30.3 I0.3
G1 X-47.05
G18 G2 X-46.75 Z-4.7 K0.3
G0 Z5
Y-29.7
Z-4
G1 Z-5.7 F500
G3 X-47.05 Z-6 I-0.3
G1 X-47.2
G17 G3 X-47.5 Y-30 J-0.3
X-45.5 I1 F1000
X-47.5 I-1
X-47.2 Y-30.3 I0.3
G1 X-47.05
G18 G2 X-46.75 Z-5.7 K0.3
G0 Z5
Y-29.7
Z-5
G1 Z-6.7 F500
G3 X-47.05 Z-7 I-0.3
G1 X-47.2
G17 G3 X-47.5 Y-30 J-0.3
X-45.5 I1 F1000
X-47.5 I-1
X-47.2 Y-30.3 I0.3
G1 X-47.05
G18 G2 X-46.75 Z-6.7 K0.3
G0 Z5
Y-29.7
Z-6
G1 Z-7.7 F500
G3 X-47.05 Z-8 I-0.3
G1 X-47.2
G17 G3 X-47.5 Y-30 J-0.3
X-45.5 I1 F1000
X-47.5 I-1
X-47.2 Y-30.3 I0.3
G1 X-47.05
G18 G2 X-46.75 Z-7.7 K0.3
G0 Z5
Y-29.7
Z-7
G1 Z-8.7 F500
G3 X-47.05 Z-9 I-0.3
G1 X-47.2
G17 G3 X-47.5 Y-30 J-0.3
X-45.5 I1 F1000
X-47.5 I-1
X-47.2 Y-30.3 I0.3
G1 X-47.05
G18 G2 X-46.75 Z-8.7 K0.3
G0 Z5
X43.25 Y-29.9
Z0
G1 Z-1.7 F500
G3 X42.95 Z-2 I-0.3
G1 X42.8
G17 G3 X42.5 Y-30.2 J-0.3
X44.5 I1 F1000
X42.5 I-1
X42.8 Y-30.5 I0.3
G1 X42.95
G18 G2 X43.25 Z-1.7 K0.3
G0 Z5
Y-29.9
Z-1
G1 Z-2.7 F500
G3 X42.95 Z-3 I-0.3
G1 X42.8
G17 G3 X42.5 Y-30.2 J-0.3
X44.5 I1 F1000
X42.5 I-1
X42.8 Y-30.5 I0.3
G1 X42.95
G18 G2 X43.25 Z-2.7 K0.3
G0 Z5
Y-29.9
Z-2
G1 Z-3.7 F500
G3 X42.95 Z-4 I-0.3
G1 X42.8
G17 G3 X42.5 Y-30.2 J-0.3
X44.5 I1 F1000
X42.5 I-1
X42.8 Y-30.5 I0.3
G1 X42.95
G18 G2 X43.25 Z-3.7 K0.3
G0 Z5
Y-29.9
Z-3
G1 Z-4.7 F500
G3 X42.95 Z-5 I-0.3
G1 X42.8
G17 G3 X42.5 Y-30.2 J-0.3
X44.5 I1 F1000
X42.5 I-1
X42.8 Y-30.5 I0.3
G1 X42.95
G18 G2 X43.25 Z-4.7 K0.3
G0 Z5
Y-29.9
Z-4
G1 Z-5.7 F500
G3 X42.95 Z-6 I-0.3
G1 X42.8
G17 G3 X42.5 Y-30.2 J-0.3
X44.5 I1 F1000
X42.5 I-1
X42.8 Y-30.5 I0.3
G1 X42.95
G18 G2 X43.25 Z-5.7 K0.3
G0 Z5
Y-29.9
Z-5
G1 Z-6.7 F500
G3 X42.95 Z-7 I-0.3
G1 X42.8
G17 G3 X42.5 Y-30.2 J-0.3
X44.5 I1 F1000
X42.5 I-1
X42.8 Y-30.5 I0.3
G1 X42.95
G18 G2 X43.25 Z-6.7 K0.3
G0 Z5
Y-29.9
Z-6
G1 Z-7.7 F500
G3 X42.95 Z-8 I-0.3
G1 X42.8
G17 G3 X42.5 Y-30.2 J-0.3
X44.5 I1 F1000
X42.5 I-1
X42.8 Y-30.5 I0.3
G1 X42.95
G18 G2 X43.25 Z-7.7 K0.3
G0 Z5
Y-29.9
Z-7
G1 Z-8.7 F500
G3 X42.95 Z-9 I-0.3
G1 X42.8
G17 G3 X42.5 Y-30.2 J-0.3
X44.5 I1 F1000
X42.5 I-1
X42.8 Y-30.5 I0.3
G1 X42.95
G18 G2 X43.25 Z-8.7 K0.3
G0 Z5
X48.25 Y-49.2
Z0
G1 Z-1.7 F500
G3 X47.95 Z-2 I-0.3
G1 X47.8
G17 G3 X47.5 Y-49.5 J-0.3
X49.5 I1 F1000
X47.5 I-1
X47.8 Y-49.8 I0.3
G1 X47.95
G18 G2 X48.25 Z-1.7 K0.3
G0 Z5
Y-49.2
Z-1
G1 Z-2.7 F500
G3 X47.95 Z-3 I-0.3
G1 X47.8
G17 G3 X47.5 Y-49.5 J-0.3
X49.5 I1 F1000
X47.5 I-1
X47.8 Y-49.8 I0.3
G1 X47.95
G18 G2 X48.25 Z-2.7 K0.3
G0 Z5
Y-49.2
Z-2
G1 Z-3.7 F500
G3 X47.95 Z-4 I-0.3
G1 X47.8
G17 G3 X47.5 Y-49.5 J-0.3
X49.5 I1 F1000
X47.5 I-1
X47.8 Y-49.8 I0.3
G1 X47.95
G18 G2 X48.25 Z-3.7 K0.3
G0 Z5
Y-49.2
Z-3
G1 Z-4.7 F500
G3 X47.95 Z-5 I-0.3
G1 X47.8
G17 G3 X47.5 Y-49.5 J-0.3
X49.5 I1 F1000
X47.5 I-1
X47.8 Y-49.8 I0.3
G1 X47.95
G18 G2 X48.25 Z-4.7 K0.3
G0 Z5
Y-49.2
Z-4
G1 Z-5.7 F500
G3 X47.95 Z-6 I-0.3
G1 X47.8
G17 G3 X47.5 Y-49.5 J-0.3
X49.5 I1 F1000
X47.5 I-1
X47.8 Y-49.8 I0.3
G1 X47.95
G18 G2 X48.25 Z-5.7 K0.3
G0 Z5
Y-49.2
Z-5
G1 Z-6.7 F500
G3 X47.95 Z-7 I-0.3
G1 X47.8
G17 G3 X47.5 Y-49.5 J-0.3
X49.5 I1 F1000
X47.5 I-1
X47.8 Y-49.8 I0.3
G1 X47.95
G18 G2 X48.25 Z-6.7 K0.3
G0 Z5
Y-49.2
Z-6
G1 Z-7.7 F500
G3 X47.95 Z-8 I-0.3
G1 X47.8
G17 G3 X47.5 Y-49.5 J-0.3
X49.5 I1 F1000
X47.5 I-1
X47.8 Y-49.8 I0.3
G1 X47.95
G18 G2 X48.25 Z-7.7 K0.3
G0 Z5
Y-49.2
Z-7
G1 Z-8.7 F500
G3 X47.95 Z-9 I-0.3
G1 X47.8
G17 G3 X47.5 Y-49.5 J-0.3
X49.5 I1 F1000
X47.5 I-1
X47.8 Y-49.8 I0.3
G1 X47.95
G18 G2 X48.25 Z-8.7 K0.3
G0 Z5
X28.25 Y-49.2
Z0
G1 Z-1.7 F500
G3 X27.95 Z-2 I-0.3
G1 X27.8
G17 G3 X27.5 Y-49.5 J-0.3
X29.5 I1 F1000
X27.5 I-1
X27.8 Y-49.8 I0.3
G1 X27.95
G18 G2 X28.25 Z-1.7 K0.3
G0 Z5
Y-49.2
Z-1
G1 Z-2.7 F500
G3 X27.95 Z-3 I-0.3
G1 X27.8
G17 G3 X27.5 Y-49.5 J-0.3
X29.5 I1 F1000
X27.5 I-1
X27.8 Y-49.8 I0.3
G1 X27.95
G18 G2 X28.25 Z-2.7 K0.3
G0 Z5
Y-49.2
Z-2
G1 Z-3.7 F500
G3 X27.95 Z-4 I-0.3
G1 X27.8
G17 G3 X27.5 Y-49.5 J-0.3
X29.5 I1 F1000
X27.5 I-1
X27.8 Y-49.8 I0.3
G1 X27.95
G18 G2 X28.25 Z-3.7 K0.3
G0 Z5
Y-49.2
Z-3
G1 Z-4.7 F500
G3 X27.95 Z-5 I-0.3
G1 X27.8
G17 G3 X27.5 Y-49.5 J-0.3
X29.5 I1 F1000
X27.5 I-1
X27.8 Y-49.8 I0.3
G1 X27.95
G18 G2 X28.25 Z-4.7 K0.3
G0 Z5
Y-49.2
Z-4
G1 Z-5.7 F500
G3 X27.95 Z-6 I-0.3
G1 X27.8
G17 G3 X27.5 Y-49.5 J-0.3
X29.5 I1 F1000
X27.5 I-1
X27.8 Y-49.8 I0.3
G1 X27.95
G18 G2 X28.25 Z-5.7 K0.3
G0 Z5
Y-49.2
Z-5
G1 Z-6.7 F500
G3 X27.95 Z-7 I-0.3
G1 X27.8
G17 G3 X27.5 Y-49.5 J-0.3
X29.5 I1 F1000
X27.5 I-1
X27.8 Y-49.8 I0.3
G1 X27.95
G18 G2 X28.25 Z-6.7 K0.3
G0 Z5
Y-49.2
Z-6
G1 Z-7.7 F500
G3 X27.95 Z-8 I-0.3
G1 X27.8
G17 G3 X27.5 Y-49.5 J-0.3
X29.5 I1 F1000
X27.5 I-1
X27.8 Y-49.8 I0.3
G1 X27.95
G18 G2 X28.25 Z-7.7 K0.3
G0 Z5
Y-49.2
Z-7
G1 Z-8.7 F500
G3 X27.95 Z-9 I-0.3
G1 X27.8
G17 G3 X27.5 Y-49.5 J-0.3
X29.5 I1 F1000
X27.5 I-1
X27.8 Y-49.8 I0.3
G1 X27.95
G18 G2 X28.25 Z-8.7 K0.3
G0 Z5
X-1.75 Y-49.2
Z0
G1 Z-1.7 F500
G3 X-2.05 Z-2 I-0.3
G1 X-2.2
G17 G3 X-2.5 Y-49.5 J-0.3
X-0.5 I1 F1000
X-2.5 I-1
X-2.2 Y-49.8 I0.3
G1 X-2.05
G18 G2 X-1.75 Z-1.7 K0.3
G0 Z5
Y-49.2
Z-1
G1 Z-2.7 F500
G3 X-2.05 Z-3 I-0.3
G1 X-2.2
G17 G3 X-2.5 Y-49.5 J-0.3
X-0.5 I1 F1000
X-2.5 I-1
X-2.2 Y-49.8 I0.3
G1 X-2.05
G18 G2 X-1.75 Z-2.7 K0.3
G0 Z5
Y-49.2
Z-2
G1 Z-3.7 F500
G3 X-2.05 Z-4 I-0.3
G1 X-2.2
G17 G3 X-2.5 Y-49.5 J-0.3
X-0.5 I1 F1000
X-2.5 I-1
X-2.2 Y-49.8 I0.3
G1 X-2.05
G18 G2 X-1.75 Z-3.7 K0.3
G0 Z5
Y-49.2
Z-3
G1 Z-4.7 F500
G3 X-2.05 Z-5 I-0.3
G1 X-2.2
G17 G3 X-2.5 Y-49.5 J-0.3
X-0.5 I1 F1000
X-2.5 I-1
X-2.2 Y-49.8 I0.3
G1 X-2.05
G18 G2 X-1.75 Z-4.7 K0.3
G0 Z5
Y-49.2
Z-4
G1 Z-5.7 F500
G3 X-2.05 Z-6 I-0.3
G1 X-2.2
G17 G3 X-2.5 Y-49.5 J-0.3
X-0.5 I1 F1000
X-2.5 I-1
X-2.2 Y-49.8 I0.3
G1 X-2.05
G18 G2 X-1.75 Z-5.7 K0.3
G0 Z5
Y-49.2
Z-5
G1 Z-6.7 F500
G3 X-2.05 Z-7 I-0.3
G1 X-2.2
G17 G3 X-2.5 Y-49.5 J-0.3
X-0.5 I1 F1000
X-2.5 I-1
X-2.2 Y-49.8 I0.3
G1 X-2.05
G18 G2 X-1.75 Z-6.7 K0.3
G0 Z5
Y-49.2
Z-6
G1 Z-7.7 F500
G3 X-2.05 Z-8 I-0.3
G1 X-2.2
G17 G3 X-2.5 Y-49.5 J-0.3
X-0.5 I1 F1000
X-2.5 I-1
X-2.2 Y-49.8 I0.3
G1 X-2.05
G18 G2 X-1.75 Z-7.7 K0.3
G0 Z5
Y-49.2
Z-7
G1 Z-8.7 F500
G3 X-2.05 Z-9 I-0.3
G1 X-2.2
G17 G3 X-2.5 Y-49.5 J-0.3
X-0.5 I1 F1000
X-2.5 I-1
X-2.2 Y-49.8 I0.3
G1 X-2.05
G18 G2 X-1.75 Z-8.7 K0.3
G0 Z5
X-21.75 Y-49.2
Z0
G1 Z-1.7 F500
G3 X-22.05 Z-2 I-0.3
G1 X-22.2
G17 G3 X-22.5 Y-49.5 J-0.3
X-20.5 I1 F1000
X-22.5 I-1
X-22.2 Y-49.8 I0.3
G1 X-22.05
G18 G2 X-21.75 Z-1.7 K0.3
G0 Z5
Y-49.2
Z-1
G1 Z-2.7 F500
G3 X-22.05 Z-3 I-0.3
G1 X-22.2
G17 G3 X-22.5 Y-49.5 J-0.3
X-20.5 I1 F1000
X-22.5 I-1
X-22.2 Y-49.8 I0.3
G1 X-22.05
G18 G2 X-21.75 Z-2.7 K0.3
G0 Z5
Y-49.2
Z-2
G1 Z-3.7 F500
G3 X-22.05 Z-4 I-0.3
G1 X-22.2
G17 G3 X-22.5 Y-49.5 J-0.3
X-20.5 I1 F1000
X-22.5 I-1
X-22.2 Y-49.8 I0.3
G1 X-22.05
G18 G2 X-21.75 Z-3.7 K0.3
G0 Z5
Y-49.2
Z-3
G1 Z-4.7 F500
G3 X-22.05 Z-5 I-0.3
G1 X-22.2
G17 G3 X-22.5 Y-49.5 J-0.3
X-20.5 I1 F1000
X-22.5 I-1
X-22.2 Y-49.8 I0.3
G1 X-22.05
G18 G2 X-21.75 Z-4.7 K0.3
G0 Z5
Y-49.2
Z-4
G1 Z-5.7 F500
G3 X-22.05 Z-6 I-0.3
G1 X-22.2
G17 G3 X-22.5 Y-49.5 J-0.3
X-20.5 I1 F1000
X-22.5 I-1
X-22.2 Y-49.8 I0.3
G1 X-22.05
G18 G2 X-21.75 Z-5.7 K0.3
G0 Z5
Y-49.2
Z-5
G1 Z-6.7 F500
G3 X-22.05 Z-7 I-0.3
G1 X-22.2
G17 G3 X-22.5 Y-49.5 J-0.3
X-20.5 I1 F1000
X-22.5 I-1
X-22.2 Y-49.8 I0.3
G1 X-22.05
G18 G2 X-21.75 Z-6.7 K0.3
G0 Z5
Y-49.2
Z-6
G1 Z-7.7 F500
G3 X-22.05 Z-8 I-0.3
G1 X-22.2
G17 G3 X-22.5 Y-49.5 J-0.3
X-20.5 I1 F1000
X-22.5 I-1
X-22.2 Y-49.8 I0.3
G1 X-22.05
G18 G2 X-21.75 Z-7.7 K0.3
G0 Z5
Y-49.2
Z-7
G1 Z-8.7 F500
G3 X-22.05 Z-9 I-0.3
G1 X-22.2
G17 G3 X-22.5 Y-49.5 J-0.3
X-20.5 I1 F1000
X-22.5 I-1
X-22.2 Y-49.8 I0.3
G1 X-22.05
G18 G2 X-21.75 Z-8.7 K0.3
G0 Z5
X-16.75 Y-29.9
Z0
G1 Z-1.7 F500
G3 X-17.05 Z-2 I-0.3
G1 X-17.2
G17 G3 X-17.5 Y-30.2 J-0.3
X-15.5 I1 F1000
X-17.5 I-1
X-17.2 Y-30.5 I0.3
G1 X-17.05
G18 G2 X-16.75 Z-1.7 K0.3
G0 Z5
Y-29.9
Z-1
G1 Z-2.7 F500
G3 X-17.05 Z-3 I-0.3
G1 X-17.2
G17 G3 X-17.5 Y-30.2 J-0.3
X-15.5 I1 F1000
X-17.5 I-1
X-17.2 Y-30.5 I0.3
G1 X-17.05
G18 G2 X-16.75 Z-2.7 K0.3
G0 Z5
Y-29.9
Z-2
G1 Z-3.7 F500
G3 X-17.05 Z-4 I-0.3
G1 X-17.2
G17 G3 X-17.5 Y-30.2 J-0.3
X-15.5 I1 F1000
X-17.5 I-1
X-17.2 Y-30.5 I0.3
G1 X-17.05
G18 G2 X-16.75 Z-3.7 K0.3
G0 Z5
Y-29.9
Z-3
G1 Z-4.7 F500
G3 X-17.05 Z-5 I-0.3
G1 X-17.2
G17 G3 X-17.5 Y-30.2 J-0.3
X-15.5 I1 F1000
X-17.5 I-1
X-17.2 Y-30.5 I0.3
G1 X-17.05
G18 G2 X-16.75 Z-4.7 K0.3
G0 Z5
Y-29.9
Z-4
G1 Z-5.7 F500
G3 X-17.05 Z-6 I-0.3
G1 X-17.2
G17 G3 X-17.5 Y-30.2 J-0.3
X-15.5 I1 F1000
X-17.5 I-1
X-17.2 Y-30.5 I0.3
G1 X-17.05
G18 G2 X-16.75 Z-5.7 K0.3
G0 Z5
Y-29.9
Z-5
G1 Z-6.7 F500
G3 X-17.05 Z-7 I-0.3
G1 X-17.2
G17 G3 X-17.5 Y-30.2 J-0.3
X-15.5 I1 F1000
X-17.5 I-1
X-17.2 Y-30.5 I0.3
G1 X-17.05
G18 G2 X-16.75 Z-6.7 K0.3
G0 Z5
Y-29.9
Z-6
G1 Z-7.7 F500
G3 X-17.05 Z-8 I-0.3
G1 X-17.2
G17 G3 X-17.5 Y-30.2 J-0.3
X-15.5 I1 F1000
X-17.5 I-1
X-17.2 Y-30.5 I0.3
G1 X-17.05
G18 G2 X-16.75 Z-7.7 K0.3
G0 Z5
Y-29.9
Z-7
G1 Z-8.7 F500
G3 X-17.05 Z-9 I-0.3
G1 X-17.2
G17 G3 X-17.5 Y-30.2 J-0.3
X-15.5 I1 F1000
X-17.5 I-1
X-17.2 Y-30.5 I0.3
G1 X-17.05
G18 G2 X-16.75 Z-8.7 K0.3
G0 Z5
X-6.75 Y-9.7
Z0
G1 Z-1.7 F500
G3 X-7.05 Z-2 I-0.3
G1 X-7.2
G17 G3 X-7.5 Y-10 J-0.3
X-5.5 I1 F1000
X-7.5 I-1
X-7.2 Y-10.3 I0.3
G1 X-7.05
G18 G2 X-6.75 Z-1.7 K0.3
G0 Z5
Y-9.7
Z-1
G1 Z-2.7 F500
G3 X-7.05 Z-3 I-0.3
G1 X-7.2
G17 G3 X-7.5 Y-10 J-0.3
X-5.5 I1 F1000
X-7.5 I-1
X-7.2 Y-10.3 I0.3
G1 X-7.05
G18 G2 X-6.75 Z-2.7 K0.3
G0 Z5
Y-9.7
Z-2
G1 Z-3.7 F500
G3 X-7.05 Z-4 I-0.3
G1 X-7.2
G17 G3 X-7.5 Y-10 J-0.3
X-5.5 I1 F1000
X-7.5 I-1
X-7.2 Y-10.3 I0.3
G1 X-7.05
G18 G2 X-6.75 Z-3.7 K0.3
G0 Z5
Y-9.7
Z-3
G1 Z-4.7 F500
G3 X-7.05 Z-5 I-0.3
G1 X-7.2
G17 G3 X-7.5 Y-10 J-0.3
X-5.5 I1 F1000
X-7.5 I-1
X-7.2 Y-10.3 I0.3
G1 X-7.05
G18 G2 X-6.75 Z-4.7 K0.3
G0 Z5
Y-9.7
Z-4
G1 Z-5.7 F500
G3 X-7.05 Z-6 I-0.3
G1 X-7.2
G17 G3 X-7.5 Y-10 J-0.3
X-5.5 I1 F1000
X-7.5 I-1
X-7.2 Y-10.3 I0.3
G1 X-7.05
G18 G2 X-6.75 Z-5.7 K0.3
G0 Z5
Y-9.7
Z-5
G1 Z-6.7 F500
G3 X-7.05 Z-7 I-0.3
G1 X-7.2
G17 G3 X-7.5 Y-10 J-0.3
X-5.5 I1 F1000
X-7.5 I-1
X-7.2 Y-10.3 I0.3
G1 X-7.05
G18 G2 X-6.75 Z-6.7 K0.3
G0 Z5
Y-9.7
Z-6
G1 Z-7.7 F500
G3 X-7.05 Z-8 I-0.3
G1 X-7.2
G17 G3 X-7.5 Y-10 J-0.3
X-5.5 I1 F1000
X-7.5 I-1
X-7.2 Y-10.3 I0.3
G1 X-7.05
G18 G2 X-6.75 Z-7.7 K0.3
G0 Z5
Y-9.7
Z-7
G1 Z-8.7 F500
G3 X-7.05 Z-9 I-0.3
G1 X-7.2
G17 G3 X-7.5 Y-10 J-0.3
X-5.5 I1 F1000
X-7.5 I-1
X-7.2 Y-10.3 I0.3
G1 X-7.05
G18 G2 X-6.75 Z-8.7 K0.3
G0 Z5
X3.25 Y-9.7
Z0
G1 Z-1.7 F500
G3 X2.95 Z-2 I-0.3
G1 X2.8
G17 G3 X2.5 Y-10 J-0.3
X4.5 I1 F1000
X2.5 I-1
X2.8 Y-10.3 I0.3
G1 X2.95
G18 G2 X3.25 Z-1.7 K0.3
G0 Z5
Y-9.7
Z-1
G1 Z-2.7 F500
G3 X2.95 Z-3 I-0.3
G1 X2.8
G17 G3 X2.5 Y-10 J-0.3
X4.5 I1 F1000
X2.5 I-1
X2.8 Y-10.3 I0.3
G1 X2.95
G18 G2 X3.25 Z-2.7 K0.3
G0 Z5
Y-9.7
Z-2
G1 Z-3.7 F500
G3 X2.95 Z-4 I-0.3
G1 X2.8
G17 G3 X2.5 Y-10 J-0.3
X4.5 I1 F1000
X2.5 I-1
X2.8 Y-10.3 I0.3
G1 X2.95
G18 G2 X3.25 Z-3.7 K0.3
G0 Z5
Y-9.7
Z-3
G1 Z-4.7 F500
G3 X2.95 Z-5 I-0.3
G1 X2.8
G17 G3 X2.5 Y-10 J-0.3
X4.5 I1 F1000
X2.5 I-1
X2.8 Y-10.3 I0.3
G1 X2.95
G18 G2 X3.25 Z-4.7 K0.3
G0 Z5
Y-9.7
Z-4
G1 Z-5.7 F500
G3 X2.95 Z-6 I-0.3
G1 X2.8
G17 G3 X2.5 Y-10 J-0.3
X4.5 I1 F1000
X2.5 I-1
X2.8 Y-10.3 I0.3
G1 X2.95
G18 G2 X3.25 Z-5.7 K0.3
G0 Z5
Y-9.7
Z-5
G1 Z-6.7 F500
G3 X2.95 Z-7 I-0.3
G1 X2.8
G17 G3 X2.5 Y-10 J-0.3
X4.5 I1 F1000
X2.5 I-1
X2.8 Y-10.3 I0.3
G1 X2.95
G18 G2 X3.25 Z-6.7 K0.3
G0 Z5
Y-9.7
Z-6
G1 Z-7.7 F500
G3 X2.95 Z-8 I-0.3
G1 X2.8
G17 G3 X2.5 Y-10 J-0.3
X4.5 I1 F1000
X2.5 I-1
X2.8 Y-10.3 I0.3
G1 X2.95
G18 G2 X3.25 Z-7.7 K0.3
G0 Z5
Y-9.7
Z-7
G1 Z-8.7 F500
G3 X2.95 Z-9 I-0.3
G1 X2.8
G17 G3 X2.5 Y-10 J-0.3
X4.5 I1 F1000
X2.5 I-1
X2.8 Y-10.3 I0.3
G1 X2.95
G18 G2 X3.25 Z-8.7 K0.3
G0 Z5
Y-19.7
Z0
G1 Z-1.7 F500
G3 X2.95 Z-2 I-0.3
G1 X2.8
G17 G3 X2.5 Y-20 J-0.3
X4.5 I1 F1000
X2.5 I-1
X2.8 Y-20.3 I0.3
G1 X2.95
G18 G2 X3.25 Z-1.7 K0.3
G0 Z5
Y-19.7
Z-1
G1 Z-2.7 F500
G3 X2.95 Z-3 I-0.3
G1 X2.8
G17 G3 X2.5 Y-20 J-0.3
X4.5 I1 F1000
X2.5 I-1
X2.8 Y-20.3 I0.3
G1 X2.95
G18 G2 X3.25 Z-2.7 K0.3
G0 Z5
Y-19.7
Z-2
G1 Z-3.7 F500
G3 X2.95 Z-4 I-0.3
G1 X2.8
G17 G3 X2.5 Y-20 J-0.3
X4.5 I1 F1000
X2.5 I-1
X2.8 Y-20.3 I0.3
G1 X2.95
G18 G2 X3.25 Z-3.7 K0.3
G0 Z5
Y-19.7
Z-3
G1 Z-4.7 F500
G3 X2.95 Z-5 I-0.3
G1 X2.8
G17 G3 X2.5 Y-20 J-0.3
X4.5 I1 F1000
X2.5 I-1
X2.8 Y-20.3 I0.3
G1 X2.95
G18 G2 X3.25 Z-4.7 K0.3
G0 Z5
Y-19.7
Z-4
G1 Z-5.7 F500
G3 X2.95 Z-6 I-0.3
G1 X2.8
G17 G3 X2.5 Y-20 J-0.3
X4.5 I1 F1000
X2.5 I-1
X2.8 Y-20.3 I0.3
G1 X2.95
G18 G2 X3.25 Z-5.7 K0.3
G0 Z5
Y-19.7
Z-5
G1 Z-6.7 F500
G3 X2.95 Z-7 I-0.3
G1 X2.8
G17 G3 X2.5 Y-20 J-0.3
X4.5 I1 F1000
X2.5 I-1
X2.8 Y-20.3 I0.3
G1 X2.95
G18 G2 X3.25 Z-6.7 K0.3
G0 Z5
Y-19.7
Z-6
G1 Z-7.7 F500
G3 X2.95 Z-8 I-0.3
G1 X2.8
G17 G3 X2.5 Y-20 J-0.3
X4.5 I1 F1000
X2.5 I-1
X2.8 Y-20.3 I0.3
G1 X2.95
G18 G2 X3.25 Z-7.7 K0.3
G0 Z5
Y-19.7
Z-7
G1 Z-8.7 F500
G3 X2.95 Z-9 I-0.3
G1 X2.8
G17 G3 X2.5 Y-20 J-0.3
X4.5 I1 F1000
X2.5 I-1
X2.8 Y-20.3 I0.3
G1 X2.95
G18 G2 X3.25 Z-8.7 K0.3
G0 Z5
X23.25 Y-19.7
Z0
G1 Z-1.7 F500
G3 X22.95 Z-2 I-0.3
G1 X22.8
G17 G3 X22.5 Y-20 J-0.3
X24.5 I1 F1000
X22.5 I-1
X22.8 Y-20.3 I0.3
G1 X22.95
G18 G2 X23.25 Z-1.7 K0.3
G0 Z5
Y-19.7
Z-1
G1 Z-2.7 F500
G3 X22.95 Z-3 I-0.3
G1 X22.8
G17 G3 X22.5 Y-20 J-0.3
X24.5 I1 F1000
X22.5 I-1
X22.8 Y-20.3 I0.3
G1 X22.95
G18 G2 X23.25 Z-2.7 K0.3
G0 Z5
Y-19.7
Z-2
G1 Z-3.7 F500
G3 X22.95 Z-4 I-0.3
G1 X22.8
G17 G3 X22.5 Y-20 J-0.3
X24.5 I1 F1000
X22.5 I-1
X22.8 Y-20.3 I0.3
G1 X22.95
G18 G2 X23.25 Z-3.7 K0.3
G0 Z5
Y-19.7
Z-3
G1 Z-4.7 F500
G3 X22.95 Z-5 I-0.3
G1 X22.8
G17 G3 X22.5 Y-20 J-0.3
X24.5 I1 F1000
X22.5 I-1
X22.8 Y-20.3 I0.3
G1 X22.95
G18 G2 X23.25 Z-4.7 K0.3
G0 Z5
Y-19.7
Z-4
G1 Z-5.7 F500
G3 X22.95 Z-6 I-0.3
G1 X22.8
G17 G3 X22.5 Y-20 J-0.3
X24.5 I1 F1000
X22.5 I-1
X22.8 Y-20.3 I0.3
G1 X22.95
G18 G2 X23.25 Z-5.7 K0.3
G0 Z5
Y-19.7
Z-5
G1 Z-6.7 F500
G3 X22.95 Z-7 I-0.3
G1 X22.8
G17 G3 X22.5 Y-20 J-0.3
X24.5 I1 F1000
X22.5 I-1
X22.8 Y-20.3 I0.3
G1 X22.95
G18 G2 X23.25 Z-6.7 K0.3
G0 Z5
Y-19.7
Z-6
G1 Z-7.7 F500
G3 X22.95 Z-8 I-0.3
G1 X22.8
G17 G3 X22.5 Y-20 J-0.3
X24.5 I1 F1000
X22.5 I-1
X22.8 Y-20.3 I0.3
G1 X22.95
G18 G2 X23.25 Z-7.7 K0.3
G0 Z5
Y-19.7
Z-7
G1 Z-8.7 F500
G3 X22.95 Z-9 I-0.3
G1 X22.8
G17 G3 X22.5 Y-20 J-0.3
X24.5 I1 F1000
X22.5 I-1
X22.8 Y-20.3 I0.3
G1 X22.95
G18 G2 X23.25 Z-8.7 K0.3
G0 Z5
Y-9.7
Z0
G1 Z-1.7 F500
G3 X22.95 Z-2 I-0.3
G1 X22.8
G17 G3 X22.5 Y-10 J-0.3
X24.5 I1 F1000
X22.5 I-1
X22.8 Y-10.3 I0.3
G1 X22.95
G18 G2 X23.25 Z-1.7 K0.3
G0 Z5
Y-9.7
Z-1
G1 Z-2.7 F500
G3 X22.95 Z-3 I-0.3
G1 X22.8
G17 G3 X22.5 Y-10 J-0.3
X24.5 I1 F1000
X22.5 I-1
X22.8 Y-10.3 I0.3
G1 X22.95
G18 G2 X23.25 Z-2.7 K0.3
G0 Z5
Y-9.7
Z-2
G1 Z-3.7 F500
G3 X22.95 Z-4 I-0.3
G1 X22.8
G17 G3 X22.5 Y-10 J-0.3
X24.5 I1 F1000
X22.5 I-1
X22.8 Y-10.3 I0.3
G1 X22.95
G18 G2 X23.25 Z-3.7 K0.3
G0 Z5
Y-9.7
Z-3
G1 Z-4.7 F500
G3 X22.95 Z-5 I-0.3
G1 X22.8
G17 G3 X22.5 Y-10 J-0.3
X24.5 I1 F1000
X22.5 I-1
X22.8 Y-10.3 I0.3
G1 X22.95
G18 G2 X23.25 Z-4.7 K0.3
G0 Z5
Y-9.7
Z-4
G1 Z-5.7 F500
G3 X22.95 Z-6 I-0.3
G1 X22.8
G17 G3 X22.5 Y-10 J-0.3
X24.5 I1 F1000
X22.5 I-1
X22.8 Y-10.3 I0.3
G1 X22.95
G18 G2 X23.25 Z-5.7 K0.3
G0 Z5
Y-9.7
Z-5
G1 Z-6.7 F500
G3 X22.95 Z-7 I-0.3
G1 X22.8
G17 G3 X22.5 Y-10 J-0.3
X24.5 I1 F1000
X22.5 I-1
X22.8 Y-10.3 I0.3
G1 X22.95
G18 G2 X23.25 Z-6.7 K0.3
G0 Z5
Y-9.7
Z-6
G1 Z-7.7 F500
G3 X22.95 Z-8 I-0.3
G1 X22.8
G17 G3 X22.5 Y-10 J-0.3
X24.5 I1 F1000
X22.5 I-1
X22.8 Y-10.3 I0.3
G1 X22.95
G18 G2 X23.25 Z-7.7 K0.3
G0 Z5
Y-9.7
Z-7
G1 Z-8.7 F500
G3 X22.95 Z-9 I-0.3
G1 X22.8
G17 G3 X22.5 Y-10 J-0.3
X24.5 I1 F1000
X22.5 I-1
X22.8 Y-10.3 I0.3
G1 X22.95
G18 G2 X23.25 Z-8.7 K0.3
G0 Z5
X33.25 Y-9.7
Z0
G1 Z-1.7 F500
G3 X32.95 Z-2 I-0.3
G1 X32.8
G17 G3 X32.5 Y-10 J-0.3
X34.5 I1 F1000
X32.5 I-1
X32.8 Y-10.3 I0.3
G1 X32.95
G18 G2 X33.25 Z-1.7 K0.3
G0 Z5
Y-9.7
Z-1
G1 Z-2.7 F500
G3 X32.95 Z-3 I-0.3
G1 X32.8
G17 G3 X32.5 Y-10 J-0.3
X34.5 I1 F1000
X32.5 I-1
X32.8 Y-10.3 I0.3
G1 X32.95
G18 G2 X33.25 Z-2.7 K0.3
G0 Z5
Y-9.7
Z-2
G1 Z-3.7 F500
G3 X32.95 Z-4 I-0.3
G1 X32.8
G17 G3 X32.5 Y-10 J-0.3
X34.5 I1 F1000
X32.5 I-1
X32.8 Y-10.3 I0.3
G1 X32.95
G18 G2 X33.25 Z-3.7 K0.3
G0 Z5
Y-9.7
Z-3
G1 Z-4.7 F500
G3 X32.95 Z-5 I-0.3
G1 X32.8
G17 G3 X32.5 Y-10 J-0.3
X34.5 I1 F1000
X32.5 I-1
X32.8 Y-10.3 I0.3
G1 X32.95
G18 G2 X33.25 Z-4.7 K0.3
G0 Z5
Y-9.7
Z-4
G1 Z-5.7 F500
G3 X32.95 Z-6 I-0.3
G1 X32.8
G17 G3 X32.5 Y-10 J-0.3
X34.5 I1 F1000
X32.5 I-1
X32.8 Y-10.3 I0.3
G1 X32.95
G18 G2 X33.25 Z-5.7 K0.3
G0 Z5
Y-9.7
Z-5
G1 Z-6.7 F500
G3 X32.95 Z-7 I-0.3
G1 X32.8
G17 G3 X32.5 Y-10 J-0.3
X34.5 I1 F1000
X32.5 I-1
X32.8 Y-10.3 I0.3
G1 X32.95
G18 G2 X33.25 Z-6.7 K0.3
G0 Z5
Y-9.7
Z-6
G1 Z-7.7 F500
G3 X32.95 Z-8 I-0.3
G1 X32.8
G17 G3 X32.5 Y-10 J-0.3
X34.5 I1 F1000
X32.5 I-1
X32.8 Y-10.3 I0.3
G1 X32.95
G18 G2 X33.25 Z-7.7 K0.3
G0 Z5
Y-9.7
Z-7
G1 Z-8.7 F500
G3 X32.95 Z-9 I-0.3
G1 X32.8
G17 G3 X32.5 Y-10 J-0.3
X34.5 I1 F1000
X32.5 I-1
X32.8 Y-10.3 I0.3
G1 X32.95
G18 G2 X33.25 Z-8.7 K0.3
G0 Z5
Y10.3
Z0
G1 Z-1.7 F500
G3 X32.95 Z-2 I-0.3
G1 X32.8
G17 G3 X32.5 Y10 J-0.3
X34.5 I1 F1000
X32.5 I-1
X32.8 Y9.7 I0.3
G1 X32.95
G18 G2 X33.25 Z-1.7 K0.3
G0 Z5
Y10.3
Z-1
G1 Z-2.7 F500
G3 X32.95 Z-3 I-0.3
G1 X32.8
G17 G3 X32.5 Y10 J-0.3
X34.5 I1 F1000
X32.5 I-1
X32.8 Y9.7 I0.3
G1 X32.95
G18 G2 X33.25 Z-2.7 K0.3
G0 Z5
Y10.3
Z-2
G1 Z-3.7 F500
G3 X32.95 Z-4 I-0.3
G1 X32.8
G17 G3 X32.5 Y10 J-0.3
X34.5 I1 F1000
X32.5 I-1
X32.8 Y9.7 I0.3
G1 X32.95
G18 G2 X33.25 Z-3.7 K0.3
G0 Z5
Y10.3
Z-3
G1 Z-4.7 F500
G3 X32.95 Z-5 I-0.3
G1 X32.8
G17 G3 X32.5 Y10 J-0.3
X34.5 I1 F1000
X32.5 I-1
X32.8 Y9.7 I0.3
G1 X32.95
G18 G2 X33.25 Z-4.7 K0.3
G0 Z5
Y10.3
Z-4
G1 Z-5.7 F500
G3 X32.95 Z-6 I-0.3
G1 X32.8
G17 G3 X32.5 Y10 J-0.3
X34.5 I1 F1000
X32.5 I-1
X32.8 Y9.7 I0.3
G1 X32.95
G18 G2 X33.25 Z-5.7 K0.3
G0 Z5
Y10.3
Z-5
G1 Z-6.7 F500
G3 X32.95 Z-7 I-0.3
G1 X32.8
G17 G3 X32.5 Y10 J-0.3
X34.5 I1 F1000
X32.5 I-1
X32.8 Y9.7 I0.3
G1 X32.95
G18 G2 X33.25 Z-6.7 K0.3
G0 Z5
Y10.3
Z-6
G1 Z-7.7 F500
G3 X32.95 Z-8 I-0.3
G1 X32.8
G17 G3 X32.5 Y10 J-0.3
X34.5 I1 F1000
X32.5 I-1
X32.8 Y9.7 I0.3
G1 X32.95
G18 G2 X33.25 Z-7.7 K0.3
G0 Z5
Y10.3
Z-7
G1 Z-8.7 F500
G3 X32.95 Z-9 I-0.3
G1 X32.8
G17 G3 X32.5 Y10 J-0.3
X34.5 I1 F1000
X32.5 I-1
X32.8 Y9.7 I0.3
G1 X32.95
G18 G2 X33.25 Z-8.7 K0.3
G0 Z5
X23.25 Y10.3
Z0
G1 Z-1.7 F500
G3 X22.95 Z-2 I-0.3
G1 X22.8
G17 G3 X22.5 Y10 J-0.3
X24.5 I1 F1000
X22.5 I-1
X22.8 Y9.7 I0.3
G1 X22.95
G18 G2 X23.25 Z-1.7 K0.3
G0 Z5
Y10.3
Z-1
G1 Z-2.7 F500
G3 X22.95 Z-3 I-0.3
G1 X22.8
G17 G3 X22.5 Y10 J-0.3
X24.5 I1 F1000
X22.5 I-1
X22.8 Y9.7 I0.3
G1 X22.95
G18 G2 X23.25 Z-2.7 K0.3
G0 Z5
Y10.3
Z-2
G1 Z-3.7 F500
G3 X22.95 Z-4 I-0.3
G1 X22.8
G17 G3 X22.5 Y10 J-0.3
X24.5 I1 F1000
X22.5 I-1
X22.8 Y9.7 I0.3
G1 X22.95
G18 G2 X23.25 Z-3.7 K0.3
G0 Z5
Y10.3
Z-3
G1 Z-4.7 F500
G3 X22.95 Z-5 I-0.3
G1 X22.8
G17 G3 X22.5 Y10 J-0.3
X24.5 I1 F1000
X22.5 I-1
X22.8 Y9.7 I0.3
G1 X22.95
G18 G2 X23.25 Z-4.7 K0.3
G0 Z5
Y10.3
Z-4
G1 Z-5.7 F500
G3 X22.95 Z-6 I-0.3
G1 X22.8
G17 G3 X22.5 Y10 J-0.3
X24.5 I1 F1000
X22.5 I-1
X22.8 Y9.7 I0.3
G1 X22.95
G18 G2 X23.25 Z-5.7 K0.3
G0 Z5
Y10.3
Z-5
G1 Z-6.7 F500
G3 X22.95 Z-7 I-0.3
G1 X22.8
G17 G3 X22.5 Y10 J-0.3
X24.5 I1 F1000
X22.5 I-1
X22.8 Y9.7 I0.3
G1 X22.95
G18 G2 X23.25 Z-6.7 K0.3
G0 Z5
Y10.3
Z-6
G1 Z-7.7 F500
G3 X22.95 Z-8 I-0.3
G1 X22.8
G17 G3 X22.5 Y10 J-0.3
X24.5 I1 F1000
X22.5 I-1
X22.8 Y9.7 I0.3
G1 X22.95
G18 G2 X23.25 Z-7.7 K0.3
G0 Z5
Y10.3
Z-7
G1 Z-8.7 F500
G3 X22.95 Z-9 I-0.3
G1 X22.8
G17 G3 X22.5 Y10 J-0.3
X24.5 I1 F1000
X22.5 I-1
X22.8 Y9.7 I0.3
G1 X22.95
G18 G2 X23.25 Z-8.7 K0.3
G0 Z5
Y20.3
Z0
G1 Z-1.7 F500
G3 X22.95 Z-2 I-0.3
G1 X22.8
G17 G3 X22.5 Y20 J-0.3
X24.5 I1 F1000
X22.5 I-1
X22.8 Y19.7 I0.3
G1 X22.95
G18 G2 X23.25 Z-1.7 K0.3
G0 Z5
Y20.3
Z-1
G1 Z-2.7 F500
G3 X22.95 Z-3 I-0.3
G1 X22.8
G17 G3 X22.5 Y20 J-0.3
X24.5 I1 F1000
X22.5 I-1
X22.8 Y19.7 I0.3
G1 X22.95
G18 G2 X23.25 Z-2.7 K0.3
G0 Z5
Y20.3
Z-2
G1 Z-3.7 F500
G3 X22.95 Z-4 I-0.3
G1 X22.8
G17 G3 X22.5 Y20 J-0.3
X24.5 I1 F1000
X22.5 I-1
X22.8 Y19.7 I0.3
G1 X22.95
G18 G2 X23.25 Z-3.7 K0.3
G0 Z5
Y20.3
Z-3
G1 Z-4.7 F500
G3 X22.95 Z-5 I-0.3
G1 X22.8
G17 G3 X22.5 Y20 J-0.3
X24.5 I1 F1000
X22.5 I-1
X22.8 Y19.7 I0.3
G1 X22.95
G18 G2 X23.25 Z-4.7 K0.3
G0 Z5
Y20.3
Z-4
G1 Z-5.7 F500
G3 X22.95 Z-6 I-0.3
G1 X22.8
G17 G3 X22.5 Y20 J-0.3
X24.5 I1 F1000
X22.5 I-1
X22.8 Y19.7 I0.3
G1 X22.95
G18 G2 X23.25 Z-5.7 K0.3
G0 Z5
Y20.3
Z-5
G1 Z-6.7 F500
G3 X22.95 Z-7 I-0.3
G1 X22.8
G17 G3 X22.5 Y20 J-0.3
X24.5 I1 F1000
X22.5 I-1
X22.8 Y19.7 I0.3
G1 X22.95
G18 G2 X23.25 Z-6.7 K0.3
G0 Z5
Y20.3
Z-6
G1 Z-7.7 F500
G3 X22.95 Z-8 I-0.3
G1 X22.8
G17 G3 X22.5 Y20 J-0.3
X24.5 I1 F1000
X22.5 I-1
X22.8 Y19.7 I0.3
G1 X22.95
G18 G2 X23.25 Z-7.7 K0.3
G0 Z5
Y20.3
Z-7
G1 Z-8.7 F500
G3 X22.95 Z-9 I-0.3
G1 X22.8
G17 G3 X22.5 Y20 J-0.3
X24.5 I1 F1000
X22.5 I-1
X22.8 Y19.7 I0.3
G1 X22.95
G18 G2 X23.25 Z-8.7 K0.3
G0 Z5
X3.25 Y20.3
Z0
G1 Z-1.7 F500
G3 X2.95 Z-2 I-0.3
G1 X2.8
G17 G3 X2.5 Y20 J-0.3
X4.5 I1 F1000
X2.5 I-1
X2.8 Y19.7 I0.3
G1 X2.95
G18 G2 X3.25 Z-1.7 K0.3
G0 Z5
Y20.3
Z-1
G1 Z-2.7 F500
G3 X2.95 Z-3 I-0.3
G1 X2.8
G17 G3 X2.5 Y20 J-0.3
X4.5 I1 F1000
X2.5 I-1
X2.8 Y19.7 I0.3
G1 X2.95
G18 G2 X3.25 Z-2.7 K0.3
G0 Z5
Y20.3
Z-2
G1 Z-3.7 F500
G3 X2.95 Z-4 I-0.3
G1 X2.8
G17 G3 X2.5 Y20 J-0.3
X4.5 I1 F1000
X2.5 I-1
X2.8 Y19.7 I0.3
G1 X2.95
G18 G2 X3.25 Z-3.7 K0.3
G0 Z5
Y20.3
Z-3
G1 Z-4.7 F500
G3 X2.95 Z-5 I-0.3
G1 X2.8
G17 G3 X2.5 Y20 J-0.3
X4.5 I1 F1000
X2.5 I-1
X2.8 Y19.7 I0.3
G1 X2.95
G18 G2 X3.25 Z-4.7 K0.3
G0 Z5
Y20.3
Z-4
G1 Z-5.7 F500
G3 X2.95 Z-6 I-0.3
G1 X2.8
G17 G3 X2.5 Y20 J-0.3
X4.5 I1 F1000
X2.5 I-1
X2.8 Y19.7 I0.3
G1 X2.95
G18 G2 X3.25 Z-5.7 K0.3
G0 Z5
Y20.3
Z-5
G1 Z-6.7 F500
G3 X2.95 Z-7 I-0.3
G1 X2.8
G17 G3 X2.5 Y20 J-0.3
X4.5 I1 F1000
X2.5 I-1
X2.8 Y19.7 I0.3
G1 X2.95
G18 G2 X3.25 Z-6.7 K0.3
G0 Z5
Y20.3
Z-6
G1 Z-7.7 F500
G3 X2.95 Z-8 I-0.3
G1 X2.8
G17 G3 X2.5 Y20 J-0.3
X4.5 I1 F1000
X2.5 I-1
X2.8 Y19.7 I0.3
G1 X2.95
G18 G2 X3.25 Z-7.7 K0.3
G0 Z5
Y20.3
Z-7
G1 Z-8.7 F500
G3 X2.95 Z-9 I-0.3
G1 X2.8
G17 G3 X2.5 Y20 J-0.3
X4.5 I1 F1000
X2.5 I-1
X2.8 Y19.7 I0.3
G1 X2.95
G18 G2 X3.25 Z-8.7 K0.3
G0 Z5
Y10.3
Z0
G1 Z-1.7 F500
G3 X2.95 Z-2 I-0.3
G1 X2.8
G17 G3 X2.5 Y10 J-0.3
X4.5 I1 F1000
X2.5 I-1
X2.8 Y9.7 I0.3
G1 X2.95
G18 G2 X3.25 Z-1.7 K0.3
G0 Z5
Y10.3
Z-1
G1 Z-2.7 F500
G3 X2.95 Z-3 I-0.3
G1 X2.8
G17 G3 X2.5 Y10 J-0.3
X4.5 I1 F1000
X2.5 I-1
X2.8 Y9.7 I0.3
G1 X2.95
G18 G2 X3.25 Z-2.7 K0.3
G0 Z5
Y10.3
Z-2
G1 Z-3.7 F500
G3 X2.95 Z-4 I-0.3
G1 X2.8
G17 G3 X2.5 Y10 J-0.3
X4.5 I1 F1000
X2.5 I-1
X2.8 Y9.7 I0.3
G1 X2.95
G18 G2 X3.25 Z-3.7 K0.3
G0 Z5
Y10.3
Z-3
G1 Z-4.7 F500
G3 X2.95 Z-5 I-0.3
G1 X2.8
G17 G3 X2.5 Y10 J-0.3
X4.5 I1 F1000
X2.5 I-1
X2.8 Y9.7 I0.3
G1 X2.95
G18 G2 X3.25 Z-4.7 K0.3
G0 Z5
Y10.3
Z-4
G1 Z-5.7 F500
G3 X2.95 Z-6 I-0.3
G1 X2.8
G17 G3 X2.5 Y10 J-0.3
X4.5 I1 F1000
X2.5 I-1
X2.8 Y9.7 I0.3
G1 X2.95
G18 G2 X3.25 Z-5.7 K0.3
G0 Z5
Y10.3
Z-5
G1 Z-6.7 F500
G3 X2.95 Z-7 I-0.3
G1 X2.8
G17 G3 X2.5 Y10 J-0.3
X4.5 I1 F1000
X2.5 I-1
X2.8 Y9.7 I0.3
G1 X2.95
G18 G2 X3.25 Z-6.7 K0.3
G0 Z5
Y10.3
Z-6
G1 Z-7.7 F500
G3 X2.95 Z-8 I-0.3
G1 X2.8
G17 G3 X2.5 Y10 J-0.3
X4.5 I1 F1000
X2.5 I-1
X2.8 Y9.7 I0.3
G1 X2.95
G18 G2 X3.25 Z-7.7 K0.3
G0 Z5
Y10.3
Z-7
G1 Z-8.7 F500
G3 X2.95 Z-9 I-0.3
G1 X2.8
G17 G3 X2.5 Y10 J-0.3
X4.5 I1 F1000
X2.5 I-1
X2.8 Y9.7 I0.3
G1 X2.95
G18 G2 X3.25 Z-8.7 K0.3
G0 Z5
X-6.75 Y10.3
Z0
G1 Z-1.7 F500
G3 X-7.05 Z-2 I-0.3
G1 X-7.2
G17 G3 X-7.5 Y10 J-0.3
X-5.5 I1 F1000
X-7.5 I-1
X-7.2 Y9.7 I0.3
G1 X-7.05
G18 G2 X-6.75 Z-1.7 K0.3
G0 Z5
Y10.3
Z-1
G1 Z-2.7 F500
G3 X-7.05 Z-3 I-0.3
G1 X-7.2
G17 G3 X-7.5 Y10 J-0.3
X-5.5 I1 F1000
X-7.5 I-1
X-7.2 Y9.7 I0.3
G1 X-7.05
G18 G2 X-6.75 Z-2.7 K0.3
G0 Z5
Y10.3
Z-2
G1 Z-3.7 F500
G3 X-7.05 Z-4 I-0.3
G1 X-7.2
G17 G3 X-7.5 Y10 J-0.3
X-5.5 I1 F1000
X-7.5 I-1
X-7.2 Y9.7 I0.3
G1 X-7.05
G18 G2 X-6.75 Z-3.7 K0.3
G0 Z5
Y10.3
Z-3
G1 Z-4.7 F500
G3 X-7.05 Z-5 I-0.3
G1 X-7.2
G17 G3 X-7.5 Y10 J-0.3
X-5.5 I1 F1000
X-7.5 I-1
X-7.2 Y9.7 I0.3
G1 X-7.05
G18 G2 X-6.75 Z-4.7 K0.3
G0 Z5
Y10.3
Z-4
G1 Z-5.7 F500
G3 X-7.05 Z-6 I-0.3
G1 X-7.2
G17 G3 X-7.5 Y10 J-0.3
X-5.5 I1 F1000
X-7.5 I-1
X-7.2 Y9.7 I0.3
G1 X-7.05
G18 G2 X-6.75 Z-5.7 K0.3
G0 Z5
Y10.3
Z-5
G1 Z-6.7 F500
G3 X-7.05 Z-7 I-0.3
G1 X-7.2
G17 G3 X-7.5 Y10 J-0.3
X-5.5 I1 F1000
X-7.5 I-1
X-7.2 Y9.7 I0.3
G1 X-7.05
G18 G2 X-6.75 Z-6.7 K0.3
G0 Z5
Y10.3
Z-6
G1 Z-7.7 F500
G3 X-7.05 Z-8 I-0.3
G1 X-7.2
G17 G3 X-7.5 Y10 J-0.3
X-5.5 I1 F1000
X-7.5 I-1
X-7.2 Y9.7 I0.3
G1 X-7.05
G18 G2 X-6.75 Z-7.7 K0.3
G0 Z5
Y10.3
Z-7
G1 Z-8.7 F500
G3 X-7.05 Z-9 I-0.3
G1 X-7.2
G17 G3 X-7.5 Y10 J-0.3
X-5.5 I1 F1000
X-7.5 I-1
X-7.2 Y9.7 I0.3
G1 X-7.05
G18 G2 X-6.75 Z-8.7 K0.3
G0 Z5
X-16.75 Y30.5
Z0
G1 Z-1.7 F500
G3 X-17.05 Z-2 I-0.3
G1 X-17.2
G17 G3 X-17.5 Y30.2 J-0.3
X-15.5 I1 F1000
X-17.5 I-1
X-17.2 Y29.9 I0.3
G1 X-17.05
G18 G2 X-16.75 Z-1.7 K0.3
G0 Z5
Y30.5
Z-1
G1 Z-2.7 F500
G3 X-17.05 Z-3 I-0.3
G1 X-17.2
G17 G3 X-17.5 Y30.2 J-0.3
X-15.5 I1 F1000
X-17.5 I-1
X-17.2 Y29.9 I0.3
G1 X-17.05
G18 G2 X-16.75 Z-2.7 K0.3
G0 Z5
Y30.5
Z-2
G1 Z-3.7 F500
G3 X-17.05 Z-4 I-0.3
G1 X-17.2
G17 G3 X-17.5 Y30.2 J-0.3
X-15.5 I1 F1000
X-17.5 I-1
X-17.2 Y29.9 I0.3
G1 X-17.05
G18 G2 X-16.75 Z-3.7 K0.3
G0 Z5
Y30.5
Z-3
G1 Z-4.7 F500
G3 X-17.05 Z-5 I-0.3
G1 X-17.2
G17 G3 X-17.5 Y30.2 J-0.3
X-15.5 I1 F1000
X-17.5 I-1
X-17.2 Y29.9 I0.3
G1 X-17.05
G18 G2 X-16.75 Z-4.7 K0.3
G0 Z5
Y30.5
Z-4
G1 Z-5.7 F500
G3 X-17.05 Z-6 I-0.3
G1 X-17.2
G17 G3 X-17.5 Y30.2 J-0.3
X-15.5 I1 F1000
X-17.5 I-1
X-17.2 Y29.9 I0.3
G1 X-17.05
G18 G2 X-16.75 Z-5.7 K0.3
G0 Z5
Y30.5
Z-5
G1 Z-6.7 F500
G3 X-17.05 Z-7 I-0.3
G1 X-17.2
G17 G3 X-17.5 Y30.2 J-0.3
X-15.5 I1 F1000
X-17.5 I-1
X-17.2 Y29.9 I0.3
G1 X-17.05
G18 G2 X-16.75 Z-6.7 K0.3
G0 Z5
Y30.5
Z-6
G1 Z-7.7 F500
G3 X-17.05 Z-8 I-0.3
G1 X-17.2
G17 G3 X-17.5 Y30.2 J-0.3
X-15.5 I1 F1000
X-17.5 I-1
X-17.2 Y29.9 I0.3
G1 X-17.05
G18 G2 X-16.75 Z-7.7 K0.3
G0 Z5
Y30.5
Z-7
G1 Z-8.7 F500
G3 X-17.05 Z-9 I-0.3
G1 X-17.2
G17 G3 X-17.5 Y30.2 J-0.3
X-15.5 I1 F1000
X-17.5 I-1
X-17.2 Y29.9 I0.3
G1 X-17.05
G18 G2 X-16.75 Z-8.7 K0.3
G0 Z5
X-21.75 Y49.8
Z0
G1 Z-1.7 F500
G3 X-22.05 Z-2 I-0.3
G1 X-22.2
G17 G3 X-22.5 Y49.5 J-0.3
X-20.5 I1 F1000
X-22.5 I-1
X-22.2 Y49.2 I0.3
G1 X-22.05
G18 G2 X-21.75 Z-1.7 K0.3
G0 Z5
Y49.8
Z-1
G1 Z-2.7 F500
G3 X-22.05 Z-3 I-0.3
G1 X-22.2
G17 G3 X-22.5 Y49.5 J-0.3
X-20.5 I1 F1000
X-22.5 I-1
X-22.2 Y49.2 I0.3
G1 X-22.05
G18 G2 X-21.75 Z-2.7 K0.3
G0 Z5
Y49.8
Z-2
G1 Z-3.7 F500
G3 X-22.05 Z-4 I-0.3
G1 X-22.2
G17 G3 X-22.5 Y49.5 J-0.3
X-20.5 I1 F1000
X-22.5 I-1
X-22.2 Y49.2 I0.3
G1 X-22.05
G18 G2 X-21.75 Z-3.7 K0.3
G0 Z5
Y49.8
Z-3
G1 Z-4.7 F500
G3 X-22.05 Z-5 I-0.3
G1 X-22.2
G17 G3 X-22.5 Y49.5 J-0.3
X-20.5 I1 F1000
X-22.5 I-1
X-22.2 Y49.2 I0.3
G1 X-22.05
G18 G2 X-21.75 Z-4.7 K0.3
G0 Z5
Y49.8
Z-4
G1 Z-5.7 F500
G3 X-22.05 Z-6 I-0.3
G1 X-22.2
G17 G3 X-22.5 Y49.5 J-0.3
X-20.5 I1 F1000
X-22.5 I-1
X-22.2 Y49.2 I0.3
G1 X-22.05
G18 G2 X-21.75 Z-5.7 K0.3
G0 Z5
Y49.8
Z-5
G1 Z-6.7 F500
G3 X-22.05 Z-7 I-0.3
G1 X-22.2
G17 G3 X-22.5 Y49.5 J-0.3
X-20.5 I1 F1000
X-22.5 I-1
X-22.2 Y49.2 I0.3
G1 X-22.05
G18 G2 X-21.75 Z-6.7 K0.3
G0 Z5
Y49.8
Z-6
G1 Z-7.7 F500
G3 X-22.05 Z-8 I-0.3
G1 X-22.2
G17 G3 X-22.5 Y49.5 J-0.3
X-20.5 I1 F1000
X-22.5 I-1
X-22.2 Y49.2 I0.3
G1 X-22.05
G18 G2 X-21.75 Z-7.7 K0.3
G0 Z5
Y49.8
Z-7
G1 Z-8.7 F500
G3 X-22.05 Z-9 I-0.3
G1 X-22.2
G17 G3 X-22.5 Y49.5 J-0.3
X-20.5 I1 F1000
X-22.5 I-1
X-22.2 Y49.2 I0.3
G1 X-22.05
G18 G2 X-21.75 Z-8.7 K0.3
G0 Z5
X-1.75 Y49.8
Z0
G1 Z-1.7 F500
G3 X-2.05 Z-2 I-0.3
G1 X-2.2
G17 G3 X-2.5 Y49.5 J-0.3
X-0.5 I1 F1000
X-2.5 I-1
X-2.2 Y49.2 I0.3
G1 X-2.05
G18 G2 X-1.75 Z-1.7 K0.3
G0 Z5
Y49.8
Z-1
G1 Z-2.7 F500
G3 X-2.05 Z-3 I-0.3
G1 X-2.2
G17 G3 X-2.5 Y49.5 J-0.3
X-0.5 I1 F1000
X-2.5 I-1
X-2.2 Y49.2 I0.3
G1 X-2.05
G18 G2 X-1.75 Z-2.7 K0.3
G0 Z5
Y49.8
Z-2
G1 Z-3.7 F500
G3 X-2.05 Z-4 I-0.3
G1 X-2.2
G17 G3 X-2.5 Y49.5 J-0.3
X-0.5 I1 F1000
X-2.5 I-1
X-2.2 Y49.2 I0.3
G1 X-2.05
G18 G2 X-1.75 Z-3.7 K0.3
G0 Z5
Y49.8
Z-3
G1 Z-4.7 F500
G3 X-2.05 Z-5 I-0.3
G1 X-2.2
G17 G3 X-2.5 Y49.5 J-0.3
X-0.5 I1 F1000
X-2.5 I-1
X-2.2 Y49.2 I0.3
G1 X-2.05
G18 G2 X-1.75 Z-4.7 K0.3
G0 Z5
Y49.8
Z-4
G1 Z-5.7 F500
G3 X-2.05 Z-6 I-0.3
G1 X-2.2
G17 G3 X-2.5 Y49.5 J-0.3
X-0.5 I1 F1000
X-2.5 I-1
X-2.2 Y49.2 I0.3
G1 X-2.05
G18 G2 X-1.75 Z-5.7 K0.3
G0 Z5
Y49.8
Z-5
G1 Z-6.7 F500
G3 X-2.05 Z-7 I-0.3
G1 X-2.2
G17 G3 X-2.5 Y49.5 J-0.3
X-0.5 I1 F1000
X-2.5 I-1
X-2.2 Y49.2 I0.3
G1 X-2.05
G18 G2 X-1.75 Z-6.7 K0.3
G0 Z5
Y49.8
Z-6
G1 Z-7.7 F500
G3 X-2.05 Z-8 I-0.3
G1 X-2.2
G17 G3 X-2.5 Y49.5 J-0.3
X-0.5 I1 F1000
X-2.5 I-1
X-2.2 Y49.2 I0.3
G1 X-2.05
G18 G2 X-1.75 Z-7.7 K0.3
G0 Z5
Y49.8
Z-7
G1 Z-8.7 F500
G3 X-2.05 Z-9 I-0.3
G1 X-2.2
G17 G3 X-2.5 Y49.5 J-0.3
X-0.5 I1 F1000
X-2.5 I-1
X-2.2 Y49.2 I0.3
G1 X-2.05
G18 G2 X-1.75 Z-8.7 K0.3
G0 Z5
X28.25 Y49.8
Z0
G1 Z-1.7 F500
G3 X27.95 Z-2 I-0.3
G1 X27.8
G17 G3 X27.5 Y49.5 J-0.3
X29.5 I1 F1000
X27.5 I-1
X27.8 Y49.2 I0.3
G1 X27.95
G18 G2 X28.25 Z-1.7 K0.3
G0 Z5
Y49.8
Z-1
G1 Z-2.7 F500
G3 X27.95 Z-3 I-0.3
G1 X27.8
G17 G3 X27.5 Y49.5 J-0.3
X29.5 I1 F1000
X27.5 I-1
X27.8 Y49.2 I0.3
G1 X27.95
G18 G2 X28.25 Z-2.7 K0.3
G0 Z5
Y49.8
Z-2
G1 Z-3.7 F500
G3 X27.95 Z-4 I-0.3
G1 X27.8
G17 G3 X27.5 Y49.5 J-0.3
X29.5 I1 F1000
X27.5 I-1
X27.8 Y49.2 I0.3
G1 X27.95
G18 G2 X28.25 Z-3.7 K0.3
G0 Z5
Y49.8
Z-3
G1 Z-4.7 F500
G3 X27.95 Z-5 I-0.3
G1 X27.8
G17 G3 X27.5 Y49.5 J-0.3
X29.5 I1 F1000
X27.5 I-1
X27.8 Y49.2 I0.3
G1 X27.95
G18 G2 X28.25 Z-4.7 K0.3
G0 Z5
Y49.8
Z-4
G1 Z-5.7 F500
G3 X27.95 Z-6 I-0.3
G1 X27.8
G17 G3 X27.5 Y49.5 J-0.3
X29.5 I1 F1000
X27.5 I-1
X27.8 Y49.2 I0.3
G1 X27.95
G18 G2 X28.25 Z-5.7 K0.3
G0 Z5
Y49.8
Z-5
G1 Z-6.7 F500
G3 X27.95 Z-7 I-0.3
G1 X27.8
G17 G3 X27.5 Y49.5 J-0.3
X29.5 I1 F1000
X27.5 I-1
X27.8 Y49.2 I0.3
G1 X27.95
G18 G2 X28.25 Z-6.7 K0.3
G0 Z5
Y49.8
Z-6
G1 Z-7.7 F500
G3 X27.95 Z-8 I-0.3
G1 X27.8
G17 G3 X27.5 Y49.5 J-0.3
X29.5 I1 F1000
X27.5 I-1
X27.8 Y49.2 I0.3
G1 X27.95
G18 G2 X28.25 Z-7.7 K0.3
G0 Z5
Y49.8
Z-7
G1 Z-8.7 F500
G3 X27.95 Z-9 I-0.3
G1 X27.8
G17 G3 X27.5 Y49.5 J-0.3
X29.5 I1 F1000
X27.5 I-1
X27.8 Y49.2 I0.3
G1 X27.95
G18 G2 X28.25 Z-8.7 K0.3
G0 Z5
X48.25 Y49.8
Z0
G1 Z-1.7 F500
G3 X47.95 Z-2 I-0.3
G1 X47.8
G17 G3 X47.5 Y49.5 J-0.3
X49.5 I1 F1000
X47.5 I-1
X47.8 Y49.2 I0.3
G1 X47.95
G18 G2 X48.25 Z-1.7 K0.3
G0 Z5
Y49.8
Z-1
G1 Z-2.7 F500
G3 X47.95 Z-3 I-0.3
G1 X47.8
G17 G3 X47.5 Y49.5 J-0.3
X49.5 I1 F1000
X47.5 I-1
X47.8 Y49.2 I0.3
G1 X47.95
G18 G2 X48.25 Z-2.7 K0.3
G0 Z5
Y49.8
Z-2
G1 Z-3.7 F500
G3 X47.95 Z-4 I-0.3
G1 X47.8
G17 G3 X47.5 Y49.5 J-0.3
X49.5 I1 F1000
X47.5 I-1
X47.8 Y49.2 I0.3
G1 X47.95
G18 G2 X48.25 Z-3.7 K0.3
G0 Z5
Y49.8
Z-3
G1 Z-4.7 F500
G3 X47.95 Z-5 I-0.3
G1 X47.8
G17 G3 X47.5 Y49.5 J-0.3
X49.5 I1 F1000
X47.5 I-1
X47.8 Y49.2 I0.3
G1 X47.95
G18 G2 X48.25 Z-4.7 K0.3
G0 Z5
Y49.8
Z-4
G1 Z-5.7 F500
G3 X47.95 Z-6 I-0.3
G1 X47.8
G17 G3 X47.5 Y49.5 J-0.3
X49.5 I1 F1000
X47.5 I-1
X47.8 Y49.2 I0.3
G1 X47.95
G18 G2 X48.25 Z-5.7 K0.3
G0 Z5
Y49.8
Z-5
G1 Z-6.7 F500
G3 X47.95 Z-7 I-0.3
G1 X47.8
G17 G3 X47.5 Y49.5 J-0.3
X49.5 I1 F1000
X47.5 I-1
X47.8 Y49.2 I0.3
G1 X47.95
G18 G2 X48.25 Z-6.7 K0.3
G0 Z5
Y49.8
Z-6
G1 Z-7.7 F500
G3 X47.95 Z-8 I-0.3
G1 X47.8
G17 G3 X47.5 Y49.5 J-0.3
X49.5 I1 F1000
X47.5 I-1
X47.8 Y49.2 I0.3
G1 X47.95
G18 G2 X48.25 Z-7.7 K0.3
G0 Z5
Y49.8
Z-7
G1 Z-8.7 F500
G3 X47.95 Z-9 I-0.3
G1 X47.8
G17 G3 X47.5 Y49.5 J-0.3
X49.5 I1 F1000
X47.5 I-1
X47.8 Y49.2 I0.3
G1 X47.95
G18 G2 X48.25 Z-8.7 K0.3
G0 Z5
X43.25 Y30.5
Z0
G1 Z-1.7 F500
G3 X42.95 Z-2 I-0.3
G1 X42.8
G17 G3 X42.5 Y30.2 J-0.3
X44.5 I1 F1000
X42.5 I-1
X42.8 Y29.9 I0.3
G1 X42.95
G18 G2 X43.25 Z-1.7 K0.3
G0 Z5
Y30.5
Z-1
G1 Z-2.7 F500
G3 X42.95 Z-3 I-0.3
G1 X42.8
G17 G3 X42.5 Y30.2 J-0.3
X44.5 I1 F1000
X42.5 I-1
X42.8 Y29.9 I0.3
G1 X42.95
G18 G2 X43.25 Z-2.7 K0.3
G0 Z5
Y30.5
Z-2
G1 Z-3.7 F500
G3 X42.95 Z-4 I-0.3
G1 X42.8
G17 G3 X42.5 Y30.2 J-0.3
X44.5 I1 F1000
X42.5 I-1
X42.8 Y29.9 I0.3
G1 X42.95
G18 G2 X43.25 Z-3.7 K0.3
G0 Z5
Y30.5
Z-3
G1 Z-4.7 F500
G3 X42.95 Z-5 I-0.3
G1 X42.8
G17 G3 X42.5 Y30.2 J-0.3
X44.5 I1 F1000
X42.5 I-1
X42.8 Y29.9 I0.3
G1 X42.95
G18 G2 X43.25 Z-4.7 K0.3
G0 Z5
Y30.5
Z-4
G1 Z-5.7 F500
G3 X42.95 Z-6 I-0.3
G1 X42.8
G17 G3 X42.5 Y30.2 J-0.3
X44.5 I1 F1000
X42.5 I-1
X42.8 Y29.9 I0.3
G1 X42.95
G18 G2 X43.25 Z-5.7 K0.3
G0 Z5
Y30.5
Z-5
G1 Z-6.7 F500
G3 X42.95 Z-7 I-0.3
G1 X42.8
G17 G3 X42.5 Y30.2 J-0.3
X44.5 I1 F1000
X42.5 I-1
X42.8 Y29.9 I0.3
G1 X42.95
G18 G2 X43.25 Z-6.7 K0.3
G0 Z5
Y30.5
Z-6
G1 Z-7.7 F500
G3 X42.95 Z-8 I-0.3
G1 X42.8
G17 G3 X42.5 Y30.2 J-0.3
X44.5 I1 F1000
X42.5 I-1
X42.8 Y29.9 I0.3
G1 X42.95
G18 G2 X43.25 Z-7.7 K0.3
G0 Z5
Y30.5
Z-7
G1 Z-8.7 F500
G3 X42.95 Z-9 I-0.3
G1 X42.8
G17 G3 X42.5 Y30.2 J-0.3
X44.5 I1 F1000
X42.5 I-1
X42.8 Y29.9 I0.3
G1 X42.95
G18 G2 X43.25 Z-8.7 K0.3
G0 Z10
G17

(2D Contour3)
M8
G0 X-31.9 Y54.2
Z10
Z5
G1 Z2 F500
Z-0.7
G18 G2 X-31.6 Z-1 I0.3
G1 X-31.3
G17 G3 X-31 Y54.5 J0.3
G2 X-29.5 Y56 I1.5 F1000
G1 X56.5
G2 X58 Y54.5 J-1.5
G1 Y-54.5
G2 X56.5 Y-56 I-1.5
G1 X-29.5
G2 X-31 Y-54.5 J1.5
G1 Y54.5
G3 X-31.3 Y54.8 I-0.3
G1 X-31.6
G18 G3 X-31.9 Z-0.7 K0.3
G0 Z5
Y54.2
G1 Z1 F500
Z-1.7
G2 X-31.6 Z-2 I0.3
G1 X-31.3
G17 G3 X-31 Y54.5 J0.3
G2 X-29.5 Y56 I1.5 F1000
G1 X56.5
G2 X58 Y54.5 J-1.5
G1 Y-54.5
G2 X56.5 Y-56 I-1.5
G1 X-29.5
G2 X-31 Y-54.5 J1.5
G1 Y54.5
G3 X-31.3 Y54.8 I-0.3
G1 X-31.6
G18 G3 X-31.9 Z-1.7 K0.3
G0 Z5
Y54.2
G1 Z0 F500
Z-2.7
G2 X-31.6 Z-3 I0.3
G1 X-31.3
G17 G3 X-31 Y54.5 J0.3
G2 X-29.5 Y56 I1.5 F1000
G1 X56.5
G2 X58 Y54.5 J-1.5
G1 Y-54.5
G2 X56.5 Y-56 I-1.5
G1 X-29.5
G2 X-31 Y-54.5 J1.5
G1 Y54.5
G3 X-31.3 Y54.8 I-0.3
G1 X-31.6
G18 G3 X-31.9 Z-2.7 K0.3
G0 Z5
Y54.2
G1 Z-1 F500
Z-3.7
G2 X-31.6 Z-4 I0.3
G1 X-31.3
G17 G3 X-31 Y54.5 J0.3
G2 X-29.5 Y56 I1.5 F1000
G1 X56.5
G2 X58 Y54.5 J-1.5
G1 Y-54.5
G2 X56.5 Y-56 I-1.5
G1 X-29.5
G2 X-31 Y-54.5 J1.5
G1 Y54.5
G3 X-31.3 Y54.8 I-0.3
G1 X-31.6
G18 G3 X-31.9 Z-3.7 K0.3
G0 Z5
Y54.2
G1 Z-2 F500
Z-4.7
G2 X-31.6 Z-5 I0.3
G1 X-31.3
G17 G3 X-31 Y54.5 J0.3
G2 X-29.5 Y56 I1.5 F1000
G1 X56.5
G2 X58 Y54.5 J-1.5
G1 Y-54.5
G2 X56.5 Y-56 I-1.5
G1 X-29.5
G2 X-31 Y-54.5 J1.5
G1 Y54.5
G3 X-31.3 Y54.8 I-0.3
G1 X-31.6
G18 G3 X-31.9 Z-4.7 K0.3
G0 Z5
Y54.2
G1 Z-3 F500
Z-5.7
G2 X-31.6 Z-6 I0.3
G1 X-31.3
G17 G3 X-31 Y54.5 J0.3
G2 X-29.5 Y56 I1.5 F1000
G1 X56.5
G2 X58 Y54.5 J-1.5
G1 Y-54.5
G2 X56.5 Y-56 I-1.5
G1 X-29.5
G2 X-31 Y-54.5 J1.5
G1 Y54.5
G3 X-31.3 Y54.8 I-0.3
G1 X-31.6
G18 G3 X-31.9 Z-5.7 K0.3
G0 Z5
Y54.2
G1 Z-4 F500
Z-6.7
G2 X-31.6 Z-7 I0.3
G1 X-31.3
G17 G3 X-31 Y54.5 J0.3
G2 X-29.5 Y56 I1.5 F1000
G1 X56.5
G2 X58 Y54.5 J-1.5
G1 Y-54.5
G2 X56.5 Y-56 I-1.5
G1 X-29.5
G2 X-31 Y-54.5 J1.5
G1 Y54.5
G3 X-31.3 Y54.8 I-0.3
G1 X-31.6
G18 G3 X-31.9 Z-6.7 K0.3
G0 Z5
Y54.2
G1 Z-5 F500
Z-7.7
G2 X-31.6 Z-8 I0.3
G1 X-31.3
G17 G3 X-31 Y54.5 J0.3
G2 X-29.5 Y56 I1.5 F1000
G1 X56.5
G2 X58 Y54.5 J-1.5
G1 Y-54.5
G2 X56.5 Y-56 I-1.5
G1 X-29.5
G2 X-31 Y-54.5 J1.5
G1 Y54.5
G3 X-31.3 Y54.8 I-0.3
G1 X-31.6
G18 G3 X-31.9 Z-7.7 K0.3
G0 Z5
Y54.2
G1 Z-6 F500
Z-8.7
G2 X-31.6 Z-9 I0.3
G1 X-31.3
G17 G3 X-31 Y54.5 J0.3
G2 X-29.5 Y56 I1.5 F1000
G1 X56.5
G2 X58 Y54.5 J-1.5
G1 Y-54.5
G2 X56.5 Y-56 I-1.5
G1 X-29.5
G2 X-31 Y-54.5 J1.5
G1 Y54.5
G3 X-31.3 Y54.8 I-0.3
G1 X-31.6
G18 G3 X-31.9 Z-8.7 K0.3
G0 Z5
X-57.553 Y42.177
G1 Z2 F500
Z-0.7
X-57.551 Y42.17 Z-0.767
X-57.544 Y42.149 Z-0.83
X-57.532 Y42.115 Z-0.887
X-57.517 Y42.07 Z-0.935
X-57.499 Y42.017 Z-0.97
X-57.478 Y41.956 Z-0.992
X-57.457 Y41.893 Z-1
X-57.361 Y41.609
G17 G3 X-56.981 Y41.421 I0.284 J0.096
G2 X-56.5 Y41.5 I0.481 J-1.421 F1000
G1 X-36.5
G2 X-35 Y40 J-1.5
G1 Y-40
G2 X-36.5 Y-41.5 I-1.5
G1 X-56.5
G2 X-58 Y-40 J1.5
G1 Y40
G2 X-56.981 Y41.421 I1.5
G3 X-56.792 Y41.801 I-0.096 J0.284
G1 X-56.889 Y42.085
X-56.91 Y42.149 Z-0.992
X-56.93 Y42.209 Z-0.97
X-56.948 Y42.263 Z-0.935
X-56.964 Y42.308 Z-0.887
X-56.975 Y42.341 Z-0.83
X-56.982 Y42.362 Z-0.767
X-56.985 Y42.37 Z-0.7
G0 Z5
X-57.553 Y42.177
G1 Z1 F500
Z-1.7
X-57.551 Y42.17 Z-1.767
X-57.544 Y42.149 Z-1.83
X-57.532 Y42.115 Z-1.887
X-57.517 Y42.07 Z-1.935
X-57.499 Y42.017 Z-1.97
X-57.478 Y41.956 Z-1.992
X-57.457 Y41.893 Z-2
X-57.361 Y41.609
G3 X-56.981 Y41.421 I0.284 J0.096
G2 X-56.5 Y41.5 I0.481 J-1.421 F1000
G1 X-36.5
G2 X-35 Y40 J-1.5
G1 Y-40
G2 X-36.5 Y-41.5 I-1.5
G1 X-56.5
G2 X-58 Y-40 J1.5
G1 Y40
G2 X-56.981 Y41.421 I1.5
G3 X-56.792 Y41.801 I-0.096 J0.284
G1 X-56.889 Y42.085
X-56.91 Y42.149 Z-1.992
X-56.93 Y42.209 Z-1.97
X-56.948 Y42.263 Z-1.935
X-56.964 Y42.308 Z-1.887
X-56.975 Y42.341 Z-1.83
X-56.982 Y42.362 Z-1.767
X-56.985 Y42.37 Z-1.7
G0 Z5
X-57.553 Y42.177
G1 Z0 F500
Z-2.7
X-57.551 Y42.17 Z-2.767
X-57.544 Y42.149 Z-2.83
X-57.532 Y42.115 Z-2.887
X-57.517 Y42.07 Z-2.935
X-57.499 Y42.017 Z-2.97
X-57.478 Y41.956 Z-2.992
X-57.457 Y41.893 Z-3
X-57.361 Y41.609
G3 X-56.981 Y41.421 I0.284 J0.096
G2 X-56.5 Y41.5 I0.481 J-1.421 F1000
G1 X-36.5
G2 X-35 Y40 J-1.5
G1 Y-40
G2 X-36.5 Y-41.5 I-1.5
G1 X-56.5
G2 X-58 Y-40 J1.5
G1 Y40
G2 X-56.981 Y41.421 I1.5
G3 X-56.792 Y41.801 I-0.096 J0.284
G1 X-56.889 Y42.085
X-56.91 Y42.149 Z-2.992
X-56.93 Y42.209 Z-2.97
X-56.948 Y42.263 Z-2.935
X-56.964 Y42.308 Z-2.887
X-56.975 Y42.341 Z-2.83
X-56.982 Y42.362 Z-2.767
X-56.985 Y42.37 Z-2.7
G0 Z5
X-57.553 Y42.177
G1 Z-1 F500
Z-3.7
X-57.551 Y42.17 Z-3.767
X-57.544 Y42.149 Z-3.83
X-57.532 Y42.115 Z-3.887
X-57.517 Y42.07 Z-3.935
X-57.499 Y42.017 Z-3.97
X-57.478 Y41.956 Z-3.992
X-57.457 Y41.893 Z-4
X-57.361 Y41.609
G3 X-56.981 Y41.421 I0.284 J0.096
G2 X-56.5 Y41.5 I0.481 J-1.421 F1000
G1 X-36.5
G2 X-35 Y40 J-1.5
G1 Y-40
G2 X-36.5 Y-41.5 I-1.5
G1 X-56.5
G2 X-58 Y-40 J1.5
G1 Y40
G2 X-56.981 Y41.421 I1.5
G3 X-56.792 Y41.801 I-0.096 J0.284
G1 X-56.889 Y42.085
X-56.91 Y42.149 Z-3.992
X-56.93 Y42.209 Z-3.97
X-56.948 Y42.263 Z-3.935
X-56.964 Y42.308 Z-3.887
X-56.975 Y42.341 Z-3.83
X-56.982 Y42.362 Z-3.767
X-56.985 Y42.37 Z-3.7
G0 Z5
X-57.553 Y42.177
G1 Z-2 F500
Z-4.7
X-57.551 Y42.17 Z-4.767
X-57.544 Y42.149 Z-4.83
X-57.532 Y42.115 Z-4.887
X-57.517 Y42.07 Z-4.935
X-57.499 Y42.017 Z-4.97
X-57.478 Y41.956 Z-4.992
X-57.457 Y41.893 Z-5
X-57.361 Y41.609
G3 X-56.981 Y41.421 I0.284 J0.096
G2 X-56.5 Y41.5 I0.481 J-1.421 F1000
G1 X-36.5
G2 X-35 Y40 J-1.5
G1 Y-40
G2 X-36.5 Y-41.5 I-1.5
G1 X-56.5
G2 X-58 Y-40 J1.5
G1 Y40
G2 X-56.981 Y41.421 I1.5
G3 X-56.792 Y41.801 I-0.096 J0.284
G1 X-56.889 Y42.085
X-56.91 Y42.149 Z-4.992
X-56.93 Y42.209 Z-4.97
X-56.948 Y42.263 Z-4.935
X-56.964 Y42.308 Z-4.887
X-56.975 Y42.341 Z-4.83
X-56.982 Y42.362 Z-4.767
X-56.985 Y42.37 Z-4.7
G0 Z5
X-57.553 Y42.177
G1 Z-3 F500
Z-5.7
X-57.551 Y42.17 Z-5.767
X-57.544 Y42.149 Z-5.83
X-57.532 Y42.115 Z-5.887
X-57.517 Y42.07 Z-5.935
X-57.499 Y42.017 Z-5.97
X-57.478 Y41.956 Z-5.992
X-57.457 Y41.893 Z-6
X-57.361 Y41.609
G3 X-56.981 Y41.421 I0.284 J0.096
G2 X-56.5 Y41.5 I0.481 J-1.421 F1000
G1 X-36.5
G2 X-35 Y40 J-1.5
G1 Y-40
G2 X-36.5 Y-41.5 I-1.5
G1 X-56.5
G2 X-58 Y-40 J1.5
G1 Y40
G2 X-56.981 Y41.421 I1.5
G3 X-56.792 Y41.801 I-0.096 J0.284
G1 X-56.889 Y42.085
X-56.91 Y42.149 Z-5.992
X-56.93 Y42.209 Z-5.97
X-56.948 Y42.263 Z-5.935
X-56.964 Y42.308 Z-5.887
X-56.975 Y42.341 Z-5.83
X-56.982 Y42.362 Z-5.767
X-56.985 Y42.37 Z-5.7
G0 Z5
X-57.553 Y42.177
G1 Z-4 F500
Z-6.7
X-57.551 Y42.17 Z-6.767
X-57.544 Y42.149 Z-6.83
X-57.532 Y42.115 Z-6.887
X-57.517 Y42.07 Z-6.935
X-57.499 Y42.017 Z-6.97
X-57.478 Y41.956 Z-6.992
X-57.457 Y41.893 Z-7
X-57.361 Y41.609
G3 X-56.981 Y41.421 I0.284 J0.096
G2 X-56.5 Y41.5 I0.481 J-1.421 F1000
G1 X-36.5
G2 X-35 Y40 J-1.5
G1 Y-40
G2 X-36.5 Y-41.5 I-1.5
G1 X-56.5
G2 X-58 Y-40 J1.5
G1 Y40
G2 X-56.981 Y41.421 I1.5
G3 X-56.792 Y41.801 I-0.096 J0.284
G1 X-56.889 Y42.085
X-56.91 Y42.149 Z-6.992
X-56.93 Y42.209 Z-6.97
X-56.948 Y42.263 Z-6.935
X-56.964 Y42.308 Z-6.887
X-56.975 Y42.341 Z-6.83
X-56.982 Y42.362 Z-6.767
X-56.985 Y42.37 Z-6.7
G0 Z5
X-57.553 Y42.177
G1 Z-5 F500
Z-7.7
X-57.551 Y42.17 Z-7.767
X-57.544 Y42.149 Z-7.83
X-57.532 Y42.115 Z-7.887
X-57.517 Y42.07 Z-7.935
X-57.499 Y42.017 Z-7.97
X-57.478 Y41.956 Z-7.992
X-57.457 Y41.893 Z-8
X-57.361 Y41.609
G3 X-56.981 Y41.421 I0.284 J0.096
G2 X-56.5 Y41.5 I0.481 J-1.421 F1000
G1 X-36.5
G2 X-35 Y40 J-1.5
G1 Y-40
G2 X-36.5 Y-41.5 I-1.5
G1 X-56.5
G2 X-58 Y-40 J1.5
G1 Y40
G2 X-56.981 Y41.421 I1.5
G3 X-56.792 Y41.801 I-0.096 J0.284
G1 X-56.889 Y42.085
X-56.91 Y42.149 Z-7.992
X-56.93 Y42.209 Z-7.97
X-56.948 Y42.263 Z-7.935
X-56.964 Y42.308 Z-7.887
X-56.975 Y42.341 Z-7.83
X-56.982 Y42.362 Z-7.767
X-56.985 Y42.37 Z-7.7
G0 Z5
X-57.553 Y42.177
G1 Z-6 F500
Z-8.7
X-57.551 Y42.17 Z-8.767
X-57.544 Y42.149 Z-8.83
X-57.532 Y42.115 Z-8.887
X-57.517 Y42.07 Z-8.935
X-57.499 Y42.017 Z-8.97
X-57.478 Y41.956 Z-8.992
X-57.457 Y41.893 Z-9
X-57.361 Y41.609
G3 X-56.981 Y41.421 I0.284 J0.096
G2 X-56.5 Y41.5 I0.481 J-1.421 F1000
G1 X-36.5
G2 X-35 Y40 J-1.5
G1 Y-40
G2 X-36.5 Y-41.5 I-1.5
G1 X-56.5
G2 X-58 Y-40 J1.5
G1 Y40
G2 X-56.981 Y41.421 I1.5
G3 X-56.792 Y41.801 I-0.096 J0.284
G1 X-56.889 Y42.085
X-56.91 Y42.149 Z-8.992
X-56.93 Y42.209 Z-8.97
X-56.948 Y42.263 Z-8.935
X-56.964 Y42.308 Z-8.887
X-56.975 Y42.341 Z-8.83
X-56.982 Y42.362 Z-8.767
X-56.985 Y42.37 Z-8.7
G0 Z10
M9
G28 G91 Z0
G28 X0 Y0
M30
%
